;Generated by Cura LulzBot Edition GCodeWriter Version: 2.6.66
;FLAVOR:RepRap
;TIME:1313
;Filament used: 0.641739m
;Layer height: 0.38
;Generated with Cura_SteamEngine 2.6.66
;This G-Code has been generated specifically for the LulzBot Mini with standard extruder
G26 ; clear potential 'probe fail' condition
G21 ; set units to Millimetres
M107 ; disable fans
G90 ; absolute positioning
M82 ; set extruder to absolute mode
G92 E0 ; set extruder position to 0
M140 S60 ; start bed heating up
G28 ; home all axes
G0 X0 Y187 Z156 F200 ; move away from endstops
M109 R140 ;
G1 E-30 F75 ; retract filament
M109 R140 ; wait for extruder to reach wiping temp
G1 X45 Y173 F11520 ; move above wiper pad
G1 Z0 F1200 ; push nozzle into wiper
G1 X42 Y173 Z-.5 F4000             ; wiping
G1 X52 Y171 Z-.5 F4000             ; wiping
G1 X42 Y173 Z0 F4000               ; wiping
G1 X52 Y171 F4000                  ; wiping
G1 X42 Y173 F4000                  ; wiping
G1 X52 Y171 F4000                  ; wiping
G1 X42 Y173 F4000                  ; wiping
G1 X52 Y171 F4000                  ; wiping
G1 X57 Y173 F4000                  ; wiping
G1 X77 Y171 F4000                  ; wiping
G1 X57 Y173 F4000                  ; wiping
G1 X77 Y171 F4000                  ; wiping
G1 X57 Y173 F4000                  ; wiping
G1 X87 Y171 F4000                  ; wiping
G1 X77 Y173 F4000                  ; wiping
G1 X97 Y171 F4000                  ; wiping
G1 X77 Y173 F4000                  ; wiping
G1 X97 Y171 F4000                  ; wiping
G1 X77 Y173 F4000                  ; wiping
G1 X97 Y171 F4000                  ; wiping
G1 X107 Y173 F4000                 ; wiping
G1 X97 Y171 F4000                  ; wiping
G1 X107 Y173 F4000                 ; wiping
G1 X97 Y171 F4000                  ; wiping
G1 X107 Y173 F4000                 ; wiping
G1 X112 Y171 Z-0.5 F1000           ; wiping
G1 Z10 ; raise extruder
G28 X0 Y0 ; home X and Y
G0 X0 Y187 F200 ; move away from endstops
M109 R140 ; wait for extruder to reach probe temp
M204 S300 ; set probing acceleration
G29 ; start auto-leveling sequence
M204 S2000 ; restore standard acceleration
G28 X0 Y0 ; re-home to account for build variance of earlier mini builds
G0 X0 Y187 F200 ; move away from endstops
G0 Y152 F4000 ; move in front of wiper pad
G4 S1 ; pause
M400 ; wait for moves to finish
M117 Heating... ; progress indicator message on LCD
M109 R205 ; wait for extruder to reach printing temp
M190 S60 ; wait for bed to reach printing temp
G1 Z2 E0 F75 ; prime tiny bit of filament into the nozzle
M117 Mini Printing... ; progress indicator message on LCD

M221 S100
;LAYER_COUNT:1
;LAYER:0
M107
G0 F2625 X42.433 Y17.141 Z0.425
;TYPE:WALL-INNER
G1 F900 X111.567 Y17.141 E2.30288
G1 X146.135 Y77 E4.6054
G1 X111.567 Y136.859 E6.90793
G1 X42.433 Y136.859 E9.21081
G1 X7.865 Y77 E11.51333
G1 X42.433 Y17.141 E13.81586
G0 F2625 X42.482 Y17.227
G0 X48.806 Y47.763
G0 X48.876 Y47.833
G1 F900 X48.876 Y85.705 E15.07739
G1 X48.876 Y85.706 E15.07742
G1 X48.876 Y86.456 E15.10241
G1 X48.427 Y85.855 E15.11554
G1 X47.769 Y84.976 E15.15212
G1 X47.597 Y84.746 E15.16168
G1 X47.394 Y84.949 E15.16763
G1 X37.115 Y95.226 E15.65181
G1 X37.756 Y96.016 E15.6857
G1 X38.634 Y96.955 E15.72852
G1 X43.508 Y102.081 E15.96413
G1 X49.259 Y108.111 E16.2417
G1 X63.433 Y108.127 E16.71384
G1 X63.683 Y108.127 E16.72217
G1 X63.683 Y107.877 E16.72756
G1 X63.683 Y47.833 E18.72764
G1 X48.876 Y47.833 E19.22087
G0 F2625 X48.806 Y47.763
G0 X76.446 Y47.876
G0 X76.518 Y47.944
G1 F900 X76.493 Y49.372 E19.26844
G1 X76.47 Y54.705 E19.44609
G1 X76.45 Y69.139 E19.92689
G1 X66.98 Y69.139 E20.24234
G1 X66.98 Y87.42 E20.85129
G1 X76.446 Y87.42 E21.1666
G1 X76.446 Y107.876 E21.848
G1 X76.446 Y108.126 E21.85633
G1 X76.696 Y108.126 E21.86172
G1 X85.628 Y108.125 E22.15924
G1 X88.303 Y108.114 E22.24835
G1 X90.286 Y108.083 E22.31441
G1 X91.086 Y108.059 E22.34107
G1 X91.788 Y108.026 E22.36448
G1 X92.419 Y107.984 E22.38555
G1 X93 Y107.933 E22.40498
G1 X93.561 Y107.87 E22.42378
G1 X94.695 Y107.711 E22.46192
G1 X95.884 Y107.502 E22.50214
G1 X97.063 Y107.243 E22.54235
G1 X98.226 Y106.936 E22.58241
G1 X99.37 Y106.582 E22.6223
G1 X100.494 Y106.181 E22.66206
G1 X101.595 Y105.734 E22.70164
G1 X102.672 Y105.243 E22.74107
G1 X103.721 Y104.709 E22.78027
G1 X104.742 Y104.132 E22.81934
G1 X105.731 Y103.512 E22.85822
G1 X106.688 Y102.851 E22.89696
G1 X107.609 Y102.15 E22.93552
G1 X108.171 Y101.673 E22.96007
G1 X108.8 Y101.093 E22.98857
G1 X109.455 Y100.454 E23.01905
G1 X110.095 Y99.797 E23.04961
G1 X110.681 Y99.162 E23.07839
G1 X111.171 Y98.587 E23.10355
G1 X112.065 Y97.403 E23.15297
G1 X112.894 Y96.157 E23.20283
G1 X113.658 Y94.851 E23.25323
G1 X114.356 Y93.486 E23.30429
G1 X114.987 Y92.064 E23.35612
G1 X115.552 Y90.589 E23.40873
G1 X116.048 Y89.059 E23.46231
G1 X116.477 Y87.479 E23.51684
G1 X116.837 Y85.85 E23.57241
G1 X117.129 Y84.173 E23.62912
G1 X117.353 Y82.449 E23.68703
G1 X117.506 Y80.682 E23.7461
G1 X117.568 Y79.445 E23.78736
G1 X117.591 Y78.178 E23.82957
G1 X117.578 Y76.886 E23.87261
G1 X117.528 Y75.576 E23.91628
G1 X117.444 Y74.261 E23.96017
G1 X117.326 Y72.943 E24.00425
G1 X117.174 Y71.635 E24.04811
G1 X116.99 Y70.343 E24.09159
G1 X116.775 Y69.077 E24.13436
G1 X116.528 Y67.843 E24.17628
G1 X116.252 Y66.649 E24.2171
G1 X115.945 Y65.505 E24.25656
G1 X115.688 Y64.671 E24.28563
G1 X115.399 Y63.836 E24.31506
G1 X115.079 Y63.004 E24.34475
G1 X114.73 Y62.18 E24.37456
G1 X114.355 Y61.366 E24.40442
G1 X113.955 Y60.566 E24.43421
G1 X113.532 Y59.784 E24.46382
G1 X113.088 Y59.022 E24.4932
G1 X112.623 Y58.286 E24.5222
G1 X112.142 Y57.578 E24.55071
G1 X111.645 Y56.902 E24.57866
G1 X111.134 Y56.263 E24.60592
G1 X110.736 Y55.801 E24.62623
G1 X110.321 Y55.347 E24.64672
G1 X109.888 Y54.901 E24.66742
G1 X109.438 Y54.465 E24.68829
G1 X108.975 Y54.039 E24.70925
G1 X108.497 Y53.622 E24.73038
G1 X108.008 Y53.219 E24.75149
G1 X107.508 Y52.83 E24.77259
G1 X107 Y52.455 E24.79362
G1 X106.484 Y52.096 E24.81456
G1 X105.961 Y51.753 E24.8354
G1 X105.43 Y51.428 E24.85613
G1 X104.529 Y50.918 E24.89062
G1 X103.613 Y50.449 E24.9249
G1 X102.684 Y50.022 E24.95896
G1 X101.738 Y49.636 E24.99299
G1 X100.77 Y49.29 E25.02723
G1 X99.781 Y48.985 E25.06171
G1 X98.764 Y48.717 E25.09674
G1 X97.72 Y48.488 E25.13235
G1 X96.645 Y48.295 E25.16873
G1 X95.536 Y48.138 E25.20604
G1 X94.389 Y48.016 E25.24446
G1 X93.199 Y47.927 E25.28421
G1 X92.513 Y47.902 E25.30708
G1 X89.987 Y47.865 E25.39123
G1 X86.495 Y47.841 E25.50755
G1 X82.769 Y47.834 E25.63166
G1 X79.54 Y47.843 E25.73922
G1 X77.525 Y47.871 E25.80635
G1 X76.518 Y47.944 E25.83998
G0 F2625 X77.01 Y48.41
;TYPE:WALL-OUTER
G1 F900 X76.993 Y49.377 E25.8722
G1 X76.97 Y54.706 E26.04971
G1 X76.949 Y69.639 E26.54713
G1 X67.48 Y69.639 E26.86255
G1 X67.48 Y86.92 E27.43819
G1 X76.946 Y86.92 E27.7535
G1 X76.946 Y107.376 E28.4349
G1 X76.946 Y107.626 E28.44323
G1 X77.196 Y107.626 E28.44861
G1 X85.627 Y107.625 E28.72945
G1 X88.298 Y107.614 E28.81843
G1 X90.275 Y107.583 E28.88429
G1 X91.067 Y107.559 E28.91068
G1 X91.76 Y107.527 E28.93379
G1 X92.38 Y107.485 E28.95449
G1 X92.951 Y107.435 E28.97358
G1 X93.499 Y107.374 E28.99195
G1 X94.617 Y107.217 E29.02956
G1 X95.787 Y107.011 E29.06913
G1 X96.946 Y106.757 E29.10865
G1 X98.088 Y106.455 E29.148
G1 X99.212 Y106.107 E29.1872
G1 X100.316 Y105.714 E29.22623
G1 X101.397 Y105.275 E29.2651
G1 X102.455 Y104.793 E29.30382
G1 X103.484 Y104.268 E29.3423
G1 X104.486 Y103.702 E29.38064
G1 X105.456 Y103.094 E29.41877
G1 X106.394 Y102.446 E29.45675
G1 X107.296 Y101.76 E29.49449
G1 X107.84 Y101.298 E29.51827
G1 X108.456 Y100.73 E29.54618
G1 X109.101 Y100.101 E29.57619
G1 X109.732 Y99.453 E29.60632
G1 X110.307 Y98.83 E29.63456
G1 X110.781 Y98.274 E29.6589
G1 X111.657 Y97.114 E29.70732
G1 X112.47 Y95.892 E29.75621
G1 X113.219 Y94.611 E29.80564
G1 X113.905 Y93.271 E29.85578
G1 X114.525 Y91.873 E29.90672
G1 X115.08 Y90.422 E29.95847
G1 X115.569 Y88.916 E30.01121
G1 X115.991 Y87.36 E30.06492
G1 X116.346 Y85.753 E30.11974
G1 X116.635 Y84.098 E30.1757
G1 X116.856 Y82.395 E30.2329
G1 X117.007 Y80.648 E30.29131
G1 X117.068 Y79.428 E30.332
G1 X117.091 Y78.176 E30.37372
G1 X117.078 Y76.898 E30.41629
G1 X117.029 Y75.602 E30.45949
G1 X116.945 Y74.299 E30.50298
G1 X116.829 Y72.994 E30.54662
G1 X116.678 Y71.699 E30.59005
G1 X116.496 Y70.42 E30.63309
G1 X116.283 Y69.168 E30.67539
G1 X116.039 Y67.948 E30.71683
G1 X115.767 Y66.77 E30.75711
G1 X115.464 Y65.643 E30.79598
G1 X115.213 Y64.826 E30.82445
G1 X114.929 Y64.008 E30.85329
G1 X114.615 Y63.191 E30.88245
G1 X114.273 Y62.382 E30.91171
G1 X113.904 Y61.583 E30.94102
G1 X113.511 Y60.797 E30.97029
G1 X113.096 Y60.029 E30.99937
G1 X112.66 Y59.281 E31.02821
G1 X112.205 Y58.56 E31.05661
G1 X111.734 Y57.867 E31.08452
G1 X111.248 Y57.206 E31.11185
G1 X110.749 Y56.582 E31.13847
G1 X110.362 Y56.133 E31.15821
G1 X109.957 Y55.69 E31.17821
G1 X109.534 Y55.255 E31.19842
G1 X109.095 Y54.828 E31.21882
G1 X108.641 Y54.411 E31.23935
G1 X108.174 Y54.003 E31.26001
G1 X107.695 Y53.609 E31.28067
G1 X107.206 Y53.228 E31.30132
G1 X106.709 Y52.861 E31.3219
G1 X106.204 Y52.51 E31.34238
G1 X105.693 Y52.175 E31.36273
G1 X105.176 Y51.859 E31.38292
G1 X104.292 Y51.358 E31.41676
G1 X103.395 Y50.899 E31.45033
G1 X102.485 Y50.481 E31.48369
G1 X101.559 Y50.103 E31.517
G1 X100.612 Y49.765 E31.5505
G1 X99.643 Y49.466 E31.58428
G1 X98.647 Y49.203 E31.61859
G1 X97.622 Y48.978 E31.65355
G1 X96.566 Y48.789 E31.68928
G1 X95.474 Y48.634 E31.72602
G1 X94.344 Y48.514 E31.76387
G1 X93.171 Y48.426 E31.80306
G1 X92.5 Y48.402 E31.82542
G1 X89.982 Y48.365 E31.90931
G1 X86.493 Y48.341 E32.02553
G1 X82.769 Y48.334 E32.14958
G1 X79.544 Y48.343 E32.257
G1 X77.547 Y48.371 E32.32353
G1 X77.01 Y48.41 E32.34146
G0 F2625 X77.006 Y48.66
G0 X76.406 Y48.65
G0 X63.183 Y47.733
G0 X63.183 Y48.333
G1 F900 X49.376 Y48.333 E32.80138
G1 X49.376 Y87.208 E34.09632
G1 X49.376 Y87.209 E34.09635
G1 X49.376 Y87.959 E34.12134
G1 X48.927 Y87.358 E34.13447
G1 X47.714 Y85.738 E34.20189
G1 X47.542 Y85.508 E34.21145
G1 X47.339 Y85.711 E34.2174
G1 X37.787 Y95.261 E34.66733
G1 X38.133 Y95.687 E34.68561
G1 X38.998 Y96.612 E34.7278
G1 X43.87 Y101.736 E34.96332
G1 X49.474 Y107.611 E35.23377
G1 X62.933 Y107.626 E35.68209
G1 X63.183 Y107.626 E35.69042
G1 X63.183 Y107.376 E35.69581
G1 X63.183 Y48.333 E37.66255
G0 F2625 X62.933 Y48.333
G0 X62.933 Y47.733
G0 X42.482 Y17.227
G0 X42.144 Y16.641
G1 F900 X111.856 Y16.641 E39.98468
G1 X146.712 Y77 E42.30643
G1 X111.856 Y137.359 E44.62818
G1 X42.144 Y137.359 E46.95031
G1 X7.288 Y77 E49.27205
G1 X42.144 Y16.641 E51.5938
G0 F2625 X42.394 Y16.641
G0 X42.822 Y17.366
;TYPE:SKIN
G1 F900 X76.261 Y50.805 E53.16904
G1 X76.349 Y50.893
G0 F2625 X76.264 Y50.101
G1 F900 X43.529 Y17.366 E54.71112
G1 X43.441 Y17.278
G0 F2625 X44.236 Y17.366
G1 F900 X76.267 Y49.397 E56.22004
G1 X76.355 Y49.485
G0 F2625 X76.279 Y48.702
G1 F900 X44.943 Y17.366 E57.69621
G1 X44.855 Y17.278
G0 F2625 X45.65 Y17.366
G1 F900 X76.291 Y48.007 E59.13965
G1 X76.379 Y48.095
G0 F2625 X76.696 Y47.704
G1 F900 X46.357 Y17.366 E60.56883
G1 X46.269 Y17.278
G0 F2625 X47.065 Y17.366
G1 F900 X77.355 Y47.656 E61.99573
G1 X77.443 Y47.744
G0 F2625 X78.043 Y47.637
G1 F900 X47.772 Y17.366 E63.42174
G1 X47.684 Y17.278
G0 F2625 X48.479 Y17.366
G1 F900 X78.741 Y47.628 E64.84732
G1 X78.829 Y47.716
G0 F2625 X79.438 Y47.618
G1 F900 X49.186 Y17.366 E66.27243
G1 X49.098 Y17.278
G0 F2625 X49.893 Y17.366
G1 F900 X80.142 Y47.615 E67.6974
G1 X80.23 Y47.703
G0 F2625 X80.848 Y47.614
G1 F900 X50.6 Y17.366 E69.12232
G1 X50.512 Y17.278
G0 F2625 X51.307 Y17.366
G1 F900 X81.553 Y47.612 E70.54715
G1 X81.641 Y47.7
G0 F2625 X82.258 Y47.61
G1 F900 X52.014 Y17.366 E71.97188
G1 X51.926 Y17.278
G0 F2625 X52.721 Y17.366
G1 F900 X82.964 Y47.609 E73.39657
G1 X83.052 Y47.697
G0 F2625 X83.673 Y47.61
G1 F900 X53.428 Y17.366 E74.82132
G1 X53.34 Y17.278
G0 F2625 X54.136 Y17.366
G1 F900 X84.381 Y47.611 E76.2461
G1 X84.469 Y47.699
G0 F2625 X85.089 Y47.613
G1 F900 X54.843 Y17.366 E77.67096
G1 X54.755 Y17.278
G0 F2625 X55.55 Y17.366
G1 F900 X85.798 Y47.614 E79.09588
G1 X85.886 Y47.702
G0 F2625 X86.506 Y47.615
G1 F900 X56.257 Y17.366 E80.52085
G1 X56.169 Y17.278
G0 F2625 X56.964 Y17.366
G1 F900 X87.218 Y47.62 E81.94605
G1 X87.306 Y47.708
G0 F2625 X87.93 Y47.625
G1 F900 X57.671 Y17.366 E83.37149
G1 X57.583 Y17.278
G0 F2625 X58.378 Y17.366
G1 F900 X88.642 Y47.63 E84.79717
G1 X88.73 Y47.718
G0 F2625 X89.354 Y47.635
G1 F900 X59.085 Y17.366 E86.22308
G1 X58.997 Y17.278
G0 F2625 X59.792 Y17.366
G1 F900 X90.067 Y47.641 E87.64927
G1 X90.155 Y47.729
G0 F2625 X90.785 Y47.651
G1 F900 X60.5 Y17.366 E89.07593
G1 X60.412 Y17.278
G0 F2625 X61.207 Y17.366
G1 F900 X91.503 Y47.662 E90.50312
G1 X91.591 Y47.75
G0 F2625 X92.22 Y47.672
G1 F900 X61.914 Y17.366 E91.93077
G1 X61.826 Y17.278
G0 F2625 X62.621 Y17.366
G1 F900 X92.947 Y47.692 E93.35937
G1 X93.035 Y47.78
G0 F2625 X93.7 Y47.738
G1 F900 X63.328 Y17.366 E94.79013
G1 X63.24 Y17.278
G0 F2625 X64.035 Y17.366
G1 F900 X94.466 Y47.797 E96.22367
G1 X94.554 Y47.885
G0 F2625 X95.258 Y47.882
G1 F900 X64.742 Y17.366 E97.66122
G1 X64.654 Y17.278
G0 F2625 X65.449 Y17.366
G1 F900 X96.069 Y47.986 E99.10367
G1 X96.157 Y48.074
G0 F2625 X96.901 Y48.111
G1 F900 X66.156 Y17.366 E100.552
G1 X66.068 Y17.278
G0 F2625 X66.864 Y17.366
G1 F900 X97.764 Y48.267 E102.00766
G1 X97.852 Y48.355
G0 F2625 X98.67 Y48.465
G1 F900 X67.571 Y17.366 E103.47267
G1 X67.483 Y17.278
G0 F2625 X68.278 Y17.366
G1 F900 X99.622 Y48.711 E104.94925
G1 X99.71 Y48.799
G0 F2625 X100.631 Y49.012
G1 F900 X68.985 Y17.366 E106.44002
G1 X68.897 Y17.278
G0 F2625 X69.692 Y17.366
G1 F900 X101.714 Y49.388 E107.94852
G1 X101.802 Y49.476
G0 F2625 X102.913 Y49.88
G1 F900 X70.399 Y17.366 E109.48018
G1 X70.311 Y17.278
G0 F2625 X71.106 Y17.366
G1 F900 X104.274 Y50.534 E111.04266
G1 X104.362 Y50.622
G0 F2625 X105.898 Y51.451
G1 F900 X71.813 Y17.366 E112.64834
G1 X71.725 Y17.278
G0 F2625 X72.52 Y17.366
G1 F900 X108.427 Y53.272 E114.33982
G1 X108.515 Y53.36
G0 F2625 X111.434 Y56.28
G1 F900 X140.852 Y85.698 E115.72564
G1 X140.94 Y85.786
G0 F2625 X140.594 Y86.146
G1 F900 X113.151 Y58.704 E117.0184
G1 X113.063 Y58.616
G0 F2625 X114.096 Y60.356
G1 F900 X140.335 Y86.595 E118.25447
G1 X140.423 Y86.683
G0 F2625 X140.076 Y87.043
G1 F900 X114.775 Y61.742 E119.44634
G1 X114.687 Y61.654
G0 F2625 X115.312 Y62.986
G1 F900 X139.817 Y87.491 E120.60073
G1 X139.905 Y87.579
G0 F2625 X139.558 Y87.939
G1 F900 X115.732 Y64.113 E121.72312
G1 X115.644 Y64.025
G0 F2625 X116.073 Y65.162
G1 F900 X139.299 Y88.387 E122.81723
G1 X139.387 Y88.475
G0 F2625 X139.04 Y88.835
G1 F900 X116.349 Y66.144 E123.88615
G1 X116.261 Y66.056
G0 F2625 X116.582 Y67.085
G1 F900 X138.781 Y89.284 E124.9319
G1 X138.869 Y89.372
G0 F2625 X138.522 Y89.732
G1 F900 X116.786 Y67.996 E125.95584
G1 X116.698 Y67.908
G0 F2625 X116.963 Y68.879
G1 F900 X138.264 Y90.18 E126.95929
G1 X138.352 Y90.268
G0 F2625 X138.005 Y90.629
G1 F900 X117.113 Y69.737 E127.94347
G1 X117.025 Y69.649
G0 F2625 X117.25 Y70.581
G1 F900 X137.746 Y91.077 E128.90899
G1 X137.834 Y91.165
G0 F2625 X137.487 Y91.525
G1 F900 X117.366 Y71.405 E129.85683
G1 X117.278 Y71.317
G0 F2625 X117.465 Y72.211
G1 F900 X137.228 Y91.974 E130.78782
G1 X137.316 Y92.062
G0 F2625 X136.97 Y92.422
G1 F900 X117.556 Y73.008 E131.70238
G1 X117.468 Y72.92
G0 F2625 X117.626 Y73.785
G1 F900 X136.71 Y92.869 E132.60139
G1 X136.798 Y92.957
G0 F2625 X136.451 Y93.318
G1 F900 X117.687 Y74.553 E133.48534
G1 X117.599 Y74.465
G0 F2625 X117.735 Y75.308
G1 F900 X136.193 Y93.766 E134.35486
G1 X136.281 Y93.854
G0 F2625 X135.934 Y94.214
G1 F900 X117.77 Y76.05 E135.21053
G1 X117.682 Y75.962
G0 F2625 X117.798 Y76.786
G1 F900 X135.675 Y94.663 E136.05268
G1 X135.763 Y94.751
G0 F2625 X135.416 Y95.111
G1 F900 X117.808 Y77.503 E136.88216
G1 X117.72 Y77.415
G0 F2625 X117.814 Y78.216
G1 F900 X135.157 Y95.559 E137.69915
G1 X135.245 Y95.647
G0 F2625 X134.899 Y96.008
G1 F900 X117.801 Y78.91 E138.5046
G1 X117.713 Y78.822
G0 F2625 X117.784 Y79.601
G1 F900 X134.64 Y96.456 E139.29863
G1 X134.728 Y96.544
G0 F2625 X134.381 Y96.904
G1 F900 X117.75 Y80.274 E140.08206
G1 X117.662 Y80.186
G0 F2625 X117.708 Y80.938
