;Generated by Cura LulzBot Edition GCodeWriter Version: 2.6.66
;FLAVOR:RepRap
;TIME:1589
;Filament used: 0.717494m
;Layer height: 0.38
;Generated with Cura_SteamEngine 2.6.66
;This G-Code has been generated specifically for the LulzBot Mini with standard extruder
G26 ; clear potential 'probe fail' condition
G21 ; set units to Millimetres
M107 ; disable fans
G90 ; absolute positioning
M82 ; set extruder to absolute mode
G92 E0 ; set extruder position to 0
M140 S60 ; start bed heating up
G28 ; home all axes
G0 X0 Y187 Z156 F200 ; move away from endstops
M109 R140 ;
G1 E-30 F75 ; retract filament
M109 R140 ; wait for extruder to reach wiping temp
G1 X45 Y173 F11520 ; move above wiper pad
G1 Z0 F1200 ; push nozzle into wiper
G1 X42 Y173 Z-.5 F4000             ; wiping
G1 X52 Y171 Z-.5 F4000             ; wiping
G1 X42 Y173 Z0 F4000               ; wiping
G1 X52 Y171 F4000                  ; wiping
G1 X42 Y173 F4000                  ; wiping
G1 X52 Y171 F4000                  ; wiping
G1 X42 Y173 F4000                  ; wiping
G1 X52 Y171 F4000                  ; wiping
G1 X57 Y173 F4000                  ; wiping
G1 X77 Y171 F4000                  ; wiping
G1 X57 Y173 F4000                  ; wiping
G1 X77 Y171 F4000                  ; wiping
G1 X57 Y173 F4000                  ; wiping
G1 X87 Y171 F4000                  ; wiping
G1 X77 Y173 F4000                  ; wiping
G1 X97 Y171 F4000                  ; wiping
G1 X77 Y173 F4000                  ; wiping
G1 X97 Y171 F4000                  ; wiping
G1 X77 Y173 F4000                  ; wiping
G1 X97 Y171 F4000                  ; wiping
G1 X107 Y173 F4000                 ; wiping
G1 X97 Y171 F4000                  ; wiping
G1 X107 Y173 F4000                 ; wiping
G1 X97 Y171 F4000                  ; wiping
G1 X107 Y173 F4000                 ; wiping
G1 X112 Y171 Z-0.5 F1000           ; wiping
G1 Z10 ; raise extruder
G28 X0 Y0 ; home X and Y
G0 X0 Y187 F200 ; move away from endstops
M109 R140 ; wait for extruder to reach probe temp
M204 S300 ; set probing acceleration
G29 ; start auto-leveling sequence
M204 S2000 ; restore standard acceleration
G28 X0 Y0 ; re-home to account for build variance of earlier mini builds
G0 X0 Y187 F200 ; move away from endstops
G0 Y152 F4000 ; move in front of wiper pad
G4 S1 ; pause
M400 ; wait for moves to finish
M117 Heating... ; progress indicator message on LCD
M109 R205 ; wait for extruder to reach printing temp
M190 S60 ; wait for bed to reach printing temp
G1 Z2 E0 F75 ; prime tiny bit of filament into the nozzle
M117 Mini Printing... ; progress indicator message on LCD

M221 S100
;LAYER_COUNT:1
;LAYER:0
M107
G0 F2625 X39.19 Y14.776 Z0.425
;TYPE:SKIRT
G1 F900 X39.478 Y14.356 E0.01696
G1 X39.829 Y13.986 E0.03395
G1 X40.233 Y13.676 E0.05091
G1 X40.681 Y13.433 E0.06789
G1 X41.161 Y13.262 E0.08486
G1 X41.662 Y13.169 E0.10184
G1 X42.012 Y13.151 E0.11351
G1 X68.202 Y13.216 E0.98591
G1 X71.137 Y13.142 E1.08371
G1 X71.221 Y13.141 E1.08651
G1 X87.657 Y13.153 E1.634
G1 X111.994 Y13.151 E2.44467
G1 X112.502 Y13.191 E2.46165
G1 X112.997 Y13.31 E2.4786
G1 X113.468 Y13.504 E2.49557
G1 X113.903 Y13.77 E2.51256
G1 X114.29 Y14.101 E2.52952
G1 X114.621 Y14.488 E2.54648
G1 X114.808 Y14.776 E2.55792
G1 X149.804 Y75.374 E4.88889
G1 X150.024 Y75.833 E4.90585
G1 X150.169 Y76.322 E4.92284
G1 X150.235 Y76.827 E4.9398
G1 X150.222 Y77.336 E4.95676
G1 X150.13 Y77.837 E4.97373
G1 X149.96 Y78.318 E4.99073
G1 X149.804 Y78.624 E5.00217
G1 X114.809 Y139.224 E7.33318
G1 X114.521 Y139.644 E7.35014
G1 X114.17 Y140.014 E7.36713
G1 X113.766 Y140.324 E7.38409
G1 X113.318 Y140.567 E7.40107
G1 X112.838 Y140.738 E7.41804
G1 X112.337 Y140.831 E7.43502
G1 X111.995 Y140.849 E7.44643
G1 X42.006 Y140.849 E9.77779
G1 X41.498 Y140.809 E9.79476
G1 X41.003 Y140.69 E9.81172
G1 X40.532 Y140.495 E9.8287
G1 X40.097 Y140.229 E9.84568
G1 X39.71 Y139.899 E9.86262
G1 X39.378 Y139.512 E9.87961
G1 X39.192 Y139.224 E9.89103
G1 X4.199 Y78.624 E12.22201
G1 X3.979 Y78.164 E12.23899
G1 X3.834 Y77.676 E12.25595
G1 X3.768 Y77.171 E12.27292
G1 X3.781 Y76.661 E12.28991
G1 X3.873 Y76.16 E12.30688
G1 X4.043 Y75.68 E12.32384
G1 X4.199 Y75.374 E12.33528
G1 X39.19 Y14.776 E14.66617
G1 F600 E12.91617
G0 F2625 X41.203 Y16.442
G0 X42.442 Y17.158
G0 X42.482 Y17.227
G0 X42.433 Y17.141
;TYPE:WALL-INNER
G1 F600 E14.66617
G1 F900 X45.959 Y17.141 E14.78362
G1 X45.96 Y17.141 E14.78366
G1 X46.266 Y17.141 E14.79385
G1 X46.203 Y17.441 E14.8001
G1 X46.134 Y17.77 E14.8113
G1 X45.99 Y18.56 E14.83804
G1 X45.867 Y19.355 E14.86484
G1 X45.762 Y20.155 E14.89172
G1 X45.678 Y20.962 E14.91874
G1 X45.641 Y21.466 E14.93558
G1 X45.615 Y22.037 E14.95462
G1 X45.601 Y22.662 E14.97544
G1 X45.603 Y24.004 E15.02015
G1 X45.642 Y25.398 E15.0666
G1 X45.717 Y26.73 E15.11104
G1 X45.767 Y27.345 E15.13159
G1 X45.824 Y27.904 E15.15031
G1 X45.891 Y28.405 E15.16715
G1 X46.32 Y30.656 E15.24348
G1 X46.91 Y32.857 E15.31938
G1 X47.652 Y34.997 E15.39483
G1 X48.543 Y37.066 E15.46987
G1 X49.579 Y39.06 E15.54472
G1 X50.755 Y40.971 E15.61946
G1 X52.066 Y42.792 E15.6942
G1 X53.509 Y44.517 E15.76912
G1 X55.078 Y46.139 E15.84429
G1 X56.768 Y47.651 E15.91983
G1 X58.576 Y49.046 E15.99589
G1 X60.494 Y50.317 E16.07254
G1 X61.855 Y51.103 E16.12489
G1 X63.238 Y51.813 E16.17667
G1 X64.648 Y52.449 E16.2282
G1 X66.083 Y53.01 E16.27952
G1 X67.541 Y53.495 E16.33071
G1 X69.022 Y53.906 E16.3819
G1 X70.526 Y54.24 E16.43322
G1 X72.05 Y54.5 E16.48472
G1 X73.594 Y54.682 E16.53651
G1 X75.156 Y54.789 E16.58866
G1 X76.737 Y54.818 E16.64133
G1 X78.348 Y54.771 E16.69502
G1 X81.962 Y54.362 E16.81617
G1 X85.461 Y53.535 E16.93593
G1 X88.8 Y52.318 E17.05432
G1 X91.956 Y50.734 E17.17194
G1 X94.899 Y48.811 E17.28905
G1 X97.603 Y46.573 E17.40597
G1 X100.043 Y44.043 E17.52305
G1 X102.19 Y41.249 E17.64042
G1 X104.018 Y38.214 E17.75844
G1 X105.5 Y34.963 E17.87745
G1 X106.607 Y31.522 E17.99786
G1 X107.312 Y27.932 E18.11973
G1 X107.386 Y27.312 E18.14053
G1 X107.442 Y26.653 E18.16256
G1 X107.486 Y25.951 E18.18599
G1 X107.518 Y25.214 E18.21056
G1 X107.536 Y24.457 E18.23578
G1 X107.543 Y23.691 E18.2613
G1 X107.537 Y22.928 E18.28672
G1 X107.519 Y22.178 E18.31171
G1 X107.487 Y21.455 E18.33581
G1 X107.443 Y20.772 E18.35861
G1 X107.386 Y20.133 E18.37998
G1 X107.274 Y19.281 E18.40861
G1 X107.182 Y18.707 E18.42797
G1 X106.977 Y17.618 E18.46488
G1 X106.972 Y17.587 E18.46593
G1 X106.87 Y17.141 E18.48117
G1 X106.972 Y17.141
G1 X107.004 Y17.141 E18.48219
G1 X111.567 Y17.141 E18.63419
G1 X146.135 Y77 E20.93671
G1 X111.567 Y136.859 E23.23924
G1 X42.433 Y136.859 E25.54212
G1 X7.865 Y77 E27.84464
G1 X42.433 Y17.141 E30.14717
G0 F2625 X42.482 Y17.227
G0 X40.901 Y64.073
G0 X40.899 Y64.172
G1 F900 X40.229 Y64.167 E30.16949
G1 X36.109 Y64.167 E30.30673
G1 X36.109 Y66.591 E30.38747
G1 X36.109 Y66.824 E30.39523
G1 X36.109 Y67.08 E30.40376
G1 X36.109 Y67.345 E30.41259
G1 X36.109 Y67.495 E30.41758
G1 X36.04 Y67.345
G1 X35.901 Y67.08
G1 X35.749 Y66.824 E30.41924
G1 X35.621 Y66.63 E30.42594
G1 X35.584 Y66.574 E30.42818
G1 X35.404 Y66.331 E30.43825
G1 X35.215 Y66.102 E30.44814
G1 X35.015 Y65.882 E30.45804
G1 X34.803 Y65.672 E30.46798
G1 X34.579 Y65.475 E30.47792
G1 X34.34 Y65.282 E30.48815
G1 X34.089 Y65.11 E30.49829
G1 X33.84 Y64.958 E30.50801
G1 X33.582 Y64.816 E30.51782
G1 X33.315 Y64.686 E30.52771
G1 X33.04 Y64.569 E30.53766
G1 X32.757 Y64.465 E30.54771
G1 X32.466 Y64.374 E30.55786
G1 X32.167 Y64.3 E30.56812
G1 X31.862 Y64.241 E30.57847
G1 X31.553 Y64.2 E30.58885
G1 X31.241 Y64.176 E30.59928
G1 X30.923 Y64.167 E30.60987
G1 X30.536 Y64.179 E30.62277
G1 X30.153 Y64.216 E30.63559
G1 X29.776 Y64.279 E30.64832
G1 X29.407 Y64.366 E30.66095
G1 X29.047 Y64.477 E30.6735
G1 X28.692 Y64.615 E30.68619
G1 X28.358 Y64.773 E30.69849
G1 X28.041 Y64.948 E30.71056
G1 X27.738 Y65.138 E30.72247
G1 X27.444 Y65.348 E30.7345
G1 X27.164 Y65.575 E30.74651
G1 X26.887 Y65.827 E30.75898
G1 X26.633 Y66.105 E30.77153
G1 X26.405 Y66.389 E30.78366
G1 X26.195 Y66.686 E30.79578
G1 X26.003 Y66.997 E30.80795
G1 X25.829 Y67.32 E30.82017
G1 X25.674 Y67.656 E30.8325
G1 X25.536 Y68.008 E30.84509
G1 X25.425 Y68.369 E30.85767
G1 X25.337 Y68.739 E30.87034
G1 X25.276 Y69.115 E30.88303
G1 X25.238 Y69.496 E30.89578
G1 X25.21 Y70.378 E30.92518
G1 X25.209 Y70.379 E30.92522
G1 X25.202 Y70.636 E30.93379
G1 X25.459 Y70.636 E30.93929
G1 X25.46 Y70.636 E30.93932
G1 X29.142 Y70.636 E31.06197
G1 X29.142 Y75.215 E31.2145
G1 X30.325 Y75.218 E31.2539
G1 X30.579 Y75.218 E31.26236
G1 X30.961 Y75.22 E31.27509
G1 X31.088 Y75.25 E31.27943
G1 X31.185 Y75.311 E31.28325
G1 X31.257 Y75.379 E31.28655
G1 X31.329 Y75.467 E31.29034
G1 X31.393 Y75.564 E31.29421
G1 X31.437 Y75.649 E31.2974
G1 X31.474 Y75.745 E31.30082
G1 X31.494 Y75.827 E31.30364
G1 X31.505 Y75.922 E31.30682
G1 X31.497 Y76.07 E31.31176
G1 X31.44 Y76.225 E31.31726
G1 X31.349 Y76.355 E31.32254
G1 X31.218 Y76.466 E31.32826
G1 X31.128 Y76.517 E31.33171
G1 X31.015 Y76.549 E31.33562
G1 X30.881 Y76.553 E31.34009
G1 X30.723 Y76.525 E31.34543
G1 X30.671 Y76.504 E31.3473
G1 X30.592 Y76.458 E31.35035
G1 X30.538 Y76.416 E31.35262
G1 X30.479 Y76.356 E31.35543
G1 X30.432 Y76.296 E31.35797
G1 X30.372 Y76.173 E31.36253
G1 X30.352 Y76.095 E31.36521
G1 X30.343 Y76.016 E31.36786
G1 X30.33 Y75.476 E31.38585
G1 X30.325 Y75.222 E31.39132
G1 X29.142 Y75.222 E31.39175
G1 X25.46 Y75.222 E31.5144
G1 X25.459 Y75.222 E31.51444
G1 X25.202 Y75.222 E31.523
G1 X25.209 Y75.479 E31.52849
G1 X25.21 Y75.48 E31.52854
G1 X25.238 Y76.356 E31.55774
G1 X25.276 Y76.733 E31.57036
G1 X25.338 Y77.105 E31.58292
G1 X25.426 Y77.471 E31.59546
G1 X25.537 Y77.831 E31.60801
G1 X25.674 Y78.182 E31.62056
G1 X25.83 Y78.517 E31.63287
G1 X26.005 Y78.841 E31.64514
G1 X26.198 Y79.149 E31.65724
G1 X26.409 Y79.443 E31.6693
G1 X26.639 Y79.723 E31.68137
G1 X26.887 Y79.988 E31.69346
G1 X27.156 Y80.24 E31.70574
G1 X27.436 Y80.473 E31.71787
G1 X27.731 Y80.688 E31.73003
G1 X28.042 Y80.889 E31.74236
G1 X28.517 Y81.142 E31.76029
G1 X28.867 Y81.293 E31.77299
G1 X29.225 Y81.419 E31.78563
G1 X29.592 Y81.519 E31.7983
G1 X29.964 Y81.593 E31.81093
G1 X30.343 Y81.642 E31.82366
G1 X30.727 Y81.667 E31.83648
G1 X31.083 Y81.668 E31.84834
G1 X31.397 Y81.651 E31.85882
G1 X31.708 Y81.619 E31.86923
G1 X32.015 Y81.568 E31.8796
G1 X32.317 Y81.502 E31.88989
G1 X32.612 Y81.419 E31.9001
G1 X32.902 Y81.321 E31.9103
G1 X33.183 Y81.207 E31.9204
G1 X33.454 Y81.081 E31.93035
G1 X33.72 Y80.94 E31.94038
G1 X33.978 Y80.785 E31.95041
G1 X34.223 Y80.619 E31.96027
G1 X34.456 Y80.446 E31.96993
G1 X34.683 Y80.261 E31.97969
G1 X34.905 Y80.06 E31.98966
G1 X35.111 Y79.847 E31.99953
G1 X35.31 Y79.624 E32.00949
G1 X35.496 Y79.385 E32.01958
G1 X35.615 Y79.215 E32.02649
G1 X35.667 Y79.14 E32.02953
G1 X35.826 Y78.888 E32.03946
G1 X35.973 Y78.625 E32.04949
G1 X36.109 Y78.344 E32.05989
G1 X36.109 Y78.625
G1 X36.109 Y78.888
G1 X36.109 Y79.14 E32.0628
G1 X36.109 Y79.232 E32.0657
G1 X36.109 Y81.42 E32.13858
G1 X36.109 Y81.67 E32.14691
G1 X36.359 Y81.67 E32.1523
G1 X40.416 Y81.665 E32.28744
G1 X41.06 Y81.627 E32.30893
G1 X41.682 Y81.552 E32.3298
G1 X42.274 Y81.44 E32.34987
G1 X42.579 Y81.365 E32.36033
G1 X43.137 Y81.195 E32.37976
G1 X43.672 Y80.986 E32.39889
G1 X44.177 Y80.751 E32.41745
G1 X44.658 Y80.485 E32.43576
G1 X45.114 Y80.187 E32.4539
G1 X45.534 Y79.864 E32.47155
G1 X45.742 Y79.684 E32.48071
G1 X45.943 Y79.496 E32.48988
G1 X46.304 Y79.117 E32.50732
G1 X46.64 Y78.714 E32.52479
G1 X46.949 Y78.281 E32.54251
G1 X47.227 Y77.823 E32.56036
G1 X47.474 Y77.341 E32.5784
G1 X47.691 Y76.836 E32.59671
G1 X47.877 Y76.311 E32.61526
G1 X48.034 Y75.777 E32.6338
G1 X48.131 Y75.36 E32.64806
G1 X48.161 Y75.229 E32.65254
G1 X48.26 Y74.669 E32.67148
G1 X48.331 Y74.098 E32.69065
G1 X48.373 Y73.514 E32.71015
G1 X48.386 Y72.92 E32.72995
G1 X48.376 Y72.357 E32.7487
G1 X48.344 Y71.802 E32.76722
G1 X48.29 Y71.254 E32.78556
G1 X48.215 Y70.714 E32.80372
G1 X48.131 Y70.257 E32.8192
G1 X48.117 Y70.183 E32.82171
G1 X47.998 Y69.657 E32.83967
G1 X47.85 Y69.142 E32.85752
G1 X47.672 Y68.644 E32.87514
G1 X47.465 Y68.167 E32.89246
G1 X47.227 Y67.706 E32.90974
G1 X46.96 Y67.266 E32.92689
G1 X46.666 Y66.854 E32.94375
G1 X46.499 Y66.645 E32.95266
G1 X46.322 Y66.442 E32.96163
G1 X45.968 Y66.082 E32.97845
G1 X45.762 Y65.896 E32.98769
G1 X45.361 Y65.578 E33.00474
G1 X45.132 Y65.416 E33.01408
G1 X44.686 Y65.141 E33.03154
G1 X44.44 Y65.007 E33.04087
G1 X44.193 Y64.885 E33.05004
G1 X43.932 Y64.768 E33.05957
G1 X43.664 Y64.663 E33.06916
G1 X43.388 Y64.566 E33.0789
G1 X43.099 Y64.481 E33.08894
G1 X42.809 Y64.407 E33.09891
G1 X42.511 Y64.343 E33.10906
G1 X42.203 Y64.288 E33.11948
G1 X41.887 Y64.245 E33.13011
G1 X41.567 Y64.211 E33.14083
G1 X41.239 Y64.186 E33.15178
G1 X40.899 Y64.172 E33.16312
G0 F2625 X40.901 Y64.073
G0 X48.56 Y64.097
G0 X48.63 Y64.167
G1 F900 X48.63 Y70.25 E33.36575
G1 X48.63 Y70.714 E33.37989
G1 X48.63 Y71.254 E33.39347
G1 X48.63 Y71.802 E33.40489
G1 X48.63 Y72.357 E33.41487
G1 X48.63 Y72.92 E33.42421
G1 X48.63 Y73.514 E33.43412
G1 X48.63 Y74.098 E33.44494
G1 X48.63 Y74.669 E33.45765
G1 X48.63 Y75.229 E33.47329
G1 X48.63 Y75.364 E33.47765
G1 X48.63 Y81.669 E33.68767
G1 X59.939 Y81.669 E34.06438
G1 X59.939 Y76.556 E34.23469
G1 X53.744 Y76.556 E34.44105
G1 X53.744 Y75.475 E34.47706
G1 X58.304 Y75.475 E34.62896
G1 X58.304 Y70.362 E34.79927
G1 X53.744 Y70.362 E34.95117
G1 X53.744 Y69.281 E34.98718
G1 X59.939 Y69.281 E35.19353
G1 X59.939 Y69.206 E35.19603
G1 X59.939 Y69.205 E35.19607
G1 X59.939 Y67.465 E35.25403
G1 X60.428 Y69.135 E35.28331
G1 X64.103 Y81.669 E35.7184
G1 X70.045 Y81.669 E35.91633
G1 X73.641 Y69.398 E36.34227
G1 X73.719 Y69.131 E36.35153
G1 X73.976 Y69.238 E36.35735
G1 X77.816 Y70.848 E36.49605
G1 X78.04 Y70.941 E36.50413
G1 X78.375 Y70.542 E36.52149
G1 X78.691 Y70.166 E36.53785
G1 X78.751 Y70.095 E36.54094
G1 X78.655 Y69.946 E36.54685
G1 X78.701 Y69.874 E36.54969
G1 X78.897 Y69.61 E36.56065
G1 X79.028 Y69.471 E36.56701
G1 X79.18 Y69.335 E36.5738
G1 X79.356 Y69.201 E36.58117
G1 X79.446 Y69.16 E36.58447
G1 X79.538 Y69.141 E36.58759
G1 X79.716 Y69.157 E36.59355
G1 X79.836 Y69.207 E36.59788
G1 X79.862 Y69.217 E36.59881
G1 X79.976 Y69.299 E36.60348
G1 X80.019 Y69.33 E36.60525
G1 X80.037 Y69.363 E36.6065
G1 X80.059 Y69.474 E36.61027
G1 X80.057 Y69.597 E36.61437
G1 X80.049 Y69.627 E36.6154
G1 X80.035 Y69.651 E36.61633
G1 X79.987 Y69.731 E36.61944
G1 X79.953 Y69.771 E36.62118
G1 X79.873 Y69.865 E36.6253
G1 X79.696 Y70.037 E36.63352
G1 X79.45 Y70.238 E36.6441
G1 X79.335 Y70.321 E36.64882
G1 X79.059 Y70.501 E36.6598
G1 X78.647 Y70.769 E36.67381
G1 X78.132 Y71.088 E36.68522
G1 X77.972 Y71.188 E36.68971
G1 X77.763 Y71.311 E36.69602
G1 X77.324 Y71.569 E36.71298
G1 X76.702 Y71.963 E36.7375
G1 X76.128 Y72.371 E36.76096
G1 X75.854 Y72.584 E36.77252
G1 X75.587 Y72.804 E36.78405
G1 X75.333 Y73.038 E36.79555
G1 X75.096 Y73.282 E36.80688
G1 X74.877 Y73.539 E36.81813
G1 X74.674 Y73.804 E36.82925
G1 X74.49 Y74.08 E36.8403
G1 X74.314 Y74.381 E36.85191
G1 X74.165 Y74.711 E36.86397
G1 X74.047 Y75.058 E36.87618
G1 X73.956 Y75.424 E36.88875
G1 X73.894 Y75.805 E36.9016
G1 X73.856 Y76.204 E36.91495
G1 X73.845 Y76.621 E36.92885
G1 X73.858 Y77.015 E36.94198
G1 X73.899 Y77.402 E36.95494
G1 X73.971 Y77.779 E36.96773
G1 X74.072 Y78.14 E36.98022
G1 X74.203 Y78.49 E36.99266
G1 X74.362 Y78.82 E37.00487
G1 X74.543 Y79.128 E37.01677
G1 X74.74 Y79.415 E37.02836
G1 X74.955 Y79.686 E37.03988
G1 X75.189 Y79.941 E37.05141
G1 X75.442 Y80.18 E37.06301
G1 X75.712 Y80.399 E37.07459
G1 X75.993 Y80.597 E37.08604
G1 X76.286 Y80.781 E37.09756
G1 X76.594 Y80.945 E37.10919
G1 X76.916 Y81.095 E37.12102
G1 X77.405 Y81.281 E37.13845
G1 X77.754 Y81.386 E37.15059
G1 X78.099 Y81.474 E37.16245
G1 X78.448 Y81.544 E37.1743
G1 X78.802 Y81.601 E37.18625
G1 X79.158 Y81.639 E37.19817
G1 X79.522 Y81.664 E37.21033
G1 X79.926 Y81.667 E37.22378
G1 X80.345 Y81.646 E37.23776
G1 X80.75 Y81.604 E37.25132
G1 X81.139 Y81.538 E37.26446
G1 X81.515 Y81.451 E37.27732
G1 X81.872 Y81.341 E37.28976
G1 X82.202 Y81.218 E37.30149
G1 X82.52 Y81.086 E37.31296
G1 X82.825 Y80.939 E37.32424
G1 X83.117 Y80.777 E37.33536
G1 X83.24 Y80.697 E37.34025
G1 X83.393 Y80.599 E37.3463
G1 X83.648 Y80.41 E37.35688
