;Generated by Cura LulzBot Edition GCodeWriter Version: 2.6.66
;FLAVOR:RepRap
;TIME:1455
;Filament used: 0.703184m
;Layer height: 0.38
;Generated with Cura_SteamEngine 2.6.66
;This G-Code has been generated specifically for the LulzBot Mini with standard extruder
G26 ; clear potential 'probe fail' condition
G21 ; set units to Millimetres
M107 ; disable fans
G90 ; absolute positioning
M82 ; set extruder to absolute mode
G92 E0 ; set extruder position to 0
M140 S60 ; start bed heating up
G28 ; home all axes
G0 X0 Y187 Z156 F200 ; move away from endstops
M109 R140 ;
G1 E-30 F75 ; retract filament
M109 R140 ; wait for extruder to reach wiping temp
G1 X45 Y173 F11520 ; move above wiper pad
G1 Z0 F1200 ; push nozzle into wiper
G1 X42 Y173 Z-.5 F4000             ; wiping
G1 X52 Y171 Z-.5 F4000             ; wiping
G1 X42 Y173 Z0 F4000               ; wiping
G1 X52 Y171 F4000                  ; wiping
G1 X42 Y173 F4000                  ; wiping
G1 X52 Y171 F4000                  ; wiping
G1 X42 Y173 F4000                  ; wiping
G1 X52 Y171 F4000                  ; wiping
G1 X57 Y173 F4000                  ; wiping
G1 X77 Y171 F4000                  ; wiping
G1 X57 Y173 F4000                  ; wiping
G1 X77 Y171 F4000                  ; wiping
G1 X57 Y173 F4000                  ; wiping
G1 X87 Y171 F4000                  ; wiping
G1 X77 Y173 F4000                  ; wiping
G1 X97 Y171 F4000                  ; wiping
G1 X77 Y173 F4000                  ; wiping
G1 X97 Y171 F4000                  ; wiping
G1 X77 Y173 F4000                  ; wiping
G1 X97 Y171 F4000                  ; wiping
G1 X107 Y173 F4000                 ; wiping
G1 X97 Y171 F4000                  ; wiping
G1 X107 Y173 F4000                 ; wiping
G1 X97 Y171 F4000                  ; wiping
G1 X107 Y173 F4000                 ; wiping
G1 X112 Y171 Z-0.5 F1000           ; wiping
G1 Z10 ; raise extruder
G28 X0 Y0 ; home X and Y
G0 X0 Y187 F200 ; move away from endstops
M109 R140 ; wait for extruder to reach probe temp
M204 S300 ; set probing acceleration
G29 ; start auto-leveling sequence
M204 S2000 ; restore standard acceleration
G28 X0 Y0 ; re-home to account for build variance of earlier mini builds
G0 X0 Y187 F200 ; move away from endstops
G0 Y152 F4000 ; move in front of wiper pad
G4 S1 ; pause
M400 ; wait for moves to finish
M117 Heating... ; progress indicator message on LCD
M109 R205 ; wait for extruder to reach printing temp
M190 S60 ; wait for bed to reach printing temp
G1 Z2 E0 F75 ; prime tiny bit of filament into the nozzle
M117 Mini Printing... ; progress indicator message on LCD

M221 S100
;LAYER_COUNT:1
;LAYER:0
M107
G0 F2625 X38.36 Y24.808 Z0.425
;TYPE:WALL-INNER
G1 F900 X38.478 Y24.65 E0.00657
G1 X38.549 Y24.586 E0.00975
G1 X38.623 Y24.54 E0.01266
G1 X38.799 Y24.456 E0.01915
G1 X39.054 Y24.286 E0.02936
G1 X39.311 Y24.077 E0.04039
G1 X39.571 Y23.836 E0.0522
G1 X39.834 Y23.569 E0.06469
G1 X40.084 Y23.288 E0.07722
G1 X40.518 Y22.772 E0.09968
G1 X40.723 Y22.554 E0.10964
G1 X40.921 Y22.356 E0.11897
G1 X41.07 Y22.223 E0.12562
G1 X41.173 Y22.143 E0.12997
G1 X41.45 Y21.975 E0.14076
G1 X41.925 Y21.642 E0.16008
G1 X42.672 Y21.059 E0.19165
G1 X42.924 Y20.872 E0.2021
G1 X43.189 Y20.688 E0.21285
G1 X43.455 Y20.516 E0.2234
G1 X43.715 Y20.361 E0.23348
G1 X43.883 Y20.272 E0.23981
G1 X44.164 Y20.143 E0.25011
G1 X44.523 Y19.947 E0.26374
G1 X44.876 Y19.7 E0.27809
G1 X45.219 Y19.4 E0.29327
G1 X45.566 Y19.043 E0.30985
G1 X45.935 Y18.62 E0.32855
G1 X46.253 Y18.24 E0.34505
G1 X46.284 Y18.214 E0.3464
G1 X46.455 Y18.184 E0.35219
G1 X46.827 Y18.157 E0.36461
G1 X48.101 Y18.102 E0.40709
G1 X48.4 Y18.075 E0.41709
G1 X48.668 Y18.038 E0.4261
G1 X48.923 Y17.983 E0.43479
G1 X49.172 Y17.902 E0.44351
G1 X49.409 Y17.785 E0.45231
G1 X49.623 Y17.633 E0.46106
G1 X49.804 Y17.456 E0.46949
G1 X49.955 Y17.261 E0.47771
G1 X50.023 Y17.149 E0.48207
G1 X50.221 Y17.142 E0.48867
G1 X88.873 Y17.142 E1.77618
G1 X92.491 Y17.155 E1.8967
G1 X92.821 Y17.406 E1.91051
G1 X93.093 Y17.589 E1.92143
G1 X93.672 Y17.934 E1.94388
G1 X94.31 Y18.263 E1.96779
G1 X94.645 Y18.416 E1.98006
G1 X94.978 Y18.558 E1.99212
G1 X95.312 Y18.689 E2.00407
G1 X95.641 Y18.805 E2.01569
G1 X96.218 Y18.993 E2.03591
G1 X96.441 Y19.088 E2.04398
G1 X96.605 Y19.178 E2.05021
G1 X96.776 Y19.295 E2.05711
G1 X96.898 Y19.4 E2.06247
G1 X97.021 Y19.535 E2.06856
G1 X97.118 Y19.672 E2.07415
G1 X97.197 Y19.816 E2.07962
G1 X97.264 Y19.983 E2.08561
G1 X97.318 Y20.174 E2.09223
G1 X97.354 Y20.382 E2.09926
G1 X97.382 Y20.778 E2.11248
G1 X97.416 Y21.046 E2.12148
G1 X97.48 Y21.318 E2.13079
G1 X97.575 Y21.578 E2.14001
G1 X97.703 Y21.826 E2.14931
G1 X97.86 Y22.045 E2.15828
G1 X98.031 Y22.245 E2.16705
G1 X98.019 Y22.303 E2.16902
G1 X97.999 Y22.582 E2.17834
G1 X98.041 Y22.898 E2.18896
G1 X98.122 Y23.2 E2.19937
G1 X98.23 Y23.503 E2.21009
G1 X98.362 Y23.817 E2.22143
G1 X98.516 Y24.137 E2.23326
G1 X98.69 Y24.462 E2.24554
G1 X98.879 Y24.784 E2.25798
G1 X99.083 Y25.099 E2.27048
G1 X99.298 Y25.404 E2.28291
G1 X99.526 Y25.689 E2.29507
G1 X99.952 Y26.157 E2.31615
G1 X100.159 Y26.414 E2.32714
G1 X100.176 Y26.477 E2.32931
G1 X100.332 Y26.7 E2.33838
G1 X100.487 Y26.857 E2.34573
G1 X100.789 Y27.097 E2.35858
G1 X101.284 Y27.436 E2.37856
G1 X101.356 Y27.514 E2.3821
G1 X101.388 Y27.623 E2.38588
G1 X101.461 Y28.038 E2.39992
G1 X101.532 Y28.293 E2.40874
G1 X101.62 Y28.533 E2.41725
G1 X101.723 Y28.76 E2.42555
G1 X101.856 Y28.992 E2.43446
G1 X102.09 Y29.276 E2.44672
G1 X102.193 Y29.421 E2.45264
G1 X102.285 Y29.571 E2.4585
G1 X102.368 Y29.723 E2.46427
G1 X102.45 Y29.897 E2.47068
G1 X102.533 Y30.096 E2.47786
G1 X102.612 Y30.317 E2.48568
G1 X102.707 Y30.664 E2.49767
G1 X102.749 Y30.89 E2.50532
G1 X102.766 Y31.03 E2.51002
G1 X102.796 Y31.689 E2.53199
G1 X102.865 Y32.009 E2.5429
G1 X102.941 Y32.213 E2.55015
G1 X103.108 Y32.499 E2.56118
G1 X103.323 Y32.751 E2.57222
G1 X103.72 Y33.139 E2.59071
G1 X103.822 Y33.265 E2.59611
G1 X103.905 Y33.398 E2.60133
G1 X103.979 Y33.557 E2.60717
G1 X104.057 Y33.78 E2.61504
G1 X104.134 Y34.067 E2.62494
G1 X104.189 Y34.318 E2.6335
G1 X104.279 Y34.853 E2.65157
G1 X104.307 Y35.118 E2.66045
G1 X104.325 Y35.367 E2.66876
G1 X104.331 Y35.588 E2.67613
G1 X104.316 Y35.944 E2.688
G1 X104.269 Y36.169 E2.69565
G1 X104.165 Y36.294 E2.70107
G1 X104.033 Y36.484 E2.70877
G1 X103.919 Y36.694 E2.71673
G1 X103.833 Y36.924 E2.72491
G1 X103.784 Y37.176 E2.73347
G1 X103.784 Y37.438 E2.74219
G1 X103.834 Y37.694 E2.75088
G1 X103.926 Y37.928 E2.75926
G1 X104.044 Y38.135 E2.76719
G1 X104.183 Y38.325 E2.77504
G1 X104.339 Y38.504 E2.78294
G1 X104.584 Y38.744 E2.79437
G1 X104.729 Y38.904 E2.80156
G1 X104.816 Y39.023 E2.80647
G1 X104.886 Y39.147 E2.81121
G1 X104.941 Y39.283 E2.8161
G1 X104.992 Y39.466 E2.82243
G1 X105.064 Y39.801 E2.83384
G1 X105.235 Y40.338 E2.85262
G1 X105.47 Y40.94 E2.87414
G1 X105.75 Y41.569 E2.89708
G1 X106.057 Y42.186 E2.92003
G1 X106.37 Y42.743 E2.94132
G1 X106.541 Y43.013 E2.95196
G1 X106.654 Y43.257 E2.96092
G1 X106.747 Y43.541 E2.97087
G1 X106.788 Y43.7 E2.97634
G1 X106.868 Y44.074 E2.98908
G1 X106.966 Y44.403 E3.00052
G1 X107.091 Y44.721 E3.0119
G1 X107.244 Y45.028 E3.02333
G1 X107.425 Y45.321 E3.0348
G1 X107.635 Y45.602 E3.04648
G1 X107.872 Y45.871 E3.05842
G1 X108.136 Y46.13 E3.07074
G1 X108.426 Y46.381 E3.08352
G1 X108.745 Y46.628 E3.09696
G1 X109.095 Y46.873 E3.11119
G1 X109.606 Y47.201 E3.13142
G1 X109.872 Y47.353 E3.14162
G1 X110.125 Y47.479 E3.15104
G1 X110.381 Y47.583 E3.16024
G1 X110.643 Y47.656 E3.1693
G1 X110.916 Y47.695 E3.17849
G1 X111.173 Y47.689 E3.18705
G1 X111.391 Y47.648 E3.19444
G1 X111.584 Y47.59 E3.20115
G1 X111.772 Y47.51 E3.20796
G1 X111.953 Y47.409 E3.21486
G1 X112.129 Y47.289 E3.22196
G1 X112.425 Y47.043 E3.23478
G1 X112.558 Y46.894 E3.24143
G1 X112.669 Y46.73 E3.24803
G1 X112.757 Y46.545 E3.25485
G1 X112.817 Y46.356 E3.26146
G1 X112.857 Y46.153 E3.26835
G1 X112.89 Y45.766 E3.28129
G1 X112.903 Y44.667 E3.3179
G1 X112.913 Y44.368 E3.32786
G1 X112.929 Y44.173 E3.33438
G1 X112.956 Y43.99 E3.34054
G1 X112.992 Y43.844 E3.34555
G1 X113.038 Y43.715 E3.35011
G1 X113.109 Y43.571 E3.35546
G1 X113.177 Y43.461 E3.35977
G1 X113.309 Y43.28 E3.36723
G1 X113.475 Y43.079 E3.37591
G1 X114.106 Y42.384 E3.40718
G1 X114.273 Y42.168 E3.41628
G1 X114.413 Y41.943 E3.4251
G1 X114.525 Y41.695 E3.43417
G1 X114.587 Y41.418 E3.44362
G1 X114.581 Y41.23 E3.44989
G1 X114.661 Y41.178 E3.45307
G1 X114.737 Y41.14 E3.4559
G1 X114.93 Y41.072 E3.46271
G1 X115.068 Y41.043 E3.46741
G1 X115.556 Y40.961 E3.4839
G1 X115.959 Y40.878 E3.4976
G1 X116.287 Y40.783 E3.50898
G1 X116.478 Y40.705 E3.51585
G1 X116.755 Y40.542 E3.52655
G1 X116.99 Y40.341 E3.53686
G1 X117.191 Y40.127 E3.54663
G1 X117.362 Y39.898 E3.55615
G1 X117.489 Y39.631 E3.566
G1 X117.541 Y39.43 E3.57292
G1 X117.568 Y39.143 E3.58252
G1 X117.547 Y38.842 E3.59257
G1 X117.45 Y38.218 E3.61361
G1 X117.415 Y37.946 E3.62274
G1 X117.396 Y37.737 E3.62973
G1 X117.388 Y37.551 E3.63593
G1 X117.394 Y37.396 E3.6411
G1 X117.407 Y37.288 E3.64473
G1 X117.434 Y37.176 E3.64856
G1 X117.515 Y36.978 E3.65569
G1 X117.582 Y36.861 E3.66018
G1 X117.689 Y36.701 E3.66659
G1 X118.061 Y36.185 E3.68778
G1 X118.213 Y35.944 E3.69727
G1 X118.34 Y35.717 E3.70594
G1 X118.445 Y35.492 E3.71421
G1 X118.527 Y35.252 E3.72266
G1 X118.553 Y35.014 E3.73063
G1 X118.5 Y34.736 E3.74006
G1 X118.402 Y34.505 E3.74842
G1 X118.287 Y34.309 E3.75599
G1 X118.157 Y34.127 E3.76344
G1 X118.006 Y33.945 E3.77131
G1 X117.813 Y33.751 E3.78043
G1 X117.791 Y33.728 E3.78149
G1 X117.767 Y33.704 E3.78262
G1 X117.841 Y33.661
G1 X117.881 Y33.638
G1 X118.069 Y33.497 E3.78268
G1 X118.241 Y33.338 E3.79049
G1 X118.395 Y33.156 E3.79843
G1 X118.526 Y32.958 E3.80634
G1 X118.631 Y32.747 E3.81419
G1 X118.714 Y32.528 E3.82199
G1 X118.777 Y32.297 E3.82996
G1 X118.816 Y32.06 E3.83796
G1 X118.839 Y31.82 E3.846
G1 X118.842 Y31.564 E3.85452
G1 X118.833 Y31.425 E3.85916
G1 X118.925 Y31.417 E3.86224
G1 X119.141 Y31.376 E3.86956
G1 X119.338 Y31.322 E3.87637
G1 X119.53 Y31.253 E3.88316
G1 X119.676 Y31.182 E3.88857
G1 X146.135 Y77.001 E5.65102
G1 X111.566 Y136.858 E7.9535
G1 X42.433 Y136.858 E10.25635
G1 X7.865 Y77.001 E12.55882
G1 X28.533 Y41.211 E13.9355
G1 X28.614 Y41.07 E13.94092
G1 X28.903 Y40.57 E13.96016
G1 X28.956 Y41.267 E13.97113
G1 X28.972 Y41.429 E13.976
G1 X29.059 Y42.274 E14.0043
G1 X29.188 Y43.284 E14.03821
G1 X29.341 Y44.263 E14.07122
G1 X29.511 Y45.173 E14.10206
G1 X29.701 Y45.989 E14.12997
G1 X29.91 Y46.684 E14.15414
G1 X30.129 Y47.186 E14.17239
G1 X30.159 Y47.287 E14.17589
G1 X30.213 Y47.54 E14.18451
G1 X30.257 Y47.812 E14.19369
G1 X30.303 Y48.162 E14.20545
G1 X30.344 Y48.562 E14.21884
G1 X30.407 Y49.345 E14.24501
G1 X30.464 Y49.925 E14.26442
G1 X30.605 Y51.023 E14.3013
G1 X30.688 Y51.537 E14.31864
G1 X30.78 Y52.025 E14.33518
G1 X30.878 Y52.487 E14.35091
G1 X30.985 Y52.921 E14.3658
G1 X31.099 Y53.326 E14.37982
G1 X31.223 Y53.7 E14.39294
G1 X31.355 Y54.044 E14.40522
G1 X31.491 Y54.343 E14.41616
G1 X31.738 Y54.846 E14.43483
G1 X31.927 Y55.261 E14.45002
G1 X32.061 Y55.592 E14.46191
G1 X32.156 Y55.874 E14.47182
G1 X32.199 Y56.053 E14.47795
G1 X32.208 Y56.115 E14.48004
G1 X32.219 Y56.356 E14.48808
G1 X32.285 Y56.735 E14.50089
G1 X32.409 Y57.097 E14.51364
G1 X32.498 Y57.288 E14.52066
G1 X32.594 Y57.457 E14.52713
G1 X32.702 Y57.621 E14.53367
G1 X32.826 Y57.777 E14.54031
G1 X32.96 Y57.921 E14.54686
G1 X33.114 Y58.06 E14.55377
G1 X33.347 Y58.224 E14.56326
G1 X33.629 Y58.363 E14.57374
G1 X33.818 Y58.419 E14.5803
G1 X34.004 Y58.452 E14.5866
G1 X34.289 Y58.463 E14.5961
G1 X34.511 Y58.443 E14.60352
G1 X34.73 Y58.405 E14.61093
G1 X35.13 Y58.309 E14.62463
G1 X35.37 Y58.229 E14.63305
G1 X35.598 Y58.131 E14.64132
G1 X35.818 Y58.002 E14.64982
G1 X36.02 Y57.84 E14.65844
G1 X36.2 Y57.637 E14.66748
G1 X36.337 Y57.401 E14.67657
G1 X36.424 Y57.153 E14.68532
G1 X36.471 Y56.901 E14.69386
G1 X36.481 Y56.65 E14.70223
G1 X36.464 Y56.405 E14.71041
G1 X36.415 Y56.089 E14.72106
G1 X36.388 Y55.852 E14.72901
G1 X36.339 Y55.144 E14.75265
G1 X36.309 Y54.291 E14.78108
G1 X36.297 Y53.683 E14.80134
G1 X36.277 Y53.301 E14.81408
G1 X36.247 Y52.941 E14.82611
G1 X36.203 Y52.604 E14.83743
G1 X36.147 Y52.283 E14.84829
G1 X36.071 Y51.977 E14.85879
G1 X35.979 Y51.689 E14.86886
G1 X35.869 Y51.414 E14.87873
G1 X35.738 Y51.153 E14.88845
G1 X35.589 Y50.908 E14.89801
G1 X35.423 Y50.68 E14.9074
G1 X35.211 Y50.426 E14.91842
G1 X35.097 Y50.243 E14.9256
G1 X34.952 Y49.945 E14.93664
G1 X34.802 Y49.579 E14.94982
G1 X34.653 Y49.152 E14.96488
G1 X34.534 Y48.739 E14.9792
G1 X34.277 Y47.706 E15.01466
G1 X33.987 Y46.595 E15.05291
G1 X33.899 Y46.196 E15.06652
G1 X33.821 Y45.784 E15.08048
G1 X33.751 Y45.349 E15.09516
G1 X33.693 Y44.927 E15.10935
G1 X33.652 Y44.537 E15.12241
G1 X33.621 Y44.14 E15.13568
G1 X33.605 Y43.786 E15.14748
G1 X33.602 Y43.473 E15.15791
G1 X33.615 Y43.157 E15.16844
G1 X33.636 Y42.955 E15.17521
G1 X33.75 Y42.398 E15.19414
G1 X33.796 Y42.119 E15.20356
G1 X33.853 Y41.594 E15.22115
G1 X33.864 Y41.348 E15.22936
G1 X33.875 Y39.972 E15.27519
G1 X33.921 Y38.163 E15.33547
G1 X33.953 Y37.485 E15.35808
G1 X34.01 Y36.896 E15.37779
G1 X34.085 Y36.474 E15.39207
G1 X34.232 Y35.909 E15.41152
G1 X34.439 Y35.247 E15.43462
G1 X35.372 Y32.482 E15.53183
G1 X35.938 Y30.897 E15.58789
G1 X36.198 Y30.104 E15.61569
G1 X36.392 Y29.439 E15.63876
G1 X36.527 Y28.863 E15.65847
G1 X36.614 Y28.349 E15.67583
G1 X36.658 Y27.927 E15.68997
G1 X36.702 Y27.613 E15.70053
G1 X36.746 Y27.423 E15.70703
G1 X36.817 Y27.247 E15.71335
G1 X36.907 Y27.113 E15.71872
G1 X37.235 Y26.719 E15.7358
G1 X37.424 Y26.459 E15.74651
G1 X37.609 Y26.176 E15.75777
G1 X37.789 Y25.88 E15.76931
G1 X37.958 Y25.578 E15.78084
G1 X38.245 Y25.005 E15.80218
G1 X38.36 Y24.808 E15.80978
G0 F2625 X38.443 Y24.863
G0 X41.928 Y29.121
G0 X41.996 Y29.194
G1 F900 X41.602 Y29.573 E15.82799
G1 X41.286 Y29.899 E15.84312
G1 X40.968 Y30.246 E15.8588
G1 X40.355 Y30.964 E15.89024
G1 X40.061 Y31.333 E15.90596
G1 X39.548 Y32.023 E15.9346
G1 X39.325 Y32.35 E15.94778
G1 X39.137 Y32.651 E15.95961
G1 X38.983 Y32.931 E15.97025
G1 X38.858 Y33.214 E15.98056
G1 X38.778 Y33.582 E15.9931
G1 X38.858 Y33.939 E16.00529
G1 X39.062 Y34.2 E16.01632
G1 X39.304 Y34.355 E16.02589
G1 X39.6 Y34.435 E16.03611
G1 X39.886 Y34.458 E16.04567
G1 X40.197 Y34.458 E16.05602
G1 X41.065 Y34.408 E16.08499
G1 X41.334 Y34.401 E16.09395
G1 X41.576 Y34.407 E16.10201
G1 X41.741 Y34.42 E16.10753
G1 X41.898 Y34.445 E16.11282
G1 X42.024 Y34.478 E16.11716
G1 X42.106 Y34.509 E16.12008
G1 X42.177 Y34.546 E16.12275
G1 X42.282 Y34.632 E16.12727
G1 X42.335 Y34.696 E16.13004
G1 X42.402 Y34.8 E16.13416
G1 X42.463 Y34.912 E16.13841
G1 X42.51 Y35.017 E16.14224
G1 X42.532 Y35.086 E16.14465
G1 X42.55 Y35.206 E16.14869
G1 X42.538 Y35.292 E16.15158
G1 X42.482 Y35.414 E16.15606
G1 X42.427 Y35.499 E16.15943
G1 X42.36 Y35.581 E16.16296
G1 X42.187 Y35.76 E16.17125
G1 X42.069 Y35.861 E16.17642
G1 X41.965 Y35.938 E16.18073
G1 X41.813 Y36.027 E16.1866
G1 X41.557 Y36.076 E16.19528
G1 X41.257 Y36.231 E16.20653
G1 X41.018 Y36.406 E16.2164
G1 X40.796 Y36.604 E16.22631
G1 X40.582 Y36.827 E16.2366
G1 X40.373 Y37.072 E16.24733
G1 X40.174 Y37.334 E16.25829
G1 X39.984 Y37.61 E16.26945
G1 X39.806 Y37.897 E16.2807
G1 X39.645 Y38.19 E16.29184
G1 X39.504 Y38.491 E16.30291
G1 X39.394 Y38.785 E16.31336
G1 X39.238 Y39.297 E16.33119
G1 X39.096 Y39.827 E16.34947
G1 X38.965 Y40.382 E16.36846
G1 X38.843 Y40.964 E16.38827
G1 X38.732 Y41.571 E16.40883
G1 X38.63 Y42.206 E16.43025
G1 X38.539 Y42.868 E16.45251
G1 X38.457 Y43.557 E16.47562
G1 X38.385 Y44.272 E16.49956
G1 X38.322 Y45.015 E16.5244
G1 X38.269 Y45.785 E16.55011
G1 X38.225 Y46.585 E16.5768
G1 X38.21 Y47.011 E16.591
G1 X38.205 Y47.393 E16.60372
G1 X38.211 Y47.74 E16.61528
G1 X38.233 Y48.059 E16.62593
G1 X38.274 Y48.355 E16.63589
G1 X38.339 Y48.634 E16.64543
G1 X38.437 Y48.905 E16.65503
G1 X38.58 Y49.159 E16.66474
G1 X38.765 Y49.382 E16.67439
G1 X38.988 Y49.564 E16.68398
G1 X39.227 Y49.697 E16.69309
G1 X39.267 Y49.712 E16.69451
G1 X39.27 Y49.829 E16.69841
G1 X39.306 Y50.176 E16.71003
G1 X39.35 Y50.375 E16.71682
G1 X39.413 Y50.563 E16.72342
G1 X39.501 Y50.745 E16.73016
G1 X39.614 Y50.914 E16.73693
