;Generated by Cura LulzBot Edition GCodeWriter Version: 2.6.66
;FLAVOR:RepRap
;TIME:1306
;Filament used: 0.592102m
;Layer height: 0.38
;Generated with Cura_SteamEngine 2.6.66
;This G-Code has been generated specifically for the LulzBot Mini with standard extruder
G26 ; clear potential 'probe fail' condition
G21 ; set units to Millimetres
M107 ; disable fans
G90 ; absolute positioning
M82 ; set extruder to absolute mode
G92 E0 ; set extruder position to 0
M140 S60 ; start bed heating up
G28 ; home all axes
G0 X0 Y187 Z156 F200 ; move away from endstops
M109 R140 ;
G1 E-30 F75 ; retract filament
M109 R140 ; wait for extruder to reach wiping temp
G1 X45 Y173 F11520 ; move above wiper pad
G1 Z0 F1200 ; push nozzle into wiper
G1 X42 Y173 Z-.5 F4000             ; wiping
G1 X52 Y171 Z-.5 F4000             ; wiping
G1 X42 Y173 Z0 F4000               ; wiping
G1 X52 Y171 F4000                  ; wiping
G1 X42 Y173 F4000                  ; wiping
G1 X52 Y171 F4000                  ; wiping
G1 X42 Y173 F4000                  ; wiping
G1 X52 Y171 F4000                  ; wiping
G1 X57 Y173 F4000                  ; wiping
G1 X77 Y171 F4000                  ; wiping
G1 X57 Y173 F4000                  ; wiping
G1 X77 Y171 F4000                  ; wiping
G1 X57 Y173 F4000                  ; wiping
G1 X87 Y171 F4000                  ; wiping
G1 X77 Y173 F4000                  ; wiping
G1 X97 Y171 F4000                  ; wiping
G1 X77 Y173 F4000                  ; wiping
G1 X97 Y171 F4000                  ; wiping
G1 X77 Y173 F4000                  ; wiping
G1 X97 Y171 F4000                  ; wiping
G1 X107 Y173 F4000                 ; wiping
G1 X97 Y171 F4000                  ; wiping
G1 X107 Y173 F4000                 ; wiping
G1 X97 Y171 F4000                  ; wiping
G1 X107 Y173 F4000                 ; wiping
G1 X112 Y171 Z-0.5 F1000           ; wiping
G1 Z10 ; raise extruder
G28 X0 Y0 ; home X and Y
G0 X0 Y187 F200 ; move away from endstops
M109 R140 ; wait for extruder to reach probe temp
M204 S300 ; set probing acceleration
G29 ; start auto-leveling sequence
M204 S2000 ; restore standard acceleration
G28 X0 Y0 ; re-home to account for build variance of earlier mini builds
G0 X0 Y187 F200 ; move away from endstops
G0 Y152 F4000 ; move in front of wiper pad
G4 S1 ; pause
M400 ; wait for moves to finish
M117 Heating... ; progress indicator message on LCD
M109 R205 ; wait for extruder to reach printing temp
M190 S60 ; wait for bed to reach printing temp
G1 Z2 E0 F75 ; prime tiny bit of filament into the nozzle
M117 Mini Printing... ; progress indicator message on LCD

M221 S100
;LAYER_COUNT:1
;LAYER:0
M107
G0 F2625 X33.389 Y32.801 Z0.425
;TYPE:WALL-INNER
G1 F900 X33.596 Y32.443 E0.01378
G1 X33.816 Y32.793 E0.02164
G1 X34.113 Y33.265 E0.04022
G1 X34.326 Y33.637 E0.0545
G1 X34.49 Y33.963 E0.06665
G1 X34.657 Y34.346 E0.08057
G1 X34.84 Y34.821 E0.09753
G1 X35.222 Y35.89 E0.13534
G1 X35.33 Y36.137 E0.14432
G1 X35.446 Y36.362 E0.15275
G1 X35.577 Y36.577 E0.16114
G1 X35.728 Y36.776 E0.16946
G1 X35.894 Y36.961 E0.17774
G1 X36.079 Y37.132 E0.18613
G1 X36.285 Y37.292 E0.19482
G1 X36.714 Y37.572 E0.21189
G1 X37.334 Y37.93 E0.23573
G1 X37.622 Y38.111 E0.24707
G1 X37.809 Y38.256 E0.25495
G1 X37.938 Y38.392 E0.26119
G1 X38.043 Y38.557 E0.26771
G1 X38.139 Y38.791 E0.27613
G1 X38.236 Y39.152 E0.28858
G1 X38.325 Y39.645 E0.30527
G1 X38.405 Y40.288 E0.32685
G1 X38.485 Y41.119 E0.35466
G1 X38.659 Y43.338 E0.42881
G1 X38.683 Y43.56 E0.43624
G1 X38.729 Y43.813 E0.44481
G1 X38.881 Y44.366 E0.46391
G1 X39.141 Y45.134 E0.49092
G1 X39.295 Y45.504 E0.50427
G1 X40.233 Y47.581 E0.58019
G1 X40.574 Y48.391 E0.60946
G1 X40.842 Y49.084 E0.63421
G1 X41.088 Y49.757 E0.65808
G1 X41.302 Y50.302 E0.67758
G1 X41.496 Y50.746 E0.69372
G1 X41.691 Y51.12 E0.70777
G1 X41.904 Y51.452 E0.72091
G1 X42.045 Y51.627 E0.7284
G1 X41.881 Y51.762 E0.73547
G1 X40.504 Y52.829 E0.7935
G1 X40.101 Y53.166 E0.811
G1 X39.74 Y53.497 E0.82731
G1 X39.418 Y53.828 E0.8427
G1 X39.134 Y54.166 E0.8574
G1 X38.89 Y54.515 E0.87159
G1 X38.683 Y54.879 E0.88554
G1 X38.518 Y55.259 E0.89934
G1 X38.391 Y55.651 E0.91306
G1 X38.297 Y56.058 E0.92698
G1 X38.235 Y56.482 E0.94125
G1 X38.199 Y56.925 E0.95605
G1 X38.186 Y57.322 E0.96929
G1 X38.194 Y57.706 E0.98208
G1 X38.228 Y58.079 E0.99456
G1 X38.287 Y58.445 E1.0069
G1 X38.374 Y58.801 E1.01911
G1 X38.49 Y59.149 E1.03133
G1 X38.633 Y59.489 E1.04362
G1 X38.806 Y59.824 E1.05618
G1 X39.006 Y60.153 E1.069
G1 X39.233 Y60.479 E1.08223
G1 X39.487 Y60.806 E1.09603
G1 X39.771 Y61.141 E1.11066
G1 X40.156 Y61.551 E1.12939
G1 X40.558 Y61.934 E1.14789
G1 X40.977 Y62.284 E1.16607
G1 X41.411 Y62.602 E1.18399
G1 X41.863 Y62.886 E1.20178
G1 X42.332 Y63.138 E1.21951
G1 X42.817 Y63.355 E1.23721
G1 X43.318 Y63.54 E1.255
G1 X43.835 Y63.688 E1.27291
G1 X44.366 Y63.805 E1.29102
G1 X44.915 Y63.889 E1.30952
G1 X45.554 Y63.945 E1.33089
G1 X45.89 Y63.957 E1.34209
G1 X46.23 Y63.96 E1.35342
G1 X46.989 Y63.932 E1.37872
G1 X47.478 Y63.889 E1.39507
G1 X47.941 Y63.827 E1.41063
G1 X48.385 Y63.741 E1.42569
G1 X48.812 Y63.631 E1.44038
G1 X49.222 Y63.495 E1.45477
G1 X49.619 Y63.332 E1.46907
G1 X50.003 Y63.141 E1.48335
G1 X50.376 Y62.921 E1.49778
G1 X50.736 Y62.676 E1.51228
G1 X51.093 Y62.404 E1.52723
G1 X51.449 Y62.101 E1.5428
G1 X51.764 Y61.805 E1.5572
G1 X52.056 Y61.505 E1.57115
G1 X52.323 Y61.193 E1.58483
G1 X52.565 Y60.876 E1.59811
G1 X52.781 Y60.549 E1.61117
G1 X52.973 Y60.211 E1.62411
G1 X53.138 Y59.864 E1.63691
G1 X53.276 Y59.507 E1.64966
G1 X53.388 Y59.139 E1.66248
G1 X53.474 Y58.764 E1.67529
G1 X53.534 Y58.379 E1.68827
G1 X53.57 Y57.989 E1.70132
G1 X53.579 Y57.757 E1.70905
G1 X53.569 Y57.346 E1.72275
G1 X53.518 Y56.967 E1.73548
G1 X53.471 Y56.766 E1.74236
G1 X53.413 Y56.583 E1.74875
G1 X53.338 Y56.403 E1.75525
G1 X53.246 Y56.232 E1.76172
G1 X53.137 Y56.072 E1.76817
G1 X53.009 Y55.923 E1.77471
G1 X52.865 Y55.79 E1.78124
G1 X52.863 Y55.788 E1.78133
G1 X52.675 Y55.654 E1.78902
G1 X52.622 Y55.626 E1.79102
G1 X52.468 Y55.543 E1.79685
G1 X52.228 Y55.465 E1.80525
G1 X52.025 Y55.442 E1.81206
G1 X51.968 Y55.435 E1.81397
G1 X51.707 Y55.46 E1.82271
G1 X51.461 Y55.536 E1.83128
G1 X51.244 Y55.649 E1.83943
G1 X51.218 Y55.667 E1.84049
G1 X51.051 Y55.785 E1.8473
G1 X50.877 Y55.939 E1.85504
G1 X50.71 Y56.112 E1.86305
G1 X50.207 Y56.72 E1.88933
G1 X49.984 Y56.942 E1.89981
G1 X49.702 Y57.19 E1.91232
G1 X49.407 Y57.418 E1.92474
G1 X49.121 Y57.613 E1.93627
G1 X48.894 Y57.74 E1.94494
G1 X48.56 Y57.881 E1.95701
G1 X48.227 Y57.979 E1.96858
G1 X47.93 Y58.032 E1.97863
G1 X47.622 Y58.048 E1.9889
G1 X47.347 Y58.029 E1.99808
G1 X47.1 Y57.979 E2.00648
G1 X46.867 Y57.898 E2.01469
G1 X46.693 Y57.804 E2.02128
G1 X46.537 Y57.682 E2.02788
G1 X46.424 Y57.557 E2.03349
G1 X46.342 Y57.415 E2.03895
G1 X46.272 Y57.213 E2.04607
G1 X46.238 Y57.047 E2.05172
G1 X46.217 Y56.892 E2.05693
G1 X46.209 Y56.762 E2.06127
G1 X46.212 Y56.625 E2.06583
G1 X46.228 Y56.5 E2.07003
G1 X46.251 Y56.403 E2.07335
G1 X46.296 Y56.277 E2.07781
G1 X46.358 Y56.139 E2.08285
G1 X46.441 Y55.989 E2.08856
G1 X46.539 Y55.837 E2.09458
G1 X46.669 Y55.658 E2.10195
G1 X47.13 Y55.077 E2.12666
G1 X47.458 Y55.211 E2.13846
G1 X47.657 Y55.271 E2.14538
G1 X47.851 Y55.314 E2.152
G1 X48.053 Y55.344 E2.1588
G1 X48.265 Y55.357 E2.16588
G1 X48.668 Y55.351 E2.1793
G1 X49.123 Y55.303 E2.19454
G1 X49.366 Y55.269 E2.20272
G1 X49.976 Y55.2 E2.22317
G1 X50.625 Y55.168 E2.24481
G1 X51.214 Y55.17 E2.26443
G1 X51.246 Y55.17 E2.26508
G1 X51.326 Y55.171 E2.267
G1 X51.478 Y55.178 E2.26872
G1 X51.721 Y55.19 E2.26957
G1 X51.981 Y55.204
G1 X52.052 Y55.208
G1 X52.249 Y55.225
G1 X52.495 Y55.248 E2.27119
G1 X52.71 Y55.268 E2.27211
G1 X52.808 Y55.278 E2.27264
G1 X52.928 Y55.294 E2.27501
G1 X52.93 Y55.294 E2.27508
G1 X53.609 Y55.385 E2.2979
G1 X54.385 Y55.518 E2.32412
G1 X55.172 Y55.684 E2.35092
G1 X55.935 Y55.873 E2.3771
G1 X56.691 Y56.093 E2.40333
G1 X57.423 Y56.339 E2.42905
G1 X58.122 Y56.612 E2.45405
G1 X58.996 Y56.97 E2.48551
G1 X59.721 Y57.254 E2.51145
G1 X60.331 Y57.472 E2.53302
G1 X60.868 Y57.64 E2.55177
G1 X61.365 Y57.763 E2.56882
G1 X61.842 Y57.856 E2.58501
G1 X62.506 Y57.971 E2.60746
G1 X63.019 Y58.072 E2.62487
G1 X63.372 Y58.156 E2.63696
G1 X63.66 Y58.245 E2.647
G1 X63.814 Y58.31 E2.65257
G1 X64.018 Y58.432 E2.66049
G1 X64.5 Y58.752 E2.67976
G1 X64.6 Y59.09 E2.6915
G1 X64.704 Y59.339 E2.70049
G1 X64.818 Y59.581 E2.7094
G1 X64.995 Y59.995 E2.7244
G1 X65.223 Y60.584 E2.74544
G1 X65.796 Y62.159 E2.80126
G1 X65.96 Y62.561 E2.81573
G1 X66.13 Y62.942 E2.82962
G1 X66.311 Y63.31 E2.84328
G1 X66.507 Y63.673 E2.85703
G1 X66.723 Y64.038 E2.87115
G1 X66.96 Y64.41 E2.88585
G1 X67.227 Y64.804 E2.9017
G1 X67.852 Y65.664 E2.93711
G1 X68.375 Y66.354 E2.96595
G1 X68.609 Y66.679 E2.97929
G1 X68.738 Y66.888 E2.98747
G1 X68.792 Y67.016 E2.9921
G1 X68.815 Y67.122 E2.99572
G1 X68.835 Y67.383 E3.00443
G1 X68.86 Y67.913 E3.02211
G1 X68.912 Y68.271 E3.03416
G1 X68.998 Y68.602 E3.04555
G1 X69.138 Y68.92 E3.05712
G1 X69.348 Y69.211 E3.06908
G1 X69.656 Y69.452 E3.08211
G1 X70.038 Y69.578 E3.0955
G1 X70.42 Y69.577 E3.10823
G1 X70.763 Y69.48 E3.1201
G1 X71.069 Y69.327 E3.1315
G1 X71.195 Y69.24 E3.1366
G1 X71.204 Y69.259
G1 X71.224 Y69.298 E3.13806
G1 X71.384 Y69.525 E3.14731
G1 X71.619 Y69.738 E3.15787
G1 X71.927 Y69.878 E3.16914
G1 X72.225 Y69.912 E3.17914
G1 X72.457 Y69.881 E3.18693
G1 X72.707 Y69.797 E3.19572
G1 X72.952 Y69.662 E3.20504
G1 X73.181 Y69.461 E3.21518
G1 X73.352 Y69.197 E3.22566
G1 X73.453 Y68.924 E3.23536
G1 X73.517 Y68.649 E3.24476
G1 X73.54 Y68.514 E3.24933
G1 X73.788 Y68.538 E3.25762
G1 X74.033 Y68.549 E3.26579
G1 X74.461 Y68.537 E3.28006
G1 X74.692 Y68.508 E3.28781
G1 X74.906 Y68.465 E3.29508
G1 X75.114 Y68.407 E3.30228
G1 X75.316 Y68.335 E3.30942
G1 X75.517 Y68.248 E3.31671
G1 X75.719 Y68.143 E3.3243
G1 X76.068 Y67.922 E3.33806
G1 X76.5 Y67.623 E3.35556
G1 X76.774 Y67.447 E3.36641
G1 X76.946 Y67.355 E3.3729
G1 X77.009 Y67.334 E3.37512
G1 X77.05 Y67.328 E3.3765
G1 X77.194 Y67.333 E3.3813
G1 X77.43 Y67.377 E3.38929
G1 X77.84 Y67.495 E3.4035
G1 X78.828 Y67.865 E3.43865
G1 X79.249 Y68 E3.45337
G1 X79.455 Y68.051 E3.46044
G1 X79.648 Y68.089 E3.467
G1 X79.843 Y68.113 E3.47354
G1 X80.038 Y68.118 E3.48004
G1 X80.229 Y68.105 E3.48641
G1 X80.424 Y68.067 E3.49303
G1 X80.618 Y68 E3.49987
G1 X80.813 Y67.898 E3.5072
G1 X81.092 Y67.675 E3.5191
G1 X81.318 Y67.391 E3.53119
G1 X81.479 Y67.085 E3.5427
G1 X81.587 Y66.765 E3.55395
G1 X81.65 Y66.439 E3.56501
G1 X81.675 Y66.11 E3.57601
G1 X81.661 Y65.777 E3.58711
G1 X81.608 Y65.446 E3.59827
G1 X81.516 Y65.121 E3.60952
G1 X81.378 Y64.804 E3.62104
G1 X81.253 Y64.608 E3.62879
G1 X81.301 Y64.419 E3.63528
G1 X81.3 Y64.155 E3.64407
G1 X81.252 Y63.928 E3.6518
G1 X81.18 Y63.726 E3.65895
G1 X81.089 Y63.536 E3.66596
G1 X80.977 Y63.34 E3.67348
G1 X80.718 Y62.971 E3.6885
G1 X80.549 Y62.761 E3.69748
G1 X80.363 Y62.549 E3.70687
G1 X80.152 Y62.336 E3.71686
G1 X79.923 Y62.125 E3.72723
G1 X79.436 Y61.727 E3.74818
G1 X78.916 Y61.361 E3.76937
G1 X78.641 Y61.187 E3.78021
G1 X78.369 Y61.029 E3.79068
G1 X78.096 Y60.886 E3.80095
G1 X77.828 Y60.761 E3.8108
G1 X77.655 Y60.69 E3.81703
G1 X77.66 Y60.575 E3.82086
G1 X77.71 Y60.104 E3.83664
G1 X77.817 Y59.337 E3.86244
G1 X77.857 Y58.969 E3.87477
G1 X77.889 Y58.58 E3.88777
G1 X77.925 Y57.771 E3.91474
G1 X77.931 Y57.339 E3.92914
G1 X77.92 Y56.477 E3.95785
G1 X77.875 Y55.604 E3.98697
G1 X77.658 Y53.416 E4.06021
G1 X77.38 Y53.166 E4.07266
G1 X77.454 Y52.916 E4.08135
G1 X77.458 Y52.681 E4.08918
G1 X77.409 Y52.372 E4.0996
G1 X77.323 Y52.016 E4.1118
G1 X77.2 Y51.594 E4.12644
G1 X77.043 Y51.109 E4.14342
G1 X76.742 Y50.252 E4.17368
G1 X76.486 Y49.496 E4.20027
G1 X75.849 Y47.502 E4.26999
G1 X75.606 Y46.807 E4.29452
G1 X75.485 Y46.5 E4.30551
G1 X75.363 Y46.222 E4.31562
G1 X75.235 Y45.961 E4.32531
G1 X75.1 Y45.718 E4.33457
G1 X74.953 Y45.479 E4.34391
G1 X74.642 Y45.048 E4.36162
G1 X74.195 Y44.49 E4.38543
G1 X73.948 Y44.16 E4.39916
G1 X73.72 Y43.837 E4.41233
G1 X73.522 Y43.534 E4.42439
G1 X73.322 Y43.207 E4.43716
G1 X73.157 Y42.913 E4.44839
G1 X73.008 Y42.621 E4.45931
G1 X72.883 Y42.349 E4.46928
G1 X72.763 Y42.051 E4.47998
G1 X72.674 Y41.794 E4.48904
G1 X72.607 Y41.556 E4.49728
G1 X72.556 Y41.32 E4.50532
G1 X72.532 Y41.099 E4.51272
G1 X72.523 Y40.665 E4.52718
G1 X72.539 Y40.042 E4.54794
G1 X72.58 Y39.269 E4.57373
G1 X72.648 Y38.305 E4.60592
G1 X72.797 Y36.529 E4.66529
G1 X72.829 Y36.066 E4.68075
G1 X72.836 Y35.706 E4.69274
G1 X72.814 Y35.391 E4.70326
G1 X72.747 Y35.1 E4.7132
G1 X72.595 Y34.705 E4.7273
G1 X72.428 Y34.366 E4.73989
G1 X72.245 Y34.049 E4.75208
G1 X72.138 Y33.887 E4.75855
G1 X71.891 Y33.579 E4.7717
G1 X71.589 Y33.268 E4.78614
G1 X71.26 Y32.976 E4.80079
G1 X70.917 Y32.71 E4.81525
G1 X70.53 Y32.463 E4.83055
G1 X70.678 Y31.936 E4.84878
G1 X70.767 Y31.685 E4.85765
G1 X70.886 Y31.457 E4.86622
G1 X71.007 Y31.309 E4.87259
G1 X71.183 Y31.141 E4.88069
G1 X71.469 Y30.895 E4.89326
G1 X71.627 Y30.746 E4.90049
G1 X71.768 Y30.593 E4.90742
G1 X71.897 Y30.429 E4.91437
G1 X72.009 Y30.243 E4.9216
G1 X72.094 Y30.043 E4.92884
G1 X73.154 Y30.085 E4.96418
G1 X74.133 Y30.143 E4.99685
G1 X75.109 Y30.218 E5.02945
G1 X76.099 Y30.317 E5.0626
G1 X77.125 Y30.448 E5.09705
G1 X77.337 Y30.443 E5.10411
G1 X77.539 Y30.418 E5.11089
G1 X77.874 Y30.333 E5.12241
G1 X78.188 Y30.196 E5.13382
G1 X78.364 Y30.092 E5.14063
G1 X78.632 Y29.89 E5.15181
G1 X78.864 Y29.654 E5.16283
G1 X79.017 Y29.463 E5.17098
G1 X79.216 Y29.041 E5.18652
G1 X79.364 Y28.671 E5.1998
G1 X79.489 Y28.292 E5.21309
G1 X79.591 Y27.911 E5.22623
G1 X79.673 Y27.528 E5.23928
G1 X79.734 Y27.142 E5.25229
G1 X79.779 Y26.758 E5.26517
G1 X79.807 Y26.373 E5.27803
G1 X79.82 Y25.989 E5.29083
G1 X79.819 Y25.608 E5.30352
G1 X79.782 Y24.835 E5.3293
G1 X79.563 Y23.396 E5.37778
G1 X79.318 Y21.989 E5.42536
G1 X78.801 Y19.199 E5.51988
G1 X78.558 Y17.82 E5.56652
G1 X78.495 Y17.429 E5.57971
G1 X78.45 Y17.141 E5.58942
G1 X78.741 Y17.141 E5.59543
G1 X78.742 Y17.141 E5.59547
G1 X111.567 Y17.141 E6.68888
G1 X131.526 Y51.703 E8.01833
G1 X131.527 Y51.704 E8.01838
G1 X131.696 Y51.997 E8.02965
G1 X131.365 Y52.07 E8.03638
G1 X129.725 Y52.435 E8.09234
G1 X126.286 Y53.277 E8.21028
G1 X122.415 Y54.317 E8.3438
G1 X118.155 Y55.574 E8.49175
G1 X113.54 Y57.064 E8.65329
G1 X108.608 Y58.804 E8.8275
G1 X103.397 Y60.813 E9.01353
G1 X97.941 Y63.107 E9.21069
G1 X92.281 Y65.704 E9.41812
G1 X86.452 Y68.619 E9.63521
G1 X80.492 Y71.873 E9.8614
G1 X74.424 Y75.488 E10.09668
G1 X67.227 Y80.62 E10.39112
G1 X62.335 Y85.484 E10.62092
G1 X59.446 Y90.071 E10.80149
G1 X58.277 Y94.357 E10.94948
G1 X58.541 Y98.265 E11.07995
G1 X59.889 Y101.713 E11.20327
G1 X61.952 Y104.659 E11.32307
G1 X64.376 Y107.098 E11.43761
G1 X66.832 Y109.025 E11.5416
G1 X68.995 Y110.428 E11.62748
G1 X70.54 Y111.288 E11.68638
G1 X71.747 Y111.888 E11.73128
G1 X72.457 Y110.724 E11.7767
G1 X72.463 Y110.715 E11.77706
G1 X72.123 Y110.464 E11.79113
G1 X72.066 Y110.422 E11.79349
G1 X71.61 Y110.085 E11.81238
G1 X70.814 Y109.433 E11.84665
G1 X69.7 Y108.385 E11.8976
G1 X68.453 Y106.986 E11.96003
G1 X67.255 Y105.275 E12.0296
G1 X66.295 Y103.319 E12.10218
G1 X65.73 Y101.141 E12.17713
G1 X65.723 Y98.781 E12.25575
G1 X66.445 Y96.241 E12.34371
G1 X68.104 Y93.507 E12.45023
G1 X70.902 Y90.625 E12.58403
G1 X75.056 Y87.631 E12.7546
G1 X81.162 Y84.437 E12.98414
G1 X88.028 Y81.811 E13.22901
G1 X95.448 Y79.683 E13.48613
G1 X103.148 Y78.013 E13.74859
G1 X110.868 Y76.747 E14.00918
G1 X118.359 Y75.832 E14.26056
G1 X125.398 Y75.208 E14.49595
G1 X131.709 Y74.822 E14.70656
G1 X137.059 Y74.619 E14.8849
G1 X141.178 Y74.542 E15.02213
G1 X143.82 Y74.538 E15.11014
G1 X144.718 Y74.547 E15.14005
G1 X146.135 Y77 E15.23442
G1 X111.567 Y136.859 E17.53694
G1 X42.433 Y136.859 E19.83982
G1 X7.865 Y77 E22.14235
G1 X33.389 Y32.801 E23.84249
G0 F2625 X33.475 Y32.85
G0 X42.452 Y136.825
G0 X111.548 Y136.825
G0 X144.698 Y74.581
G0 X81.178 Y84.473
G0 X81.021 Y89.096
G0 X81.08 Y89.176
G1 F900 X80.64 Y89.567 E23.8621
G1 X80.05 Y90.136 E23.8894
G1 X79.409 Y90.777 E23.9196
G1 X78.843 Y91.362 E23.94671
G1 X78.621 Y91.602 E23.9576
G1 X78.442 Y91.812 E23.96679
G1 X78.323 Y92.007 E23.9744
G1 X78.277 Y92.067 E23.97692
