;Generated by Cura LulzBot Edition GCodeWriter Version: 2.6.66
;FLAVOR:RepRap
;TIME:1364
;Filament used: 0.664298m
;Layer height: 0.38
;Generated with Cura_SteamEngine 2.6.66
;This G-Code has been generated specifically for the LulzBot Mini with standard extruder
G26 ; clear potential 'probe fail' condition
G21 ; set units to Millimetres
M107 ; disable fans
G90 ; absolute positioning
M82 ; set extruder to absolute mode
G92 E0 ; set extruder position to 0
M140 S60 ; start bed heating up
G28 ; home all axes
G0 X0 Y187 Z156 F200 ; move away from endstops
M109 R140 ;
G1 E-30 F75 ; retract filament
M109 R140 ; wait for extruder to reach wiping temp
G1 X45 Y173 F11520 ; move above wiper pad
G1 Z0 F1200 ; push nozzle into wiper
G1 X42 Y173 Z-.5 F4000             ; wiping
G1 X52 Y171 Z-.5 F4000             ; wiping
G1 X42 Y173 Z0 F4000               ; wiping
G1 X52 Y171 F4000                  ; wiping
G1 X42 Y173 F4000                  ; wiping
G1 X52 Y171 F4000                  ; wiping
G1 X42 Y173 F4000                  ; wiping
G1 X52 Y171 F4000                  ; wiping
G1 X57 Y173 F4000                  ; wiping
G1 X77 Y171 F4000                  ; wiping
G1 X57 Y173 F4000                  ; wiping
G1 X77 Y171 F4000                  ; wiping
G1 X57 Y173 F4000                  ; wiping
G1 X87 Y171 F4000                  ; wiping
G1 X77 Y173 F4000                  ; wiping
G1 X97 Y171 F4000                  ; wiping
G1 X77 Y173 F4000                  ; wiping
G1 X97 Y171 F4000                  ; wiping
G1 X77 Y173 F4000                  ; wiping
G1 X97 Y171 F4000                  ; wiping
G1 X107 Y173 F4000                 ; wiping
G1 X97 Y171 F4000                  ; wiping
G1 X107 Y173 F4000                 ; wiping
G1 X97 Y171 F4000                  ; wiping
G1 X107 Y173 F4000                 ; wiping
G1 X112 Y171 Z-0.5 F1000           ; wiping
G1 Z10 ; raise extruder
G28 X0 Y0 ; home X and Y
G0 X0 Y187 F200 ; move away from endstops
M109 R140 ; wait for extruder to reach probe temp
M204 S300 ; set probing acceleration
G29 ; start auto-leveling sequence
M204 S2000 ; restore standard acceleration
G28 X0 Y0 ; re-home to account for build variance of earlier mini builds
G0 X0 Y187 F200 ; move away from endstops
G0 Y152 F4000 ; move in front of wiper pad
G4 S1 ; pause
M400 ; wait for moves to finish
M117 Heating... ; progress indicator message on LCD
M109 R205 ; wait for extruder to reach printing temp
M190 S60 ; wait for bed to reach printing temp
G1 Z2 E0 F75 ; prime tiny bit of filament into the nozzle
M117 Mini Printing... ; progress indicator message on LCD

M221 S100
;LAYER_COUNT:1
;LAYER:0
M107
G0 F2625 X42.433 Y17.141 Z0.425
;TYPE:WALL-INNER
G1 F900 X111.567 Y17.141 E2.30288
G1 X146.135 Y77 E4.6054
G1 X111.567 Y136.859 E6.90793
G1 X42.433 Y136.859 E9.21081
G1 X7.865 Y77 E11.51333
G1 X42.433 Y17.141 E13.81586
G0 F2625 X42.482 Y17.227
G0 X40.326 Y42.633
G0 X40.265 Y42.712
G1 F900 X35.974 Y42.713 E13.9588
G1 X35.031 Y42.724 E13.99021
G1 X34.299 Y42.749 E14.01461
G1 X33.758 Y42.788 E14.03267
G1 X33.524 Y42.819 E14.04054
G1 X33.314 Y42.862 E14.04768
G1 X33.101 Y42.931 E14.05514
G1 X32.83 Y43.084 E14.0655
G1 X32.616 Y43.373 E14.07748
G1 X32.466 Y43.977 E14.09821
G1 X32.352 Y44.652 E14.12101
G1 X32.242 Y45.476 E14.14871
G1 X32.137 Y46.425 E14.18051
G1 X32.038 Y47.466 E14.21534
G1 X31.949 Y48.564 E14.25204
G1 X31.871 Y49.686 E14.2895
G1 X31.808 Y50.796 E14.32654
G1 X31.762 Y51.858 E14.36194
G1 X31.736 Y52.837 E14.39457
G1 X31.733 Y53.703 E14.42341
G1 X31.757 Y54.418 E14.44724
G1 X31.8 Y54.984 E14.46615
G1 X31.86 Y55.529 E14.48442
G1 X31.942 Y56.064 E14.50244
G1 X32.045 Y56.594 E14.52043
G1 X32.175 Y57.129 E14.53877
G1 X32.33 Y57.67 E14.55751
G1 X32.514 Y58.225 E14.57699
G1 X32.728 Y58.8 E14.59743
G1 X32.974 Y59.402 E14.61909
G1 X33.253 Y60.04 E14.64229
G1 X33.569 Y60.72 E14.66726
G1 X34.243 Y62.107 E14.71863
G1 X34.808 Y63.31 E14.7629
G1 X35.046 Y63.844 E14.78238
G1 X35.443 Y64.805 E14.81701
G1 X35.614 Y65.258 E14.83314
G1 X35.757 Y65.666 E14.84754
G1 X35.885 Y66.066 E14.86153
G1 X36.001 Y66.47 E14.87553
G1 X36.096 Y66.836 E14.88813
G1 X36.186 Y67.234 E14.90172
G1 X36.279 Y67.724 E14.91834
G1 X36.38 Y68.347 E14.93936
G1 X36.478 Y69.041 E14.96271
G1 X36.576 Y69.808 E14.98846
G1 X36.671 Y70.646 E15.01655
G1 X36.844 Y72.44 E15.07659
G1 X36.921 Y73.382 E15.10807
G1 X36.991 Y74.339 E15.14004
G1 X37.051 Y75.298 E15.17204
G1 X37.101 Y76.247 E15.2037
G1 X37.202 Y78.547 E15.28039
G1 X37.308 Y80.253 E15.33732
G1 X37.365 Y80.968 E15.36122
G1 X37.449 Y81.742 E15.38715
G1 X37.617 Y82.679 E15.41886
G1 X37.84 Y83.594 E15.45023
G1 X38.117 Y84.485 E15.48131
G1 X38.446 Y85.35 E15.51214
G1 X38.827 Y86.186 E15.54274
G1 X39.256 Y86.99 E15.5731
G1 X39.733 Y87.758 E15.60321
G1 X40.255 Y88.486 E15.63305
G1 X40.821 Y89.173 E15.6627
G1 X41.43 Y89.814 E15.69215
G1 X42.08 Y90.407 E15.72146
G1 X42.712 Y90.895 E15.74806
G1 X42.552 Y91.116 E15.75715
G1 X42.314 Y91.464 E15.77119
G1 X42.088 Y91.831 E15.78555
G1 X41.885 Y92.21 E15.79987
G1 X41.7 Y92.599 E15.81422
G1 X41.535 Y93.001 E15.82869
G1 X41.39 Y93.417 E15.84337
G1 X41.264 Y93.846 E15.85826
G1 X41.157 Y94.289 E15.87344
G1 X41.069 Y94.744 E15.88888
G1 X40.998 Y95.214 E15.90471
G1 X40.944 Y95.7 E15.921
G1 X40.907 Y96.207 E15.93794
G1 X40.885 Y96.956 E15.9629
G1 X40.901 Y97.682 E15.98709
G1 X40.961 Y98.385 E16.01059
G1 X41.061 Y99.062 E16.03338
G1 X41.206 Y99.719 E16.0558
G1 X41.394 Y100.35 E16.07773
G1 X41.627 Y100.958 E16.09942
G1 X41.905 Y101.543 E16.12099
G1 X42.228 Y102.104 E16.14255
G1 X42.596 Y102.642 E16.16427
G1 X43.005 Y103.156 E16.18615
G1 X43.457 Y103.645 E16.20833
G1 X43.831 Y104.004 E16.2256
G1 X44.213 Y104.331 E16.24235
G1 X44.606 Y104.63 E16.2588
G1 X45.011 Y104.899 E16.27499
G1 X45.432 Y105.14 E16.29115
G1 X45.864 Y105.35 E16.30715
G1 X46.309 Y105.532 E16.32317
G1 X46.771 Y105.685 E16.33938
G1 X47.247 Y105.808 E16.35575
G1 X47.735 Y105.903 E16.37231
G1 X48.238 Y105.971 E16.38922
G1 X48.763 Y106.013 E16.40677
G1 X49.575 Y106.025 E16.43382
G1 X50.37 Y105.972 E16.46036
G1 X51.14 Y105.853 E16.48631
G1 X51.881 Y105.67 E16.51173
G1 X52.592 Y105.422 E16.53682
G1 X53.268 Y105.112 E16.56159
G1 X53.906 Y104.74 E16.58619
G1 X54.502 Y104.308 E16.61071
G1 X55.052 Y103.818 E16.63525
G1 X55.554 Y103.271 E16.65998
G1 X56.004 Y102.67 E16.68499
G1 X56.392 Y102.03 E16.70992
G1 X56.684 Y101.478 E16.73072
G1 X56.801 Y101.228 E16.73991
G1 X56.902 Y100.981 E16.7488
G1 X56.985 Y100.727 E16.7577
G1 X57.047 Y100.465 E16.76667
G1 X57.093 Y100.189 E16.77599
G1 X57.122 Y99.895 E16.78583
G1 X57.14 Y99.574 E16.79654
G1 X57.152 Y98.812 E16.82193
G1 X57.152 Y97.89 E16.85264
G1 X57.138 Y97.152 E16.87723
G1 X57.098 Y96.567 E16.89676
G1 X57.062 Y96.296 E16.90587
G1 X57.014 Y96.046 E16.91435
G1 X56.952 Y95.809 E16.92251
G1 X56.878 Y95.58 E16.93052
G1 X56.822 Y95.437 E16.93564
G1 X56.787 Y95.345 E16.93892
G1 X56.611 Y94.982 E16.95236
G1 X56.786 Y94.982
G1 X56.885 Y94.982 E16.95528
G1 X59.573 Y94.98 E17.04482
G1 X60.783 Y94.958 E17.08513
G1 X62.119 Y94.919 E17.12966
G1 X63.511 Y94.862 E17.17606
G1 X64.885 Y94.794 E17.22189
G1 X66.163 Y94.716 E17.26454
G1 X68.613 Y94.551 E17.34633
G1 X70.434 Y94.47 E17.40705
G1 X72.169 Y94.429 E17.46486
G1 X73.8 Y94.428 E17.51919
G1 X75.373 Y94.468 E17.5716
G1 X76.831 Y94.545 E17.62024
G1 X78.187 Y94.662 E17.66557
G1 X79.415 Y94.815 E17.7068
G1 X80.528 Y95.005 E17.74441
G1 X81.495 Y95.225 E17.77744
G1 X82.307 Y95.474 E17.80573
G1 X82.96 Y95.746 E17.8293
G1 X83.258 Y95.917 E17.84074
G1 X83.616 Y96.169 E17.85532
G1 X84.016 Y96.487 E17.87234
G1 X84.46 Y96.873 E17.89194
G1 X84.921 Y97.302 E17.91292
G1 X85.366 Y97.743 E17.93379
G1 X85.791 Y98.19 E17.95433
G1 X86.185 Y98.634 E17.97411
G1 X86.532 Y99.057 E17.99233
G1 X86.818 Y99.443 E18.00833
G1 X87 Y99.733 E18.01974
G1 X87.097 Y99.945 E18.0275
G1 X87.19 Y100.207 E18.03677
G1 X87.307 Y100.495 E18.04712
G1 X87.44 Y100.77 E18.0573
G1 X87.59 Y101.038 E18.06753
G1 X87.761 Y101.298 E18.07789
G1 X87.952 Y101.553 E18.0885
G1 X88.166 Y101.804 E18.09949
G1 X88.403 Y102.051 E18.11089
G1 X88.663 Y102.301 E18.12291
G1 X88.956 Y102.564 E18.13602
G1 X90.108 Y103.514 E18.18576
G1 X90.419 Y103.797 E18.19977
G1 X90.628 Y104.025 E18.21007
G1 X90.721 Y104.149 E18.21524
G1 X90.825 Y104.331 E18.22222
G1 X90.895 Y104.489 E18.22797
G1 X91.307 Y105.61 E18.26776
G1 X91.672 Y106.367 E18.29575
G1 X92.096 Y107.073 E18.32318
G1 X92.584 Y107.731 E18.35047
G1 X93.13 Y108.333 E18.37754
G1 X93.732 Y108.882 E18.40468
G1 X94.388 Y109.372 E18.43196
G1 X95.095 Y109.803 E18.45954
G1 X95.849 Y110.173 E18.48752
G1 X96.648 Y110.483 E18.51606
G1 X97.491 Y110.73 E18.54533
G1 X98.503 Y110.937 E18.57973
G1 X98.729 Y111.005 E18.5876
G1 X98.843 Y111.06 E18.59181
G1 X98.961 Y111.128 E18.59635
G1 X99.136 Y111.246 E18.60338
G1 X99.318 Y111.386 E18.61103
G1 X99.533 Y111.566 E18.62037
G1 X100.123 Y112.097 E18.64681
G1 X101.729 Y113.615 E18.72042
G1 X102.631 Y114.426 E18.76083
G1 X102.966 Y114.707 E18.77539
G1 X103.237 Y114.906 E18.78659
G1 X103.567 Y115.055 E18.79865
G1 X104.038 Y114.965 E18.81462
G1 X104.344 Y114.778 E18.82657
G1 X104.555 Y114.542 E18.83711
G1 X104.698 Y114.293 E18.84668
G1 X104.801 Y114.036 E18.8559
G1 X104.877 Y113.762 E18.86537
G1 X104.935 Y113.471 E18.87526
G1 X104.98 Y113.153 E18.88596
G1 X105.012 Y112.806 E18.89756
G1 X105.033 Y112.432 E18.91004
G1 X105.043 Y112.025 E18.9236
G1 X105.024 Y110.257 E18.9825
G1 X106.273 Y109.658 E19.02864
G1 X106.724 Y109.43 E19.04547
G1 X107.175 Y109.178 E19.06268
G1 X107.616 Y108.909 E19.07989
G1 X108.045 Y108.626 E19.09701
G1 X108.46 Y108.329 E19.11401
G1 X108.86 Y108.021 E19.13083
G1 X109.241 Y107.703 E19.14736
G1 X109.601 Y107.375 E19.16358
G1 X109.937 Y107.042 E19.17934
G1 X110.247 Y106.703 E19.19464
G1 X110.528 Y106.363 E19.20933
G1 X110.918 Y105.834 E19.23122
G1 X111.074 Y105.67 E19.23876
G1 X111.278 Y105.495 E19.24772
G1 X111.476 Y105.359 E19.25572
G1 X111.751 Y105.203 E19.26625
G1 X112.046 Y105.064 E19.27711
G1 X112.385 Y104.932 E19.28923
G1 X112.816 Y104.792 E19.30433
G1 X113.266 Y104.67 E19.31986
G1 X113.769 Y104.553 E19.33706
G1 X114.333 Y104.444 E19.35619
G1 X116.313 Y104.119 E19.42303
G1 X116.844 Y104.02 E19.44102
G1 X117.292 Y103.92 E19.45631
G1 X117.676 Y103.811 E19.46961
G1 X118.02 Y103.675 E19.48193
G1 X118.335 Y103.488 E19.49413
G1 X118.604 Y103.224 E19.50669
G1 X118.787 Y102.901 E19.51905
G1 X118.874 Y102.579 E19.53017
G1 X118.907 Y102.284 E19.54005
G1 X118.911 Y101.987 E19.54995
G1 X118.897 Y101.662 E19.56078
G1 X118.856 Y101.313 E19.57249
G1 X118.792 Y100.953 E19.58467
G1 X118.709 Y100.584 E19.59727
G1 X118.604 Y100.206 E19.61033
G1 X118.483 Y99.825 E19.62365
G1 X118.345 Y99.443 E19.63718
G1 X118.191 Y99.063 E19.65084
G1 X118.025 Y98.688 E19.6645
G1 X117.845 Y98.323 E19.67805
G1 X117.654 Y97.97 E19.69142
G1 X117.448 Y97.633 E19.70458
G1 X117.217 Y97.293 E19.71827
G1 X116.971 Y96.976 E19.73164
G1 X116.712 Y96.684 E19.74464
G1 X116.435 Y96.415 E19.7575
G1 X116.138 Y96.172 E19.77029
G1 X115.824 Y95.956 E19.78298
G1 X115.492 Y95.768 E19.79569
G1 X115.143 Y95.604 E19.80853
G1 X114.776 Y95.467 E19.82158
G1 X114.393 Y95.352 E19.8349
G1 X113.99 Y95.261 E19.84867
G1 X113.581 Y95.19 E19.86249
G1 X112.401 Y95.009 E19.90226
G1 X111.476 Y94.842 E19.93357
G1 X111.112 Y94.766 E19.94596
G1 X110.787 Y94.687 E19.9571
G1 X110.525 Y94.613 E19.96617
G1 X110.281 Y94.532 E19.97473
G1 X110.078 Y94.453 E19.98199
G1 X109.931 Y94.384 E19.98739
G1 X109.762 Y94.291 E19.99382
G1 X109.64 Y94.213 E19.99864
G1 X109.368 Y94.009 E20.00997
G1 X109.098 Y93.778 E20.02181
G1 X108.8 Y93.495 E20.0355
G1 X108.51 Y93.191 E20.04949
G1 X108.191 Y92.832 E20.06549
G1 X107.887 Y92.463 E20.08141
G1 X107.595 Y92.084 E20.09735
G1 X107.292 Y91.663 E20.11463
G1 X107.022 Y91.261 E20.13076
G1 X106.739 Y90.811 E20.14847
G1 X106.502 Y90.403 E20.16418
G1 X106.266 Y89.957 E20.18099
G1 X106.053 Y89.511 E20.19746
G1 X105.836 Y89 E20.21595
G1 X105.61 Y88.416 E20.23681
G1 X105.377 Y87.768 E20.25975
G1 X105.152 Y87.091 E20.28351
G1 X104.932 Y86.383 E20.30821
G1 X104.724 Y85.66 E20.33327
G1 X104.522 Y84.913 E20.35904
G1 X104.336 Y84.166 E20.38468
G1 X104.17 Y83.442 E20.40943
G1 X104.02 Y82.716 E20.43412
G1 X103.751 Y81.197 E20.48551
G1 X103.601 Y80.4 E20.51252
G1 X103.446 Y79.645 E20.5382
G1 X103.286 Y78.93 E20.5626
G1 X103.119 Y78.252 E20.58586
G1 X102.947 Y77.608 E20.60806
G1 X102.767 Y76.996 E20.62931
G1 X102.577 Y76.414 E20.64971
G1 X102.378 Y75.861 E20.66928
G1 X102.169 Y75.333 E20.6882
G1 X101.949 Y74.829 E20.70652
G1 X101.719 Y74.349 E20.72425
G1 X101.511 Y73.949 E20.73927
G1 X101.284 Y73.538 E20.75491
G1 X101.038 Y73.114 E20.77123
G1 X100.512 Y72.267 E20.80445
G1 X99.952 Y71.435 E20.83785
G1 X99.388 Y70.662 E20.86973
G1 X99.106 Y70.303 E20.88493
G1 X98.834 Y69.974 E20.89915
G1 X98.38 Y69.452 E20.9222
G1 X98.252 Y69.254 E20.93005
G1 X98.162 Y69.039 E20.93782
G1 X98.115 Y68.888 E20.94308
G1 X98.065 Y68.689 E20.94992
G1 X97.956 Y68.145 E20.9684
G1 X97.833 Y67.399 E20.99358
G1 X97.655 Y66.173 E21.03485
G1 X97.463 Y64.713 E21.0839
G1 X97.262 Y63.078 E21.13878
G1 X97.057 Y61.313 E21.19796
G1 X96.662 Y57.639 E21.32105
G1 X96.484 Y55.836 E21.3814
G1 X96.325 Y54.135 E21.43831
G1 X96.191 Y52.593 E21.48987
G1 X96.089 Y51.259 E21.53443
G1 X96.026 Y50.205 E21.5696
G1 X96.003 Y49.468 E21.59417
G1 X96.008 Y49.132 E21.60536
G1 X96.022 Y48.854 E21.61463
G1 X96.049 Y48.603 E21.62304
G1 X96.084 Y48.42 E21.62925
G1 X96.13 Y48.262 E21.63473
G1 X96.173 Y48.163 E21.63832
G1 X96.233 Y48.064 E21.64218
G1 X96.299 Y47.985 E21.64561
G1 X96.4 Y47.892 E21.65018
G1 X96.534 Y47.793 E21.65573
G1 X96.71 Y47.684 E21.66263
G1 X97.178 Y47.432 E21.68033
G1 X97.405 Y47.293 E21.6892
G1 X97.614 Y47.14 E21.69783
G1 X97.809 Y46.97 E21.70645
G1 X97.985 Y46.777 E21.71515
G1 X98.137 Y46.563 E21.72389
G1 X98.258 Y46.333 E21.73255
G1 X98.351 Y46.091 E21.74118
G1 X98.416 Y45.837 E21.74992
G1 X98.455 Y45.583 E21.75848
G1 X98.477 Y45.316 E21.7674
G1 X98.48 Y44.668 E21.78899
G1 X98.47 Y44.32 E21.80058
G1 X98.438 Y43.986 E21.81176
G1 X98.348 Y43.637 E21.82376
G1 X98.152 Y43.282 E21.83727
G1 X97.833 Y43.004 E21.85137
G1 X97.472 Y42.847 E21.86448
G1 X97.105 Y42.769 E21.87698
G1 X96.715 Y42.732 E21.89003
G1 X96.272 Y42.717 E21.90479
G1 X92.301 Y42.712 E22.03707
G1 X92.055 Y43.333 E22.05932
G1 X91.773 Y44.046 E22.08486
G1 X91.582 Y43.304 E22.09824
G1 X91.581 Y43.303 E22.09829
G1 X91.428 Y42.712 E22.11863
G1 X84.831 Y42.712 E22.33837
G1 X84.021 Y44.898 E22.41603
G1 X83.8 Y45.564 E22.4394
G1 X83.61 Y46.231 E22.46251
G1 X83.448 Y46.932 E22.48647
G1 X83.312 Y47.703 E22.51255
G1 X83.196 Y48.575 E22.54185
G1 X83.097 Y49.589 E22.57579
G1 X83.009 Y50.78 E22.61557
G1 X82.927 Y52.19 E22.66262
G1 X82.846 Y53.86 E22.71831
G1 X82.613 Y59.61 E22.91
G1 X82.494 Y62.31 E23.00003
G1 X82.397 Y64.211 E23.06343
G1 X82.313 Y65.243 E23.09792
G1 X81.288 Y65.323 E23.13217
G1 X80.101 Y65.43 E23.17187
G1 X78.889 Y65.568 E23.2125
G1 X77.67 Y65.734 E23.25348
G1 X76.456 Y65.924 E23.29441
G1 X75.258 Y66.137 E23.33495
G1 X74.091 Y66.369 E23.37458
G1 X72.964 Y66.619 E23.41303
G1 X71.892 Y66.883 E23.44981
G1 X70.883 Y67.161 E23.48467
G1 X69.951 Y67.449 E23.51717
G1 X69.103 Y67.747 E23.54711
G1 X67.946 Y68.229 E23.58886
G1 X67.451 Y68.423 E23.60657
G1 X67.314 Y68.47 E23.61139
G1 X67.154 Y68.508 E23.61687
G1 X66.941 Y68.58 E23.62436
G1 X66.115 Y68.954 E23.65456
G1 X64.873 Y69.547 E23.70041
G1 X63.448 Y70.246 E23.75328
G1 X62.089 Y70.928 E23.80393
G1 X60.97 Y71.514 E23.846
G1 X60.362 Y70.522 E23.88476
G1 X59.633 Y69.406 E23.92916
G1 X58.85 Y68.257 E23.97548
G1 X58.119 Y67.231 E24.01744
G1 X57.8 Y66.807 E24.03512
G1 X57.527 Y66.466 E24.04967
G1 X57.1 Y65.99 E24.07097
G1 X56.481 Y65.34 E24.10087
G1 X55.711 Y64.557 E24.13745
G1 X54.83 Y63.678 E24.1789
G1 X53.881 Y62.75 E24.22312
G1 X51.159 Y60.125 E24.34908
G1 X50.397 Y59.372 E24.38476
G1 X49.706 Y58.674 E24.41748
G1 X49.086 Y58.033 E24.44719
G1 X48.537 Y57.449 E24.47389
G1 X48.063 Y56.925 E24.49742
G1 X47.651 Y56.449 E24.51839
G1 X47.321 Y56.042 E24.53585
G1 X47.06 Y55.693 E24.55036
G1 X46.872 Y55.41 E24.56168
G1 X46.754 Y55.194 E24.56988
G1 X46.691 Y55.037 E24.57551
G1 X46.628 Y54.834 E24.58259
