;Generated by Cura LulzBot Edition GCodeWriter Version: 2.6.66
;FLAVOR:RepRap
;TIME:1050
;Filament used: 0.51197m
;Layer height: 0.38
;Generated with Cura_SteamEngine 2.6.66
;This G-Code has been generated specifically for the LulzBot Mini with standard extruder
G26 ; clear potential 'probe fail' condition
G21 ; set units to Millimetres
M107 ; disable fans
G90 ; absolute positioning
M82 ; set extruder to absolute mode
G92 E0 ; set extruder position to 0
M140 S60 ; start bed heating up
G28 ; home all axes
G0 X0 Y187 Z156 F200 ; move away from endstops
M109 R140 ;
G1 E-30 F75 ; retract filament
M109 R140 ; wait for extruder to reach wiping temp
G1 X45 Y173 F11520 ; move above wiper pad
G1 Z0 F1200 ; push nozzle into wiper
G1 X42 Y173 Z-.5 F4000             ; wiping
G1 X52 Y171 Z-.5 F4000             ; wiping
G1 X42 Y173 Z0 F4000               ; wiping
G1 X52 Y171 F4000                  ; wiping
G1 X42 Y173 F4000                  ; wiping
G1 X52 Y171 F4000                  ; wiping
G1 X42 Y173 F4000                  ; wiping
G1 X52 Y171 F4000                  ; wiping
G1 X57 Y173 F4000                  ; wiping
G1 X77 Y171 F4000                  ; wiping
G1 X57 Y173 F4000                  ; wiping
G1 X77 Y171 F4000                  ; wiping
G1 X57 Y173 F4000                  ; wiping
G1 X87 Y171 F4000                  ; wiping
G1 X77 Y173 F4000                  ; wiping
G1 X97 Y171 F4000                  ; wiping
G1 X77 Y173 F4000                  ; wiping
G1 X97 Y171 F4000                  ; wiping
G1 X77 Y173 F4000                  ; wiping
G1 X97 Y171 F4000                  ; wiping
G1 X107 Y173 F4000                 ; wiping
G1 X97 Y171 F4000                  ; wiping
G1 X107 Y173 F4000                 ; wiping
G1 X97 Y171 F4000                  ; wiping
G1 X107 Y173 F4000                 ; wiping
G1 X112 Y171 Z-0.5 F1000           ; wiping
G1 Z10 ; raise extruder
G28 X0 Y0 ; home X and Y
G0 X0 Y187 F200 ; move away from endstops
M109 R140 ; wait for extruder to reach probe temp
M204 S300 ; set probing acceleration
G29 ; start auto-leveling sequence
M204 S2000 ; restore standard acceleration
G28 X0 Y0 ; re-home to account for build variance of earlier mini builds
G0 X0 Y187 F200 ; move away from endstops
G0 Y152 F4000 ; move in front of wiper pad
G4 S1 ; pause
M400 ; wait for moves to finish
M117 Heating... ; progress indicator message on LCD
M109 R205 ; wait for extruder to reach printing temp
M190 S60 ; wait for bed to reach printing temp
G1 Z2 E0 F75 ; prime tiny bit of filament into the nozzle
M117 Mini Printing... ; progress indicator message on LCD

M221 S100
;LAYER_COUNT:1
;LAYER:0
M107
G0 F2625 X49.432 Y25.799 Z0.425
;TYPE:WALL-INNER
G1 F900 X108.566 Y25.799 E1.96977
G1 X138.135 Y77.001 E3.93931
G1 X108.566 Y128.201 E5.90878
G1 X49.432 Y128.201 E7.87856
G1 X19.865 Y77.001 E9.848
G1 X49.432 Y25.799 E11.8175
G0 F2625 X49.481 Y25.885
G0 X50.822 Y51.729
G0 X50.822 Y51.829
G1 F900 X46.555 Y51.848 E11.95964
G1 X44.288 Y51.874 E12.03516
G1 X43.748 Y51.893 E12.05315
G1 X42.816 Y52.007 E12.08443
G1 X42.441 Y52.052 E12.09701
G1 X42.63 Y52.379 E12.10434
G1 X53.18 Y70.626 E12.80643
G1 X57.427 Y77.945 E13.0883
G1 X60.235 Y82.741 E13.27343
G1 X60.89 Y83.835 E13.3159
G1 X61.04 Y84.059 E13.32488
G1 X61.424 Y84.767 E13.35171
G1 X63.851 Y89.033 E13.5152
G1 X67.77 Y95.863 E13.7775
G1 X72.197 Y103.548 E14.07293
G1 X76.142 Y110.365 E14.33529
G1 X78.615 Y114.605 E14.49879
G1 X79.419 Y115.922 E14.55019
G1 X79.631 Y116.271 E14.56379
G1 X79.844 Y115.922 E14.57159
G1 X80.647 Y114.606 E14.62294
G1 X81.64 Y112.914 E14.68829
G1 X84.97 Y107.171 E14.90942
G1 X89.278 Y99.706 E15.19652
G1 X93.577 Y92.234 E15.48367
G1 X96.873 Y86.472 E15.70479
G1 X97.839 Y84.764 E15.77015
G1 X98.223 Y84.056 E15.79698
G1 X98.371 Y83.835 E15.80584
G1 X99.026 Y82.741 E15.84831
G1 X101.835 Y77.946 E16.03343
G1 X106.081 Y70.627 E16.31528
G1 X116.634 Y52.379 E17.01745
G1 X116.823 Y52.052 E17.03004
G1 X116.448 Y52.007 E17.03736
G1 X115.515 Y51.893 E17.06867
G1 X114.975 Y51.874 E17.08667
G1 X112.708 Y51.848 E17.16219
G1 X108.442 Y51.829 E17.30429
G1 X101.774 Y51.817 E17.52641
G1 X79.631 Y51.809 E18.264
G1 X57.491 Y51.817 E19.00149
G1 X50.822 Y51.829 E19.22364
G1 F600 E17.47364
G0 F2625 X50.822 Y51.729
G0 X57.491 Y51.817
G0 X57.492 Y53.231
G0 X73.831 Y61.279
G0 X75.072 Y61.998
G0 X76.843 Y59.098
G0 X76.757 Y59.048
G1 F600 E19.22364
G1 F900 X79.414 Y54.483 E19.39958
G1 X79.629 Y54.113 E19.41383
G1 X79.844 Y54.482 E19.4219
G1 X79.845 Y54.483 E19.42195
G1 X81.641 Y57.561 E19.54066
G1 X85.597 Y64.385 E19.8034
G1 X90.339 Y72.584 E20.1189
G1 X94.306 Y79.41 E20.38189
G1 X95.726 Y81.837 E20.47555
G1 X96.188 Y82.613 E20.50564
G1 X96.415 Y82.995 E20.52044
G1 X95.971 Y82.992 E20.52879
G1 X95.97 Y82.991 E20.52884
G1 X94.86 Y82.978 E20.56582
G1 X91.916 Y82.962 E20.66388
G1 X84.057 Y82.944 E20.92567
G1 X75.207 Y82.944 E21.22047
G1 X67.347 Y82.963 E21.48229
G1 X63.291 Y82.992 E21.6174
G1 X62.85 Y82.995 E21.63209
G1 X63.074 Y82.615 E21.64039
G1 X64.191 Y80.721 E21.71364
G1 X67.817 Y74.49 E21.95378
G1 X76.757 Y59.048 E22.54814
G0 F2625 X76.325 Y58.797
;TYPE:WALL-OUTER
G1 F900 X79.122 Y53.988 E22.73346
G1 X79.417 Y53.491 E22.75271
G1 X79.633 Y53.127 E22.76681
G1 X79.846 Y53.493 E22.77483
G1 X82.074 Y57.31 E22.92205
G1 X86.03 Y64.134 E23.18479
G1 X90.772 Y72.333 E23.50029
G1 X94.738 Y79.158 E23.76323
G1 X96.157 Y81.583 E23.85682
G1 X97.132 Y83.222 E23.92035
G1 X97.169 Y83.285 E23.92278
G1 X97.307 Y83.516 E23.93175
G1 X96.812 Y83.499 E23.93864
G1 X96.738 Y83.499 E23.94093
G1 X94.856 Y83.478 E24.00362
G1 X91.914 Y83.462 E24.10162
G1 X84.056 Y83.444 E24.36337
G1 X75.208 Y83.444 E24.6581
G1 X67.349 Y83.463 E24.91989
G1 X64.407 Y83.479 E25.01789
G1 X62.526 Y83.499 E25.08055
G1 X62.451 Y83.499 E25.08305
G1 X61.954 Y83.518 E25.09962
G1 X62.093 Y83.286
G1 X62.131 Y83.222 E25.10191
G1 X62.574 Y82.483 E25.13062
G1 X63.759 Y80.468 E25.20848
G1 X67.385 Y74.239 E25.44857
G1 X76.325 Y58.797 E26.04293
G0 F2625 X76.45 Y58.581
G1 F600 E24.29293
G0 F2625 X76.968 Y58.883
G0 X79.629 Y54.133
G0 X79.629 Y51.809
G0 X79.632 Y51.71
G0 X79.631 Y52.309
G1 F600 E26.04293
G1 F900 X57.491 Y52.317 E26.78042
G1 X50.823 Y52.329 E27.00254
G1 X46.559 Y52.348 E27.14457
G1 X44.3 Y52.374 E27.21982
G1 X43.791 Y52.392 E27.23679
G1 X43.787 Y52.392 E27.23692
G1 X43.253 Y52.457 E27.25484
G1 X43.358 Y52.639
G1 X43.36 Y52.642 E27.25496
G1 X53.613 Y70.376 E27.93731
G1 X57.859 Y77.694 E28.21914
G1 X60.665 Y82.486 E28.40411
G1 X61.313 Y83.568 E28.44612
G1 X61.471 Y83.805 E28.45561
G1 X61.861 Y84.524 E28.48286
G1 X64.285 Y88.785 E28.64615
G1 X68.204 Y95.614 E28.90843
G1 X72.63 Y103.298 E29.20381
G1 X76.574 Y110.114 E29.46612
G1 X79.044 Y114.349 E29.62943
G1 X79.418 Y114.962 E29.65335
G1 X79.631 Y115.311 E29.66697
G1 X79.844 Y114.962 E29.67476
G1 X80.218 Y114.349 E29.69868
G1 X81.208 Y112.662 E29.76384
G1 X84.537 Y106.921 E29.9849
G1 X88.845 Y99.456 E30.272
G1 X93.143 Y91.985 E30.5591
G1 X96.438 Y86.225 E30.78015
G1 X97.402 Y84.522 E30.84533
G1 X97.792 Y83.802 E30.87261
G1 X97.948 Y83.568 E30.88198
G1 X98.596 Y82.486 E30.92399
G1 X101.403 Y77.694 E31.10898
G1 X105.649 Y70.376 E31.3908
G1 X115.902 Y52.642 E32.07315
G1 X115.904 Y52.639 E32.07327
G1 X116.01 Y52.457 E32.08029
G1 X115.476 Y52.392 E32.09007
G1 X115.472 Y52.392 E32.0902
G1 X114.963 Y52.374 E32.10717
G1 X112.704 Y52.348 E32.18242
G1 X108.44 Y52.329 E32.32446
G1 X101.773 Y52.317 E32.54654
G1 X79.631 Y52.309 E33.2841
G0 F2625 X79.381 Y52.309
G0 X79.381 Y51.709
G0 X108.517 Y25.885
G0 X108.855 Y25.299
G1 F900 X138.712 Y77.001 E35.27285
G1 X108.855 Y128.701 E37.26155
G1 X49.143 Y128.701 E39.25057
G1 X19.288 Y77.001 E41.23924
G1 X49.143 Y25.299 E43.22796
G1 X108.855 Y25.299 E45.21698
G0 F2625 X108.98 Y25.515
G0 X108.517 Y25.885
G0 X108.048 Y26.024
;TYPE:SKIN
G1 F900 X108.965 Y26.941 E45.26018
G1 X109.053 Y27.029
G0 F2625 X107.341 Y26.024
G1 F900 X109.932 Y28.615 E45.38224
G1 X110.02 Y28.703
G0 F2625 X110.898 Y30.288
G1 F900 X106.634 Y26.024 E45.58311
G1 X106.546 Y25.936
G0 F2625 X105.927 Y26.024
G1 F900 X111.864 Y31.961 E45.86279
G1 X111.952 Y32.049
G0 F2625 X112.831 Y33.635
G1 F900 X105.22 Y26.024 E46.22133
G1 X105.132 Y25.936
G0 F2625 X104.513 Y26.024
G1 F900 X113.798 Y35.309 E46.65872
G1 X113.886 Y35.397
G0 F2625 X114.764 Y36.983
G1 F900 X103.806 Y26.024 E47.17496
G1 X103.718 Y25.936
G0 F2625 X103.098 Y26.024
G1 F900 X115.731 Y38.656 E47.77005
G1 X115.819 Y38.744
G0 F2625 X116.698 Y40.33
G1 F900 X102.391 Y26.024 E48.444
G1 X102.303 Y25.936
G0 F2625 X101.684 Y26.024
G1 F900 X117.664 Y42.004 E49.19678
G1 X117.752 Y42.092
G0 F2625 X118.631 Y43.677
G1 F900 X100.977 Y26.024 E50.0284
G1 X100.889 Y25.936
G0 F2625 X100.27 Y26.024
G1 F900 X119.597 Y45.351 E50.93886
G1 X119.685 Y45.439
G0 F2625 X120.564 Y47.025
G1 F900 X99.563 Y26.024 E51.92817
G1 X99.475 Y25.936
G0 F2625 X98.856 Y26.024
G1 F900 X121.531 Y48.699 E52.99635
G1 X121.619 Y48.787
G0 F2625 X122.497 Y50.372
G1 F900 X98.149 Y26.024 E54.14333
G1 X98.061 Y25.936
G0 F2625 X97.442 Y26.024
G1 F900 X123.464 Y52.046 E55.36917
G1 X123.552 Y52.134
G0 F2625 X124.43 Y53.719
G1 F900 X96.735 Y26.024 E56.67383
G1 X96.647 Y25.936
G0 F2625 X96.027 Y26.024
G1 F900 X125.396 Y55.393 E58.05734
G1 X125.484 Y55.481
G0 F2625 X126.363 Y57.067
G1 F900 X95.32 Y26.024 E59.51972
G1 X95.232 Y25.936
G0 F2625 X94.613 Y26.024
G1 F900 X127.33 Y58.74 E61.06092
G1 X127.418 Y58.828
G0 F2625 X128.296 Y60.414
G1 F900 X93.906 Y26.024 E62.68097
G1 X93.818 Y25.936
G0 F2625 X93.199 Y26.024
G1 F900 X129.263 Y62.088 E64.37987
G1 X129.351 Y62.176
G0 F2625 X130.229 Y63.761
G1 F900 X92.492 Y26.024 E66.15758
G1 X92.404 Y25.936
G0 F2625 X91.785 Y26.024
G1 F900 X131.196 Y65.435 E68.01415
G1 X131.284 Y65.523
G0 F2625 X132.163 Y67.109
G1 F900 X117.09 Y52.036 E68.72421
G1 X117.002 Y51.948
G0 F2625 X116.886 Y51.833
G1 F900 X91.078 Y26.024 E69.94
G1 X90.99 Y25.936
G0 F2625 X90.371 Y26.024
G1 F900 X116.082 Y51.735 E71.15119
G1 X116.17 Y51.823
G0 F2625 X115.3 Y51.66
G1 F900 X89.663 Y26.024 E72.35887
G1 X89.575 Y25.936
G0 F2625 X88.956 Y26.024
G1 F900 X114.576 Y51.644 E73.56578
G1 X114.664 Y51.732
G0 F2625 X113.861 Y51.635
G1 F900 X88.249 Y26.024 E74.77228
G1 X88.161 Y25.936
G0 F2625 X87.542 Y26.024
G1 F900 X113.146 Y51.627 E75.97841
G1 X113.234 Y51.715
G0 F2625 X112.432 Y51.621
G1 F900 X86.835 Y26.024 E77.18424
G1 X86.747 Y25.936
G0 F2625 X86.128 Y26.024
G1 F900 X111.722 Y51.618 E78.38992
G1 X111.81 Y51.706
G0 F2625 X111.012 Y51.615
G1 F900 X85.421 Y26.024 E79.59546
G1 X85.333 Y25.936
G0 F2625 X84.714 Y26.024
G1 F900 X110.301 Y51.611 E80.80081
G1 X110.389 Y51.699
G0 F2625 X109.591 Y51.608
G1 F900 X84.007 Y26.024 E82.00602
G1 X83.919 Y25.936
G0 F2625 X83.3 Y26.024
G1 F900 X108.881 Y51.605 E83.21109
G1 X108.969 Y51.693
G0 F2625 X108.171 Y51.603
G1 F900 X82.592 Y26.024 E84.41606
G1 X82.504 Y25.936
G0 F2625 X81.885 Y26.024
G1 F900 X107.463 Y51.601 E85.62097
G1 X107.551 Y51.689
G0 F2625 X106.754 Y51.6
G1 F900 X81.178 Y26.024 E86.8258
G1 X81.09 Y25.936
G0 F2625 X80.471 Y26.024
G1 F900 X106.046 Y51.598 E88.03056
G1 X106.134 Y51.686
G0 F2625 X105.338 Y51.598
G1 F900 X79.764 Y26.024 E89.2353
G1 X79.676 Y25.936
G0 F2625 X79.057 Y26.024
G1 F900 X104.629 Y51.596 E90.43995
G1 X104.717 Y51.684
G0 F2625 X103.921 Y51.595
G1 F900 X78.35 Y26.024 E91.64454
G1 X78.262 Y25.936
G0 F2625 X77.643 Y26.024
G1 F900 X103.212 Y51.594 E92.84907
G1 X103.3 Y51.682
G0 F2625 X102.504 Y51.592
G1 F900 X76.936 Y26.024 E94.05353
G1 X76.848 Y25.936
G0 F2625 X76.228 Y26.024
G1 F900 X101.796 Y51.591 E95.25796
G1 X101.884 Y51.679
G0 F2625 X101.088 Y51.591
G1 F900 X75.521 Y26.024 E96.46237
G1 X75.433 Y25.936
G0 F2625 X74.814 Y26.024
G1 F900 X100.381 Y51.591 E97.66678
G1 X100.469 Y51.679
G0 F2625 X99.673 Y51.59
G1 F900 X74.107 Y26.024 E98.87114
G1 X74.019 Y25.936
G0 F2625 X73.4 Y26.024
G1 F900 X98.966 Y51.59 E100.0755
G1 X99.054 Y51.678
G0 F2625 X98.259 Y51.59
G1 F900 X72.693 Y26.024 E101.27987
G1 X72.605 Y25.936
G0 F2625 X71.986 Y26.024
G1 F900 X97.551 Y51.589 E102.48418
G1 X97.639 Y51.677
G0 F2625 X96.844 Y51.589
G1 F900 X71.279 Y26.024 E103.6885
G1 X71.191 Y25.936
G0 F2625 X70.572 Y26.024
G1 F900 X96.137 Y51.589 E104.89281
G1 X96.225 Y51.677
G0 F2625 X95.429 Y51.589
G1 F900 X69.864 Y26.024 E106.09713
G1 X69.776 Y25.936
G0 F2625 X69.157 Y26.024
G1 F900 X94.722 Y51.589 E107.30144
G1 X94.81 Y51.677
G0 F2625 X94.015 Y51.589
G1 F900 X68.45 Y26.024 E108.50576
G1 X68.362 Y25.936
G0 F2625 X67.743 Y26.024
G1 F900 X93.307 Y51.588 E109.71002
G1 X93.395 Y51.676
G0 F2625 X92.6 Y51.588
G1 F900 X67.036 Y26.024 E110.91429
G1 X66.948 Y25.936
G0 F2625 X66.329 Y26.024
G1 F900 X91.893 Y51.588 E112.11856
G1 X91.981 Y51.676
G0 F2625 X91.185 Y51.587
G1 F900 X65.622 Y26.024 E113.32278
G1 X65.534 Y25.936
G0 F2625 X64.915 Y26.024
G1 F900 X90.478 Y51.587 E114.527
G1 X90.566 Y51.675
G0 F2625 X89.771 Y51.587
G1 F900 X64.208 Y26.024 E115.73122
G1 X64.12 Y25.936
G0 F2625 X63.501 Y26.024
G1 F900 X89.063 Y51.586 E116.9354
G1 X89.151 Y51.674
G0 F2625 X88.356 Y51.586
G1 F900 X62.793 Y26.024 E118.13959
G1 X62.705 Y25.936
G0 F2625 X62.086 Y26.024
G1 F900 X87.648 Y51.586 E119.34377
G1 X87.736 Y51.674
G0 F2625 X86.941 Y51.586
G1 F900 X61.379 Y26.024 E120.54794
G1 X61.291 Y25.936
G0 F2625 X60.672 Y26.024
G1 F900 X86.234 Y51.586 E121.75211
G1 X86.322 Y51.674
G0 F2625 X85.526 Y51.585
G1 F900 X59.965 Y26.024 E122.95624
G1 X59.877 Y25.936
G0 F2625 X59.258 Y26.024
G1 F900 X84.819 Y51.585 E124.16037
G1 X84.907 Y51.673
G0 F2625 X84.112 Y51.585
G1 F900 X58.551 Y26.024 E125.36449
G1 X58.463 Y25.936
G0 F2625 X57.844 Y26.024
G1 F900 X83.404 Y51.584 E126.56857
G1 X83.492 Y51.672
G0 F2625 X82.697 Y51.584
G1 F900 X57.137 Y26.024 E127.77265
G1 X57.049 Y25.936
G0 F2625 X56.429 Y26.024
G1 F900 X81.99 Y51.584 E128.97676
G1 X82.078 Y51.672
G0 F2625 X81.282 Y51.584
G1 F900 X55.722 Y26.024 E130.18084
G1 X55.634 Y25.936
G0 F2625 X55.015 Y26.024
G1 F900 X80.575 Y51.584 E131.38492
G1 X80.663 Y51.672
G0 F2625 X79.868 Y51.584
G1 F900 X54.308 Y26.024 E132.589
G1 X54.22 Y25.936
G0 F2625 X53.601 Y26.024
G1 F900 X79.161 Y51.584 E133.79308
G1 X79.249 Y51.672
G0 F2625 X78.454 Y51.584
G1 F900 X52.894 Y26.024 E134.99715
G1 X52.806 Y25.936
G0 F2625 X52.187 Y26.024
G1 F900 X77.747 Y51.584 E136.20123
G1 X77.835 Y51.672
G0 F2625 X77.04 Y51.584
G1 F900 X51.48 Y26.024 E137.40531
G1 X51.392 Y25.936
G0 F2625 X50.773 Y26.024
G1 F900 X76.333 Y51.584 E138.60939
G1 X76.421 Y51.672
G0 F2625 X75.626 Y51.584
G1 F900 X50.065 Y26.024 E139.8135
G1 X49.977 Y25.936
G0 F2625 X49.486 Y26.152
G1 F900 X74.92 Y51.585 E141.01162
G1 X75.008 Y51.673
G0 F2625 X74.212 Y51.585
G1 F900 X49.228 Y26.6 E142.18859
G1 X49.14 Y26.512
G0 F2625 X48.969 Y27.048
G1 F900 X73.506 Y51.586 E143.3445
G1 X73.594 Y51.674
G0 F2625 X72.799 Y51.586
G1 F900 X48.71 Y27.497 E144.47928
G1 X48.622 Y27.409
G0 F2625 X48.45 Y27.944
G1 F900 X72.092 Y51.586 E145.59301
G1 X72.18 Y51.674
G0 F2625 X71.385 Y51.586
G1 F900 X48.192 Y28.393 E146.68558
G1 X48.104 Y28.305
G0 F2625 X47.933 Y28.841
G1 F900 X70.678 Y51.586 E147.75705
G1 X70.766 Y51.674
G0 F2625 X69.971 Y51.586
G1 F900 X47.674 Y29.289 E148.80742
G1 X47.586 Y29.201
G0 F2625 X47.415 Y29.738
G1 F900 X69.265 Y51.587 E149.8367
G1 X69.353 Y51.675
G0 F2625 X68.558 Y51.587
G1 F900 X47.156 Y30.186 E150.84489
G1 X47.068 Y30.098
G0 F2625 X46.898 Y30.634
G1 F900 X67.851 Y51.587 E151.83194
G1 X67.939 Y51.675
G0 F2625 X67.144 Y51.588
G1 F900 X46.639 Y31.082 E152.79791
G1 X46.551 Y30.994
G0 F2625 X46.38 Y31.531
G1 F900 X66.437 Y51.588 E153.74276
G1 X66.525 Y51.676
G0 F2625 X65.73 Y51.588
G1 F900 X46.121 Y31.979 E154.6665
G1 X46.033 Y31.891
G0 F2625 X45.862 Y32.427
G1 F900 X65.024 Y51.589 E155.56918
G1 X65.112 Y51.677
G0 F2625 X64.317 Y51.589
G1 F900 X45.604 Y32.876 E156.45071
G1 X45.516 Y32.788
G0 F2625 X45.345 Y33.324
G1 F900 X63.609 Y51.589 E157.31111
G1 X63.697 Y51.677
G0 F2625 X62.903 Y51.589
G1 F900 X45.085 Y33.772 E158.15046
G1 X44.997 Y33.684
G0 F2625 X44.827 Y34.22
G1 F900 X62.196 Y51.589 E158.96868
G1 X62.284 Y51.677
G0 F2625 X61.49 Y51.59
G1 F900 X44.568 Y34.668 E159.76584
G1 X44.48 Y34.58
G0 F2625 X44.309 Y35.117
G1 F900 X60.782 Y51.59 E160.54185
G1 X60.87 Y51.678
