;Generated by Cura LulzBot Edition GCodeWriter Version: 2.6.66
;FLAVOR:RepRap
;TIME:1546
;Filament used: 0.685364m
;Layer height: 0.38
;Generated with Cura_SteamEngine 2.6.66
;This G-Code has been generated specifically for the LulzBot Mini with standard extruder
G26 ; clear potential 'probe fail' condition
G21 ; set units to Millimetres
M107 ; disable fans
G90 ; absolute positioning
M82 ; set extruder to absolute mode
G92 E0 ; set extruder position to 0
M140 S60 ; start bed heating up
G28 ; home all axes
G0 X0 Y187 Z156 F200 ; move away from endstops
M109 R140 ;
G1 E-30 F75 ; retract filament
M109 R140 ; wait for extruder to reach wiping temp
G1 X45 Y173 F11520 ; move above wiper pad
G1 Z0 F1200 ; push nozzle into wiper
G1 X42 Y173 Z-.5 F4000             ; wiping
G1 X52 Y171 Z-.5 F4000             ; wiping
G1 X42 Y173 Z0 F4000               ; wiping
G1 X52 Y171 F4000                  ; wiping
G1 X42 Y173 F4000                  ; wiping
G1 X52 Y171 F4000                  ; wiping
G1 X42 Y173 F4000                  ; wiping
G1 X52 Y171 F4000                  ; wiping
G1 X57 Y173 F4000                  ; wiping
G1 X77 Y171 F4000                  ; wiping
G1 X57 Y173 F4000                  ; wiping
G1 X77 Y171 F4000                  ; wiping
G1 X57 Y173 F4000                  ; wiping
G1 X87 Y171 F4000                  ; wiping
G1 X77 Y173 F4000                  ; wiping
G1 X97 Y171 F4000                  ; wiping
G1 X77 Y173 F4000                  ; wiping
G1 X97 Y171 F4000                  ; wiping
G1 X77 Y173 F4000                  ; wiping
G1 X97 Y171 F4000                  ; wiping
G1 X107 Y173 F4000                 ; wiping
G1 X97 Y171 F4000                  ; wiping
G1 X107 Y173 F4000                 ; wiping
G1 X97 Y171 F4000                  ; wiping
G1 X107 Y173 F4000                 ; wiping
G1 X112 Y171 Z-0.5 F1000           ; wiping
G1 Z10 ; raise extruder
G28 X0 Y0 ; home X and Y
G0 X0 Y187 F200 ; move away from endstops
M109 R140 ; wait for extruder to reach probe temp
M204 S300 ; set probing acceleration
G29 ; start auto-leveling sequence
M204 S2000 ; restore standard acceleration
G28 X0 Y0 ; re-home to account for build variance of earlier mini builds
G0 X0 Y187 F200 ; move away from endstops
G0 Y152 F4000 ; move in front of wiper pad
G4 S1 ; pause
M400 ; wait for moves to finish
M117 Heating... ; progress indicator message on LCD
M109 R205 ; wait for extruder to reach printing temp
M190 S60 ; wait for bed to reach printing temp
G1 Z2 E0 F75 ; prime tiny bit of filament into the nozzle
M117 Mini Printing... ; progress indicator message on LCD

M221 S100
;LAYER_COUNT:1
;LAYER:0
M107
G0 F2625 X42.433 Y17.141 Z0.425
;TYPE:WALL-INNER
G1 F900 X52.791 Y17.141 E0.34503
G1 X52.858 Y17.464 E0.35602
G1 X52.907 Y17.763 E0.36611
G1 X52.946 Y18.076 E0.37662
G1 X52.967 Y18.342 E0.3855
G1 X52.979 Y18.649 E0.39574
G1 X52.976 Y18.887 E0.40367
G1 X52.961 Y19.107 E0.41101
G1 X52.935 Y19.291 E0.4172
G1 X52.898 Y19.449 E0.42261
G1 X52.773 Y19.757 E0.43368
G1 X52.697 Y19.973 E0.44131
G1 X52.637 Y20.196 E0.449
G1 X52.601 Y20.429 E0.45685
G1 X52.591 Y20.671 E0.46492
G1 X52.611 Y20.91 E0.47291
G1 X52.657 Y21.146 E0.48092
G1 X52.729 Y21.379 E0.48904
G1 X52.824 Y21.615 E0.49752
G1 X53.052 Y22.067 E0.51438
G1 X53.183 Y22.293 E0.52308
G1 X53.452 Y22.802 E0.54226
G1 X53.685 Y23.356 E0.56228
G1 X53.884 Y23.975 E0.58394
G1 X54.07 Y24.737 E0.61006
G1 X54.217 Y25.558 E0.63785
G1 X54.35 Y26.567 E0.67175
G1 X54.461 Y27.744 E0.71113
G1 X54.55 Y29.085 E0.7559
G1 X54.619 Y30.63 E0.80741
G1 X54.671 Y32.387 E0.86596
G1 X54.707 Y34.374 E0.93216
G1 X54.776 Y41.842 E1.18093
G1 X54.801 Y42.988 E1.21912
G1 X54.835 Y43.893 E1.24928
G1 X54.883 Y44.594 E1.27269
G1 X54.951 Y45.136 E1.29089
G1 X55.061 Y45.584 E1.30625
G1 X55.268 Y45.996 E1.32161
G1 X55.64 Y46.306 E1.33774
G1 X56.033 Y46.407 E1.35126
G1 X56.34 Y46.417 E1.36149
G1 X56.793 Y46.375 E1.37664
G1 X57.265 Y46.251 E1.3929
G1 X57.731 Y46.058 E1.4097
G1 X58.195 Y45.802 E1.42735
G1 X58.659 Y45.489 E1.446
G1 X59.126 Y45.118 E1.46586
G1 X59.6 Y44.691 E1.48711
G1 X60.077 Y44.21 E1.50968
G1 X60.561 Y43.676 E1.53369
G1 X61.051 Y43.089 E1.55916
G1 X61.546 Y42.45 E1.58608
G1 X62.043 Y41.762 E1.61435
G1 X64.091 Y38.84 E1.73321
G1 X64.198 Y38.686 E1.73946
G1 X64.348 Y38.473 E1.74814
G1 X64.472 Y38.877 E1.75145
G1 X64.513 Y39.06 E1.75674
G1 X64.568 Y39.306 E1.76514
G1 X64.654 Y39.815 E1.78233
G1 X64.711 Y40.29 E1.79827
G1 X64.743 Y40.77 E1.81429
G1 X64.753 Y41.521 E1.83931
G1 X64.771 Y41.997 E1.85518
G1 X64.804 Y42.429 E1.86961
G1 X64.854 Y42.817 E1.88264
G1 X64.926 Y43.174 E1.89477
G1 X65.027 Y43.505 E1.9063
G1 X65.166 Y43.81 E1.91747
G1 X65.356 Y44.088 E1.92868
G1 X65.61 Y44.328 E1.94032
G1 X65.917 Y44.5 E1.95204
G1 X66.238 Y44.589 E1.96314
G1 X66.566 Y44.617 E1.97411
G1 X66.946 Y44.58 E1.98682
G1 X67.319 Y44.464 E1.99984
G1 X67.668 Y44.277 E2.01302
G1 X67.986 Y44.03 E2.02644
G1 X68.279 Y43.73 E2.04041
G1 X68.555 Y43.38 E2.05525
G1 X68.826 Y42.977 E2.07143
G1 X69.096 Y42.515 E2.08925
G1 X69.37 Y41.992 E2.10892
G1 X69.427 Y41.874 E2.11329
G1 X69.655 Y41.401 E2.13078
G1 X69.901 Y40.849 E2.15091
G1 X69.952 Y40.734 E2.1551
G1 X69.931 Y40.861
G1 X69.923 Y41.405 E2.1601
G1 X69.915 Y41.931 E2.17366
G1 X69.844 Y46.338 E2.32048
G1 X69.93 Y46.644 E2.33107
G1 X70.08 Y46.903 E2.34104
G1 X70.285 Y47.116 E2.35089
G1 X70.546 Y47.279 E2.36114
G1 X70.849 Y47.37 E2.37167
G1 X72.517 Y47.4 E2.42725
G1 X73.045 Y47.378 E2.44485
G1 X73.515 Y47.29 E2.46078
G1 X73.931 Y47.144 E2.47546
G1 X74.291 Y46.946 E2.48915
G1 X74.591 Y46.71 E2.50186
G1 X74.83 Y46.45 E2.51363
G1 X75.014 Y46.181 E2.52448
G1 X75.044 Y46.121 E2.52672
G1 X75.147 Y45.917 E2.53433
G1 X75.236 Y45.673 E2.54298
G1 X75.294 Y45.449 E2.55069
G1 X75.324 Y45.257 E2.55716
G1 X75.337 Y45.092 E2.56267
G1 X75.323 Y44.773 E2.57331
G1 X75.322 Y44.755 E2.57391
G1 X75.27 Y44.44 E2.58455
G1 X75.19 Y44.173 E2.59383
G1 X75.231 Y44.136 E2.59567
G1 X75.378 Y43.973 E2.60298
G1 X75.49 Y43.822 E2.60924
G1 X75.486 Y43.976
G1 X75.48 Y44.144
G1 X75.478 Y44.183
G1 X75.469 Y44.447
G1 X75.457 Y44.767
G1 X75.456 Y45.092
G1 X75.455 Y45.257
G1 X75.454 Y45.449
G1 X75.452 Y45.674
G1 X75.45 Y45.918 E2.61034
G1 X75.448 Y46.183 E2.61313
G1 X75.447 Y46.323 E2.61607
G1 X75.467 Y46.52 E2.62267
G1 X75.544 Y46.767 E2.63129
G1 X75.679 Y47 E2.64026
G1 X75.829 Y47.165 E2.64769
G1 X76.073 Y47.332 E2.65754
G1 X76.274 Y47.412 E2.66474
G1 X76.46 Y47.452 E2.67108
G1 X76.641 Y47.466 E2.67713
G1 X76.832 Y47.458 E2.68349
G1 X77.024 Y47.418 E2.69003
G1 X77.205 Y47.347 E2.6965
G1 X77.363 Y47.252 E2.70264
G1 X77.522 Y47.118 E2.70957
G1 X77.695 Y46.879 E2.7194
G1 X77.795 Y46.628 E2.7284
G1 X77.836 Y46.402 E2.73605
G1 X77.842 Y45.028 E2.78182
G1 X77.865 Y44.282 E2.80668
G1 X77.894 Y43.788 E2.82316
G1 X77.924 Y43.521 E2.83211
G1 X77.973 Y43.237 E2.84171
G1 X78.022 Y43.025 E2.84896
G1 X78.099 Y42.789 E2.85723
G1 X78.171 Y42.623 E2.86326
G1 X78.252 Y42.487 E2.86853
G1 X78.331 Y42.39 E2.8727
G1 X78.406 Y42.326 E2.87598
G1 X78.472 Y42.29 E2.87849
G1 X78.567 Y42.262 E2.88179
G1 X78.711 Y42.251 E2.8866
G1 X78.81 Y42.257 E2.8899
G1 X78.902 Y42.273 E2.89301
G1 X78.992 Y42.299 E2.89613
G1 X79.073 Y42.334 E2.89907
G1 X79.148 Y42.379 E2.90198
G1 X79.208 Y42.426 E2.90452
G1 X79.274 Y42.496 E2.90773
G1 X79.331 Y42.576 E2.911
G1 X79.396 Y42.699 E2.91563
G1 X79.449 Y42.844 E2.92078
G1 X79.496 Y43.026 E2.92704
G1 X79.529 Y43.255 E2.93474
G1 X79.562 Y43.72 E2.95027
G1 X79.579 Y44.217 E2.96684
G1 X79.572 Y45.205 E2.99975
G1 X79.547 Y46.41 E3.0399
G1 X79.579 Y46.633 E3.0474
G1 X79.667 Y46.889 E3.05642
G1 X79.831 Y47.138 E3.06635
G1 X79.989 Y47.286 E3.07356
G1 X80.151 Y47.39 E3.07997
G1 X80.332 Y47.468 E3.08654
G1 X80.53 Y47.516 E3.09332
G1 X80.724 Y47.53 E3.0998
G1 X80.919 Y47.522 E3.1063
G1 X81.109 Y47.482 E3.11277
G1 X81.32 Y47.404 E3.12027
G1 X81.604 Y47.201 E3.13189
G1 X81.626 Y47.169 E3.13319
G1 X81.639 Y47.151 E3.13393
G1 X81.655 Y47.129 E3.13483
G1 X81.671 Y47.15
G1 X81.705 Y47.196
G1 X81.941 Y47.388 E3.13941
G1 X82.206 Y47.506 E3.14908
G1 X82.403 Y47.55 E3.1558
G1 X82.646 Y47.56 E3.1639
G1 X82.863 Y47.524 E3.17123
G1 X83.059 Y47.454 E3.17816
G1 X83.237 Y47.352 E3.185
G1 X83.395 Y47.221 E3.19183
G1 X83.528 Y47.065 E3.19866
G1 X84.494 Y45.473 E3.26069
G1 X84.714 Y45.111 E3.2748
G1 X84.924 Y45.479 E3.28283
G1 X85.859 Y47.113 E3.34554
G1 X85.991 Y47.278 E3.35257
G1 X86.157 Y47.416 E3.35976
G1 X86.34 Y47.521 E3.36679
G1 X86.537 Y47.589 E3.37373
G1 X86.74 Y47.623 E3.38059
G1 X86.994 Y47.622 E3.38905
G1 X87.281 Y47.545 E3.39895
G1 X87.537 Y47.404 E3.40869
G1 X87.756 Y47.203 E3.41859
G1 X87.91 Y46.967 E3.42797
G1 X87.98 Y46.795 E3.43416
G1 X88.024 Y46.611 E3.44046
G1 X88.036 Y46.348 E3.44923
G1 X87.984 Y46.058 E3.45905
G1 X87.861 Y45.807 E3.46836
G1 X84.871 Y40.596 E3.66848
G1 X84.778 Y40.454 E3.67414
G1 X84.628 Y40.295 E3.68142
G1 X84.455 Y40.173 E3.68847
G1 X84.272 Y40.084 E3.69525
G1 X84.071 Y40.027 E3.70221
G1 X83.842 Y40.004 E3.70987
G1 X83.534 Y40.043 E3.72021
G1 X83.241 Y40.168 E3.73082
G1 X82.999 Y40.358 E3.74107
G1 X82.818 Y40.596 E3.75103
G1 X82.699 Y40.869 E3.76095
G1 X82.653 Y41.162 E3.77083
G1 X82.68 Y41.478 E3.7814
G1 X82.783 Y41.739 E3.79074
G1 X83.359 Y42.743 E3.8293
G1 X82.423 Y44.289 E3.8895
G1 X82.22 Y44.626 E3.90261
G1 X81.984 Y45.017 E3.91782
G1 X81.989 Y44.487 E3.92146
G1 X81.98 Y44.093 E3.93167
G1 X81.975 Y43.926 E3.93724
G1 X81.935 Y43.345 E3.95664
G1 X81.902 Y43.027 E3.96729
G1 X81.842 Y42.635 E3.9805
G1 X81.752 Y42.244 E3.99386
G1 X81.626 Y41.866 E4.00714
G1 X81.462 Y41.509 E4.02022
G1 X81.259 Y41.173 E4.0333
G1 X81.011 Y40.865 E4.04647
G1 X80.719 Y40.59 E4.05983
G1 X80.383 Y40.358 E4.07343
G1 X80.012 Y40.174 E4.08723
G1 X79.605 Y40.041 E4.10149
G1 X79.173 Y39.96 E4.11613
G1 X78.704 Y39.927 E4.13179
G1 X78.232 Y39.956 E4.14754
G1 X77.777 Y40.058 E4.16308
G1 X77.348 Y40.234 E4.17852
G1 X76.963 Y40.476 E4.19367
G1 X76.624 Y40.773 E4.20868
G1 X76.332 Y41.12 E4.22379
G1 X76.13 Y41.437 E4.23631
G1 X76.086 Y41.507 E4.23906
G1 X75.951 Y41.791 E4.24954
G1 X75.887 Y41.925 E4.25449
G1 X75.832 Y42.082 E4.26003
G1 X75.796 Y41.951
G1 X75.72 Y41.68
G1 X75.682 Y41.607 E4.26254
G1 X75.518 Y41.292 E4.27437
G1 X75.242 Y40.953 E4.28893
G1 X74.905 Y40.666 E4.30367
G1 X74.518 Y40.428 E4.31881
G1 X74.085 Y40.235 E4.3346
G1 X73.608 Y40.081 E4.3513
G1 X73.085 Y39.962 E4.36916
G1 X72.513 Y39.875 E4.38844
G1 X71.89 Y39.819 E4.40927
G1 X71.104 Y39.793 E4.43547
G1 X70.862 Y39.818 E4.44357
G1 X70.832 Y39.821 E4.44458
G1 X70.554 Y39.915 E4.45435
G1 X70.376 Y40.026 E4.46134
G1 X70.226 Y40.159 E4.46802
G1 X70.147 Y40.265 E4.47242
G1 X70.195 Y40.147
G1 X70.264 Y39.981
G1 X70.33 Y39.823
G1 X70.404 Y39.645 E4.47405
G1 X70.415 Y39.617 E4.47502
G1 X71.23 Y37.657 E4.54573
G1 X75.772 Y37.581 E4.69704
G1 X76.551 Y37.559 E4.723
G1 X77.24 Y37.527 E4.74598
G1 X77.856 Y37.483 E4.76655
G1 X78.421 Y37.423 E4.78548
G1 X78.95 Y37.342 E4.8033
G1 X79.458 Y37.239 E4.82057
G1 X79.956 Y37.108 E4.83772
G1 X80.46 Y36.95 E4.85532
G1 X80.988 Y36.763 E4.87397
G1 X81.552 Y36.545 E4.89412
G1 X82.961 Y35.982 E4.94466
G1 X83.694 Y35.725 E4.97053
G1 X84.338 Y35.538 E4.99287
G1 X84.917 Y35.413 E5.0126
G1 X85.453 Y35.347 E5.03059
G1 X85.975 Y35.336 E5.04798
G1 X86.485 Y35.38 E5.06503
G1 X87.009 Y35.481 E5.08281
G1 X87.558 Y35.64 E5.10185
G1 X88.176 Y35.87 E5.12381
G1 X88.855 Y36.168 E5.14851
G1 X89.916 Y36.689 E5.18789
G1 X90.585 Y36.997 E5.21242
G1 X91.273 Y37.284 E5.23725
G1 X91.944 Y37.541 E5.26119
G1 X92.561 Y37.749 E5.28288
G1 X92.852 Y37.836 E5.29299
G1 X93.121 Y37.907 E5.30226
G1 X93.537 Y37.993 E5.31641
G1 X93.956 Y38.098 E5.3308
G1 X94.393 Y38.227 E5.34598
G1 X94.868 Y38.389 E5.36269
G1 X95.307 Y38.555 E5.37833
G1 X95.725 Y38.736 E5.3935
G1 X96.593 Y39.141 E5.42541
G1 X97.261 Y39.385 E5.4491
G1 X97.898 Y39.537 E5.47091
G1 X98.516 Y39.586 E5.49156
G1 X99.114 Y39.513 E5.51163
G1 X99.675 Y39.301 E5.53161
G1 X100.167 Y38.955 E5.55164
G1 X100.574 Y38.499 E5.572
G1 X100.903 Y37.956 E5.59315
G1 X101.173 Y37.333 E5.61577
G1 X101.396 Y36.625 E5.64049
G1 X101.585 Y35.831 E5.66768
G1 X101.734 Y35.022 E5.69508
G1 X101.837 Y34.247 E5.72112
G1 X101.891 Y33.5 E5.74607
G1 X101.895 Y32.773 E5.77029
G1 X101.847 Y32.066 E5.79389
G1 X101.746 Y31.376 E5.81712
G1 X101.598 Y30.741 E5.83884
G1 X101.589 Y30.699 E5.84027
G1 X101.496 Y30.405 E5.85054
G1 X101.443 Y30.237 E5.85641
G1 X101.422 Y30.172 E5.85869
G1 X101.5 Y30.22
G1 X101.719 Y30.289
G1 X101.789 Y30.312
G1 X101.833 Y30.315 E5.86016
G1 X102.09 Y30.334 E5.86874
G1 X102.383 Y30.279 E5.87867
G1 X102.642 Y30.16 E5.88816
G1 X102.771 Y30.061 E5.89358
G1 X102.876 Y29.981 E5.89798
G1 X102.944 Y29.891 E5.90174
G1 X102.936 Y29.986
G1 X102.931 Y30.045
G1 X102.939 Y30.129
G1 X102.957 Y30.304
G1 X103.039 Y30.551 E5.91041
G1 X103.165 Y30.775 E5.91897
G1 X103.342 Y30.973 E5.92781
G1 X103.555 Y31.129 E5.93661
G1 X103.791 Y31.236 E5.94524
G1 X104.036 Y31.298 E5.95366
G1 X104.305 Y31.31 E5.96263
G1 X104.584 Y31.257 E5.97209
G1 X104.846 Y31.133 E5.98174
G1 X104.901 Y31.089 E5.98409
G1 X104.978 Y31.026 E5.9874
G1 X105.071 Y30.95 E5.9914
G1 X105.081 Y30.937 E5.99195
G1 X105.131 Y30.872 E5.99468
G1 X105.119 Y30.965
G1 X105.129 Y31.112
G1 X105.138 Y31.22 E5.9954
G1 X105.207 Y31.465 E6.0013
G1 X105.321 Y31.692 E6.00976
G1 X105.488 Y31.904 E6.01875
G1 X105.71 Y32.08 E6.02819
G1 X105.943 Y32.19 E6.03677
G1 X106.2 Y32.25 E6.04556
G1 X106.385 Y32.259 E6.05173
G1 X106.61 Y32.234 E6.05927
G1 X106.818 Y32.175 E6.06647
G1 X107.016 Y32.075 E6.07386
G1 X107.178 Y31.952 E6.08064
G1 X107.197 Y31.938 E6.08142
G1 X107.364 Y31.747 E6.08987
G1 X107.398 Y31.681 E6.09235
G1 X107.508 Y31.465 E6.10042
G1 X107.537 Y31.355 E6.10421
G1 X107.559 Y31.452
G1 X107.613 Y31.689
G1 X107.64 Y31.803
G1 X107.648 Y31.825 E6.10499
G1 X107.787 Y32.193 E6.11809
G1 X107.982 Y32.56 E6.13194
G1 X108.225 Y32.901 E6.14589
G1 X108.515 Y33.205 E6.15988
G1 X108.854 Y33.467 E6.17415
G1 X109.231 Y33.673 E6.18846
G1 X109.556 Y33.793 E6.2
G1 X109.75 Y33.843 E6.20668
G1 X110.067 Y33.892 E6.21736
G1 X110.265 Y33.903 E6.22397
G1 X110.646 Y33.884 E6.23667
G1 X110.937 Y33.83 E6.24653
G1 X111.188 Y33.758 E6.25523
G1 X111.212 Y33.752 E6.25605
G1 X111.479 Y33.646 E6.26562
G1 X111.604 Y33.582 E6.2703
G1 X111.696 Y33.535 E6.27374
G1 X111.644 Y33.658
G1 X111.629 Y33.798
G1 X111.609 Y33.975 E6.27414
G1 X111.612 Y33.999 E6.27495
G1 X111.657 Y34.279 E6.28439
G1 X111.774 Y34.55 E6.29422
G1 X111.954 Y34.796 E6.30438
G1 X112.201 Y34.992 E6.31488
G1 X112.481 Y35.121 E6.32515
G1 X112.776 Y35.178 E6.33516
G1 X113.077 Y35.163 E6.3452
G1 X113.358 Y35.073 E6.35503
G1 X113.598 Y34.926 E6.3644
G1 X113.7 Y34.825 E6.36918
G1 X113.781 Y34.746 E6.37295
G1 X113.769 Y34.894
G1 X113.77 Y34.908
G1 X113.783 Y35.028
G1 X113.796 Y35.15 E6.3751
G1 X113.876 Y35.397 E6.38375
G1 X114.005 Y35.622 E6.39239
G1 X114.179 Y35.818 E6.40112
G1 X114.392 Y35.975 E6.40993
G1 X114.628 Y36.082 E6.41856
G1 X114.872 Y36.144 E6.42695
G1 X115.141 Y36.157 E6.43592
G1 X115.423 Y36.104 E6.44548
G1 X115.69 Y35.977 E6.45532
G1 X115.735 Y35.94 E6.45727
G1 X115.817 Y35.871 E6.46084
G1 X115.912 Y35.793 E6.46493
G1 X115.92 Y35.782 E6.46538
G1 X115.97 Y35.718 E6.46809
G1 X115.96 Y35.8
G1 X115.958 Y35.811
G1 X115.968 Y35.956
G1 X115.977 Y36.062
G1 X116.042 Y36.306 E6.4738
G1 X116.161 Y36.543 E6.48264
G1 X116.331 Y36.752 E6.49161
G1 X116.559 Y36.935 E6.50135
G1 X116.861 Y37.061 E6.51225
G1 X117.154 Y37.108 E6.52213
G1 X117.395 Y37.088 E6.53019
G1 X117.348 Y37.194
G1 X117.317 Y37.263
G1 X117.034 Y37.899 E6.55338
G1 X116.985 Y38.22 E6.56419
G1 X117.017 Y38.532 E6.57464
G1 X117.123 Y38.831 E6.58521
G1 X117.306 Y39.1 E6.59604
G1 X117.57 Y39.325 E6.6076
G1 X117.913 Y39.471 E6.62002
G1 X118.217 Y39.508 E6.63022
G1 X118.47 Y39.481 E6.63869
G1 X118.699 Y39.411 E6.64667
G1 X118.911 Y39.3 E6.65464
G1 X119.094 Y39.153 E6.66246
G1 X119.251 Y38.973 E6.67042
G1 X119.353 Y38.791 E6.67737
G1 X121.065 Y34.967 E6.81693
G1 X121.141 Y34.714 E6.82573
G1 X121.145 Y34.7 E6.82621
G1 X121.155 Y34.376 E6.83701
G1 X121.124 Y34.244 E6.84153
G1 X121.236 Y34.178 E6.84586
G1 X121.35 Y34.081 E6.85084
G1 X121.364 Y34.105
G1 X121.429 Y34.218
G1 X121.566 Y34.455 E6.85304
