;Generated by Cura LulzBot Edition GCodeWriter Version: 2.6.66
;FLAVOR:RepRap
;TIME:1496
;Filament used: 0.670631m
;Layer height: 0.38
;Generated with Cura_SteamEngine 2.6.66
;This G-Code has been generated specifically for the LulzBot Mini with standard extruder
G26 ; clear potential 'probe fail' condition
G21 ; set units to Millimetres
M107 ; disable fans
G90 ; absolute positioning
M82 ; set extruder to absolute mode
G92 E0 ; set extruder position to 0
M140 S60 ; start bed heating up
G28 ; home all axes
G0 X0 Y187 Z156 F200 ; move away from endstops
M109 R140 ;
G1 E-30 F75 ; retract filament
M109 R140 ; wait for extruder to reach wiping temp
G1 X45 Y173 F11520 ; move above wiper pad
G1 Z0 F1200 ; push nozzle into wiper
G1 X42 Y173 Z-.5 F4000             ; wiping
G1 X52 Y171 Z-.5 F4000             ; wiping
G1 X42 Y173 Z0 F4000               ; wiping
G1 X52 Y171 F4000                  ; wiping
G1 X42 Y173 F4000                  ; wiping
G1 X52 Y171 F4000                  ; wiping
G1 X42 Y173 F4000                  ; wiping
G1 X52 Y171 F4000                  ; wiping
G1 X57 Y173 F4000                  ; wiping
G1 X77 Y171 F4000                  ; wiping
G1 X57 Y173 F4000                  ; wiping
G1 X77 Y171 F4000                  ; wiping
G1 X57 Y173 F4000                  ; wiping
G1 X87 Y171 F4000                  ; wiping
G1 X77 Y173 F4000                  ; wiping
G1 X97 Y171 F4000                  ; wiping
G1 X77 Y173 F4000                  ; wiping
G1 X97 Y171 F4000                  ; wiping
G1 X77 Y173 F4000                  ; wiping
G1 X97 Y171 F4000                  ; wiping
G1 X107 Y173 F4000                 ; wiping
G1 X97 Y171 F4000                  ; wiping
G1 X107 Y173 F4000                 ; wiping
G1 X97 Y171 F4000                  ; wiping
G1 X107 Y173 F4000                 ; wiping
G1 X112 Y171 Z-0.5 F1000           ; wiping
G1 Z10 ; raise extruder
G28 X0 Y0 ; home X and Y
G0 X0 Y187 F200 ; move away from endstops
M109 R140 ; wait for extruder to reach probe temp
M204 S300 ; set probing acceleration
G29 ; start auto-leveling sequence
M204 S2000 ; restore standard acceleration
G28 X0 Y0 ; re-home to account for build variance of earlier mini builds
G0 X0 Y187 F200 ; move away from endstops
G0 Y152 F4000 ; move in front of wiper pad
G4 S1 ; pause
M400 ; wait for moves to finish
M117 Heating... ; progress indicator message on LCD
M109 R205 ; wait for extruder to reach printing temp
M190 S60 ; wait for bed to reach printing temp
G1 Z2 E0 F75 ; prime tiny bit of filament into the nozzle
M117 Mini Printing... ; progress indicator message on LCD

M221 S100
;LAYER_COUNT:1
;LAYER:0
M107
G0 F2625 X39.191 Y14.776 Z0.425
;TYPE:SKIRT
G1 F900 X39.479 Y14.356 E0.01696
G1 X39.83 Y13.986 E0.03395
G1 X40.234 Y13.676 E0.05091
G1 X40.682 Y13.433 E0.06789
G1 X41.162 Y13.262 E0.08486
G1 X41.663 Y13.169 E0.10184
G1 X42.005 Y13.151 E0.11325
G1 X53.366 Y13.151 E0.49169
G1 X54.02 Y13.218 E0.51358
G1 X58.029 Y14.042 E0.64992
G1 X63.469 Y14.895 E0.83334
G1 X68.909 Y15.435 E1.01544
G1 X74.37 Y15.667 E1.19751
G1 X79.852 Y15.589 E1.38014
G1 X85.304 Y15.203 E1.5622
G1 X90.777 Y14.502 E1.746
G1 X93.401 Y14.053 E1.83467
G1 X97.399 Y13.226 E1.97067
G1 X98.055 Y13.159 E1.99263
G1 X111.992 Y13.151 E2.45688
G1 X112.5 Y13.191 E2.47385
G1 X112.996 Y13.309 E2.49084
G1 X113.467 Y13.504 E2.50782
G1 X113.901 Y13.769 E2.52476
G1 X114.289 Y14.1 E2.54174
G1 X114.621 Y14.487 E2.55873
G1 X114.808 Y14.776 E2.57019
G1 X149.804 Y75.374 E4.90117
G1 X150.024 Y75.833 E4.91812
G1 X150.169 Y76.322 E4.93511
G1 X150.235 Y76.827 E4.95208
G1 X150.222 Y77.336 E4.96904
G1 X150.13 Y77.837 E4.986
G1 X149.96 Y78.318 E5.003
G1 X149.804 Y78.624 E5.01444
G1 X114.809 Y139.224 E7.34545
G1 X114.521 Y139.644 E7.36242
G1 X114.17 Y140.014 E7.37941
G1 X113.766 Y140.324 E7.39637
G1 X113.318 Y140.567 E7.41334
G1 X112.838 Y140.738 E7.43032
G1 X112.337 Y140.831 E7.44729
G1 X111.995 Y140.849 E7.4587
G1 X42.006 Y140.849 E9.79006
G1 X41.498 Y140.809 E9.80703
G1 X41.003 Y140.69 E9.82399
G1 X40.532 Y140.495 E9.84097
G1 X40.097 Y140.229 E9.85796
G1 X39.71 Y139.899 E9.8749
G1 X39.378 Y139.512 E9.89188
G1 X39.192 Y139.224 E9.9033
G1 X4.199 Y78.624 E12.23428
G1 X3.979 Y78.164 E12.25127
G1 X3.834 Y77.676 E12.26823
G1 X3.768 Y77.171 E12.28519
G1 X3.781 Y76.661 E12.30218
G1 X3.873 Y76.16 E12.31915
G1 X4.043 Y75.68 E12.33611
G1 X4.199 Y75.374 E12.34755
G1 X39.191 Y14.776 E14.67846
G1 F600 E12.92846
G0 F2625 X41.203 Y16.442
G0 X42.442 Y17.158
G0 X42.482 Y17.227
G0 X42.433 Y17.141
;TYPE:WALL-INNER
G1 F600 E14.67846
G1 F900 X52.791 Y17.141 E15.02349
G1 X52.858 Y17.464 E15.03448
G1 X52.907 Y17.763 E15.04457
G1 X52.946 Y18.076 E15.05508
G1 X52.967 Y18.342 E15.06397
G1 X52.979 Y18.649 E15.0742
G1 X52.976 Y18.887 E15.08213
G1 X52.961 Y19.107 E15.08947
G1 X52.934 Y19.294 E15.09577
G1 X52.901 Y19.436 E15.10062
G1 X52.77 Y19.767 E15.11248
G1 X52.697 Y19.973 E15.11976
G1 X52.637 Y20.196 E15.12745
G1 X52.601 Y20.429 E15.13531
G1 X52.591 Y20.671 E15.14337
G1 X52.611 Y20.91 E15.15136
G1 X52.658 Y21.147 E15.15941
G1 X52.729 Y21.378 E15.16746
G1 X52.824 Y21.615 E15.17597
G1 X53.051 Y22.064 E15.19273
G1 X53.182 Y22.293 E15.20151
G1 X53.45 Y22.797 E15.22053
G1 X53.685 Y23.357 E15.24076
G1 X53.884 Y23.975 E15.26239
G1 X54.07 Y24.737 E15.28851
G1 X54.217 Y25.558 E15.3163
G1 X54.35 Y26.567 E15.3502
G1 X54.461 Y27.744 E15.38958
G1 X54.55 Y29.085 E15.43434
G1 X54.619 Y30.63 E15.48586
G1 X54.671 Y32.387 E15.54441
G1 X54.707 Y34.374 E15.61061
G1 X54.776 Y41.842 E15.85938
G1 X54.801 Y42.988 E15.89757
G1 X54.835 Y43.893 E15.92773
G1 X54.883 Y44.594 E15.95114
G1 X54.951 Y45.136 E15.96933
G1 X55.061 Y45.584 E15.9847
G1 X55.268 Y45.996 E16.00006
G1 X55.64 Y46.306 E16.01619
G1 X56.033 Y46.407 E16.02971
G1 X56.34 Y46.417 E16.03994
G1 X56.793 Y46.375 E16.05509
G1 X57.265 Y46.251 E16.07135
G1 X57.731 Y46.058 E16.08815
G1 X58.195 Y45.802 E16.1058
G1 X58.659 Y45.489 E16.12444
G1 X59.127 Y45.118 E16.14434
G1 X59.599 Y44.691 E16.16554
G1 X60.077 Y44.21 E16.18813
G1 X60.561 Y43.676 E16.21213
G1 X61.051 Y43.089 E16.23761
G1 X61.545 Y42.45 E16.26451
G1 X62.043 Y41.762 E16.2928
G1 X64.091 Y38.84 E16.41166
G1 X64.198 Y38.686 E16.41791
G1 X64.348 Y38.473 E16.42658
G1 X64.472 Y38.877 E16.42989
G1 X64.513 Y39.06 E16.43519
G1 X64.568 Y39.306 E16.44358
G1 X64.654 Y39.815 E16.46078
G1 X64.711 Y40.289 E16.47668
G1 X64.742 Y40.769 E16.49271
G1 X64.753 Y41.522 E16.51779
G1 X64.771 Y41.997 E16.53362
G1 X64.804 Y42.429 E16.54806
G1 X64.854 Y42.817 E16.56109
G1 X64.926 Y43.174 E16.57322
G1 X65.027 Y43.505 E16.58475
G1 X65.166 Y43.81 E16.59591
G1 X65.356 Y44.088 E16.60713
G1 X65.61 Y44.328 E16.61877
G1 X65.917 Y44.5 E16.63049
G1 X66.238 Y44.589 E16.64159
G1 X66.566 Y44.617 E16.65255
G1 X66.946 Y44.58 E16.66527
G1 X67.319 Y44.464 E16.67828
G1 X67.668 Y44.277 E16.69147
G1 X67.986 Y44.03 E16.70488
G1 X68.279 Y43.73 E16.71885
G1 X68.555 Y43.38 E16.7337
G1 X68.826 Y42.977 E16.74988
G1 X69.096 Y42.515 E16.7677
G1 X69.37 Y41.992 E16.78737
G1 X69.655 Y41.401 E16.80922
G1 X69.952 Y40.735 E16.83351
G1 X71.23 Y37.657 E16.94453
G1 X75.772 Y37.581 E17.09585
G1 X76.551 Y37.559 E17.12181
G1 X77.24 Y37.527 E17.14478
G1 X77.856 Y37.483 E17.16535
G1 X78.421 Y37.423 E17.18428
G1 X78.95 Y37.342 E17.20211
G1 X79.458 Y37.238 E17.21938
G1 X79.956 Y37.108 E17.23652
G1 X80.46 Y36.95 E17.25412
G1 X80.988 Y36.763 E17.27278
G1 X81.552 Y36.545 E17.29292
G1 X82.962 Y35.982 E17.34349
G1 X83.703 Y35.721 E17.36966
G1 X84.333 Y35.539 E17.3915
G1 X84.917 Y35.413 E17.4114
G1 X85.453 Y35.347 E17.42939
G1 X85.975 Y35.336 E17.44679
G1 X86.485 Y35.38 E17.46384
G1 X87.009 Y35.481 E17.48161
G1 X87.558 Y35.64 E17.50065
G1 X88.176 Y35.87 E17.52262
G1 X88.855 Y36.168 E17.54732
G1 X89.916 Y36.689 E17.58669
G1 X90.585 Y36.997 E17.61122
G1 X91.273 Y37.284 E17.63605
G1 X91.943 Y37.541 E17.65996
G1 X92.561 Y37.75 E17.68169
G1 X92.852 Y37.836 E17.6918
G1 X93.121 Y37.907 E17.70106
G1 X93.537 Y37.993 E17.71521
G1 X93.956 Y38.098 E17.7296
G1 X94.393 Y38.227 E17.74478
G1 X94.868 Y38.389 E17.7615
G1 X95.307 Y38.555 E17.77713
G1 X95.725 Y38.736 E17.79231
G1 X96.593 Y39.141 E17.82421
G1 X97.261 Y39.385 E17.8479
G1 X97.898 Y39.537 E17.86971
G1 X98.516 Y39.586 E17.89037
G1 X99.115 Y39.513 E17.91047
G1 X99.675 Y39.3 E17.93042
G1 X100.166 Y38.955 E17.95041
G1 X100.573 Y38.499 E17.97077
G1 X100.903 Y37.956 E17.99194
G1 X101.173 Y37.333 E18.01456
G1 X101.396 Y36.625 E18.03928
G1 X101.585 Y35.831 E18.06647
G1 X101.734 Y35.022 E18.09387
G1 X101.837 Y34.247 E18.11991
G1 X101.891 Y33.499 E18.14489
G1 X101.894 Y32.773 E18.16908
G1 X101.847 Y32.066 E18.19268
G1 X101.746 Y31.376 E18.21591
G1 X101.589 Y30.699 E18.23906
G1 X101.378 Y30.034 E18.2623
G1 X101.113 Y29.378 E18.28587
G1 X100.795 Y28.727 E18.31
G1 X100.42 Y28.078 E18.33497
G1 X99.645 Y26.906 E18.38177
G1 X99.358 Y26.45 E18.39972
G1 X99.215 Y26.192 E18.40954
G1 X99.176 Y26.122 E18.41221
G1 X99.14 Y26.04 E18.4152
G1 X99.1 Y25.947 E18.41857
G1 X99.091 Y25.928 E18.41927
G1 X99.137 Y25.92
G1 X99.181 Y25.911 E18.41998
G1 X99.499 Y25.884 E18.42403
G1 X99.58 Y25.882 E18.42673
G1 X99.98 Y25.872 E18.44006
G1 X100.708 Y25.819 E18.46437
G1 X101.397 Y25.659 E18.48793
G1 X102.013 Y25.383 E18.51042
G1 X102.534 Y24.985 E18.53226
G1 X102.937 Y24.476 E18.55388
G1 X103.199 Y23.88 E18.57557
G1 X103.322 Y23.23 E18.59761
G1 X103.319 Y22.541 E18.62056
G1 X103.2 Y21.82 E18.6449
G1 X102.975 Y21.067 E18.67108
G1 X102.647 Y20.28 E18.69948
G1 X102.22 Y19.465 E18.73013
G1 X101.976 Y19.053 E18.74608
G1 X101.737 Y18.674 E18.761
G1 X101.493 Y18.318 E18.77538
G1 X101.238 Y17.981 E18.78946
G1 X100.971 Y17.664 E18.80326
G1 X100.907 Y17.596 E18.80637
G1 X100.686 Y17.361 E18.81712
G1 X100.453 Y17.141 E18.82779
G1 X100.686 Y17.141
G1 X101.009 Y17.141 E18.83579
G1 X111.567 Y17.141 E19.18748
G1 X146.135 Y77 E21.49001
G1 X111.567 Y136.859 E23.79253
G1 X42.433 Y136.859 E26.09541
G1 X7.865 Y77 E28.39794
G1 X42.433 Y17.141 E30.70046
G0 F2625 X42.482 Y17.227
G0 X40.479 Y50.411
G0 X40.473 Y50.51
G1 F900 X39.913 Y50.489 E30.71913
G1 X39.655 Y50.493 E30.72773
G1 X39.409 Y50.515 E30.73595
G1 X39.16 Y50.573 E30.74447
G1 X38.883 Y50.708 E30.75473
G1 X38.655 Y50.887 E30.76439
G1 X38.466 Y51.097 E30.7738
G1 X38.32 Y51.339 E30.78322
G1 X38.222 Y51.582 E30.79194
G1 X38.177 Y51.753 E30.79783
G1 X38.15 Y51.987 E30.80568
G1 X38.12 Y52.8 E30.83278
G1 X38.067 Y55.438 E30.92067
G1 X38.016 Y58.829 E31.03364
G1 X39.024 Y59.836 E31.0811
G1 X41.816 Y59.786 E31.17412
G1 X42.228 Y59.764 E31.18786
G1 X42.56 Y59.724 E31.199
G1 X42.853 Y59.648 E31.20908
G1 X43.102 Y59.538 E31.21815
G1 X43.372 Y59.39 E31.22841
G1 X43.664 Y59.189 E31.24021
G1 X43.936 Y58.957 E31.25212
G1 X44.185 Y58.7 E31.26404
G1 X44.403 Y58.42 E31.27586
G1 X44.414 Y58.403 E31.27654
G1 X44.521 Y58.229 E31.28334
G1 X44.58 Y58.133 E31.28709
G1 X44.666 Y57.955 E31.29368
G1 X44.695 Y57.875 E31.29651
G1 X44.695 Y57.954
G1 X44.697 Y58.132
G1 X44.699 Y58.338
G1 X44.704 Y58.389
G1 X44.724 Y58.593 E31.29762
G1 X44.769 Y58.784 E31.30415
G1 X44.829 Y58.957 E31.31025
G1 X44.909 Y59.125 E31.31645
G1 X45.01 Y59.284 E31.32273
G1 X45.131 Y59.429 E31.32902
G1 X45.272 Y59.56 E31.33543
G1 X45.428 Y59.668 E31.34175
G1 X45.592 Y59.755 E31.34793
G1 X45.768 Y59.821 E31.35419
G1 X45.946 Y59.865 E31.3603
G1 X46.135 Y59.892 E31.36666
G1 X46.4 Y59.897 E31.37549
G1 X46.602 Y59.884 E31.38223
G1 X46.817 Y59.844 E31.38952
G1 X47.048 Y59.753 E31.39779
G1 X47.246 Y59.615 E31.40583
G1 X47.397 Y59.465 E31.41292
G1 X47.589 Y59.224 E31.42318
G1 X47.676 Y59.057 E31.42945
G1 X47.732 Y58.902 E31.43494
G1 X47.772 Y58.735 E31.44066
G1 X47.811 Y58.419 E31.45127
G1 X47.837 Y57.991 E31.46555
G1 X47.887 Y56.495 E31.51541
G1 X47.937 Y55.634 E31.54414
G1 X47.971 Y55.274 E31.55618
G1 X48.011 Y54.965 E31.56656
G1 X48.056 Y54.705 E31.57535
G1 X48.107 Y54.479 E31.58307
G1 X48.164 Y54.289 E31.58968
G1 X48.211 Y54.171 E31.59391
G1 X48.271 Y54.053 E31.59832
G1 X48.33 Y53.962 E31.60193
G1 X48.386 Y53.893 E31.60489
G1 X48.47 Y53.817 E31.60866
G1 X48.545 Y53.77 E31.61161
G1 X48.619 Y53.741 E31.61426
G1 X48.709 Y53.725 E31.6173
G1 X48.811 Y53.724 E31.6207
G1 X48.908 Y53.739 E31.62397
G1 X49.003 Y53.77 E31.6273
G1 X49.115 Y53.827 E31.63149
G1 X49.214 Y53.898 E31.63555
G1 X49.296 Y53.979 E31.63938
G1 X49.379 Y54.092 E31.64405
G1 X49.442 Y54.217 E31.64872
G1 X49.491 Y54.355 E31.6536
G1 X49.538 Y54.573 E31.66102
G1 X49.571 Y54.878 E31.67124
G1 X49.596 Y55.348 E31.68692
G1 X49.613 Y56.023 E31.70941
G1 X49.635 Y59.195 E31.81508
G1 X50.205 Y59.678 E31.83996
G1 X50.39 Y59.79 E31.84717
G1 X50.577 Y59.87 E31.85394
G1 X50.765 Y59.927 E31.86049
G1 X50.957 Y59.964 E31.867
G1 X51.157 Y59.981 E31.87368
G1 X51.419 Y59.973 E31.88242
G1 X51.664 Y59.928 E31.89071
G1 X51.905 Y59.843 E31.89923
G1 X52.133 Y59.71 E31.90802
G1 X52.265 Y59.598 E31.91378
G1 X52.42 Y59.74 E31.92079
G1 X52.654 Y59.888 E31.93001
G1 X52.912 Y59.99 E31.93925
G1 X53.19 Y60.043 E31.94868
G1 X53.475 Y60.042 E31.95817
G1 X53.763 Y59.984 E31.96796
G1 X54.039 Y59.865 E31.97797
G1 X54.306 Y59.681 E31.98877
G1 X54.483 Y59.48 E31.99769
G1 X54.662 Y59.237 E32.00775
G1 X55.097 Y58.586 E32.03383
G1 X55.684 Y57.64 E32.07091
G1 X55.903 Y57.288 E32.08472
G1 X56.112 Y57.646 E32.09261
G1 X56.769 Y58.772 E32.13603
G1 X57.124 Y59.345 E32.15849
G1 X57.264 Y59.55 E32.16676
G1 X57.407 Y59.711 E32.17393
G1 X57.58 Y59.85 E32.18132
G1 X57.763 Y59.959 E32.18842
G1 X57.954 Y60.036 E32.19528
G1 X58.146 Y60.084 E32.20187
G1 X58.356 Y60.109 E32.20891
G1 X58.661 Y60.09 E32.21909
G1 X58.9 Y60.032 E32.22729
G1 X59.11 Y59.947 E32.23483
G1 X59.306 Y59.836 E32.24234
G1 X59.487 Y59.699 E32.2499
G1 X59.647 Y59.537 E32.25748
G1 X59.789 Y59.347 E32.26538
G1 X59.903 Y59.126 E32.27367
G1 X59.979 Y58.886 E32.28205
G1 X60.013 Y58.626 E32.29079
G1 X59.998 Y58.359 E32.29969
G1 X59.931 Y58.085 E32.30909
G1 X59.78 Y57.764 E32.32091
G1 X59.537 Y57.311 E32.33803
G1 X58.814 Y56.022 E32.38726
G1 X57.906 Y54.451 E32.4477
G1 X56.997 Y52.912 E32.50724
G1 X56.274 Y51.728 E32.55345
G1 X56.024 Y51.341 E32.5688
G1 X55.781 Y51.028 E32.582
G1 X55.429 Y50.872 E32.59482
G1 X55.213 Y50.801 E32.6024
G1 X54.973 Y50.76 E32.61051
G1 X54.722 Y50.764 E32.61887
G1 X54.482 Y50.813 E32.62703
G1 X54.262 Y50.895 E32.63485
G1 X54.011 Y51.029 E32.64433
G1 X53.779 Y51.214 E32.65421
G1 X53.585 Y51.438 E32.66408
G1 X53.437 Y51.699 E32.67408
G1 X53.343 Y51.991 E32.6843
G1 X53.31 Y52.315 E32.69514
G1 X53.347 Y52.557 E32.7033
G1 X53.412 Y52.768 E32.71065
G1 X53.498 Y52.984 E32.7184
G1 X53.71 Y53.424 E32.73467
G1 X54.097 Y54.14 E32.76178
G1 X53.939 Y54.421 E32.77252
G1 X53.419 Y55.303 E32.80662
G1 X53.208 Y55.656 E32.82032
G1 X53 Y56.006 E32.83388
G1 X52.776 Y56.382 E32.84846
G1 X52.774 Y55.872 E32.85167
G1 X52.762 Y55.464 E32.86217
G1 X52.753 Y55.158 E32.87236
G1 X52.711 Y54.564 E32.8922
G1 X52.641 Y54.059 E32.90918
G1 X52.588 Y53.805 E32.91783
G1 X52.465 Y53.366 E32.93301
G1 X52.286 Y52.899 E32.94967
G1 X52.165 Y52.643 E32.9591
G1 X52.033 Y52.406 E32.96814
G1 X51.887 Y52.181 E32.97707
G1 X51.726 Y51.97 E32.98592
G1 X51.552 Y51.772 E32.9947
G1 X51.36 Y51.589 E33.00353
G1 X51.156 Y51.422 E33.01231
G1 X50.94 Y51.272 E33.02107
G1 X50.709 Y51.138 E33.02997
G1 X50.472 Y51.021 E33.03877
G1 X50.22 Y50.917 E33.04785
G1 X50.029 Y50.853 E33.05456
G1 X49.65 Y50.765 E33.06752
G1 X49.238 Y50.704 E33.0814
G1 X48.822 Y50.672 E33.0953
G1 X48.415 Y50.668 E33.10885
G1 X48.044 Y50.7 E33.12126
G1 X47.843 Y50.738 E33.12807
G1 X47.495 Y50.846 E33.14021
G1 X47.166 Y50.988 E33.15214
G1 X46.854 Y51.164 E33.16408
G1 X46.561 Y51.37 E33.17601
G1 X46.287 Y51.606 E33.18805
G1 X46.036 Y51.87 E33.20019
G1 X45.807 Y52.156 E33.21239
G1 X45.619 Y52.438 E33.22368
G1 X45.598 Y52.469 E33.22493
G1 X45.474 Y52.694 E33.23349
G1 X45.413 Y52.803 E33.23765
G1 X45.378 Y52.879 E33.24043
G1 X45.339 Y52.963 E33.24352
G1 X45.302 Y52.845
G1 X45.212 Y52.648
G1 X45.15 Y52.515 E33.24389
G1 X45.13 Y52.484 E33.24511
G1 X44.951 Y52.207 E33.2561
G1 X44.711 Y51.929 E33.26833
G1 X44.436 Y51.682 E33.28065
G1 X44.129 Y51.462 E33.29323
G1 X43.793 Y51.27 E33.30612
G1 X43.429 Y51.101 E33.31949
G1 X43.036 Y50.955 E33.33345
G1 X42.615 Y50.828 E33.3481
G1 X42.34 Y50.761 E33.35753
