;Generated by Cura LulzBot Edition GCodeWriter Version: 2.6.66
;FLAVOR:RepRap
;TIME:1555
;Filament used: 0.75317m
;Layer height: 0.38
;Generated with Cura_SteamEngine 2.6.66
;This G-Code has been generated specifically for the LulzBot Mini with standard extruder
G26 ; clear potential 'probe fail' condition
G21 ; set units to Millimetres
M107 ; disable fans
G90 ; absolute positioning
M82 ; set extruder to absolute mode
G92 E0 ; set extruder position to 0
M140 S60 ; start bed heating up
G28 ; home all axes
G0 X0 Y187 Z156 F200 ; move away from endstops
M109 R140 ;
G1 E-30 F75 ; retract filament
M109 R140 ; wait for extruder to reach wiping temp
G1 X45 Y173 F11520 ; move above wiper pad
G1 Z0 F1200 ; push nozzle into wiper
G1 X42 Y173 Z-.5 F4000             ; wiping
G1 X52 Y171 Z-.5 F4000             ; wiping
G1 X42 Y173 Z0 F4000               ; wiping
G1 X52 Y171 F4000                  ; wiping
G1 X42 Y173 F4000                  ; wiping
G1 X52 Y171 F4000                  ; wiping
G1 X42 Y173 F4000                  ; wiping
G1 X52 Y171 F4000                  ; wiping
G1 X57 Y173 F4000                  ; wiping
G1 X77 Y171 F4000                  ; wiping
G1 X57 Y173 F4000                  ; wiping
G1 X77 Y171 F4000                  ; wiping
G1 X57 Y173 F4000                  ; wiping
G1 X87 Y171 F4000                  ; wiping
G1 X77 Y173 F4000                  ; wiping
G1 X97 Y171 F4000                  ; wiping
G1 X77 Y173 F4000                  ; wiping
G1 X97 Y171 F4000                  ; wiping
G1 X77 Y173 F4000                  ; wiping
G1 X97 Y171 F4000                  ; wiping
G1 X107 Y173 F4000                 ; wiping
G1 X97 Y171 F4000                  ; wiping
G1 X107 Y173 F4000                 ; wiping
G1 X97 Y171 F4000                  ; wiping
G1 X107 Y173 F4000                 ; wiping
G1 X112 Y171 Z-0.5 F1000           ; wiping
G1 Z10 ; raise extruder
G28 X0 Y0 ; home X and Y
G0 X0 Y187 F200 ; move away from endstops
M109 R140 ; wait for extruder to reach probe temp
M204 S300 ; set probing acceleration
G29 ; start auto-leveling sequence
M204 S2000 ; restore standard acceleration
G28 X0 Y0 ; re-home to account for build variance of earlier mini builds
G0 X0 Y187 F200 ; move away from endstops
G0 Y152 F4000 ; move in front of wiper pad
G4 S1 ; pause
M400 ; wait for moves to finish
M117 Heating... ; progress indicator message on LCD
M109 R205 ; wait for extruder to reach printing temp
M190 S60 ; wait for bed to reach printing temp
G1 Z2 E0 F75 ; prime tiny bit of filament into the nozzle
M117 Mini Printing... ; progress indicator message on LCD

M221 S100
;LAYER_COUNT:1
;LAYER:0
M107
G0 F2625 X42.433 Y13.141 Z0.425
;TYPE:WALL-INNER
G1 F900 X111.567 Y13.141 E2.30288
G1 X146.135 Y73 E4.6054
G1 X111.567 Y132.859 E6.90793
G1 X42.433 Y132.859 E9.21081
G1 X7.865 Y73 E11.51333
G1 X42.433 Y13.141 E13.81586
G0 F2625 X42.482 Y13.227
G0 X52.41 Y39.915
G0 X52.445 Y40.008
G1 F900 X51.565 Y40.381 E13.8477
G1 X50.215 Y40.998 E13.89714
G1 X49.714 Y41.238 E13.91565
G1 X49.113 Y41.507 E13.93758
G1 X48.454 Y41.785 E13.9614
G1 X47.616 Y42.126 E13.99154
G1 X47.167 Y42.345 E14.00818
G1 X46.954 Y42.469 E14.01639
G1 X46.761 Y42.601 E14.02418
G1 X46.584 Y42.743 E14.03174
G1 X46.421 Y42.898 E14.03923
G1 X46.273 Y43.064 E14.04664
G1 X46.134 Y43.247 E14.05429
G1 X45.856 Y43.688 E14.07166
G1 X45.789 Y43.777 E14.07537
G1 X45.576 Y44.006 E14.08579
G1 X45.486 Y44.086 E14.0898
G1 X45.089 Y44.391 E14.10647
G1 X44.938 Y44.532 E14.11336
G1 X44.803 Y44.677 E14.11996
G1 X44.68 Y44.837 E14.12668
G1 X44.57 Y45.008 E14.13345
G1 X44.474 Y45.19 E14.14031
G1 X44.392 Y45.377 E14.14711
G1 X44.317 Y45.582 E14.15438
G1 X44.196 Y45.998 E14.16881
G1 X44.068 Y46.517 E14.18662
G1 X43.983 Y46.811 E14.19681
G1 X43.919 Y46.991 E14.20317
G1 X43.852 Y47.134 E14.20843
G1 X43.685 Y47.539 E14.22303
G1 X43.285 Y48.615 E14.26127
G1 X43.099 Y49.153 E14.28023
G1 X42.958 Y49.592 E14.29559
G1 X42.89 Y49.859 E14.30476
G1 X42.864 Y50.083 E14.31228
G1 X42.856 Y50.313 E14.31994
G1 X42.87 Y50.765 E14.335
G1 X42.949 Y51.422 E14.35705
G1 X42.95 Y51.533 E14.36074
G1 X42.94 Y51.601 E14.36303
G1 X42.905 Y51.714 E14.36697
G1 X42.824 Y51.915 E14.37419
G1 X42.638 Y52.336 E14.38952
G1 X42.496 Y52.731 E14.40351
G1 X42.439 Y52.931 E14.41043
G1 X42.396 Y53.155 E14.41803
G1 X42.406 Y53.447 E14.42776
G1 X42.461 Y53.675 E14.43558
G1 X42.55 Y53.873 E14.44281
G1 X42.659 Y54.042 E14.44951
G1 X42.791 Y54.192 E14.45616
G1 X42.944 Y54.323 E14.46287
G1 X43.106 Y54.428 E14.4693
G1 X43.274 Y54.513 E14.47557
G1 X43.451 Y54.581 E14.48189
G1 X43.628 Y54.63 E14.48801
G1 X43.763 Y54.657 E14.49259
G1 X43.765 Y54.834 E14.49849
G1 X43.784 Y55.036 E14.50525
G1 X43.818 Y55.237 E14.51204
G1 X43.87 Y55.427 E14.5186
G1 X43.938 Y55.615 E14.52526
G1 X44.032 Y55.803 E14.53226
G1 X44.145 Y55.971 E14.53901
G1 X44.276 Y56.129 E14.54584
G1 X44.427 Y56.268 E14.55268
G1 X44.496 Y56.319 E14.55554
G1 X44.512 Y56.331 E14.5562
G1 X44.286 Y56.602 E14.56044
G1 X44.173 Y56.773 E14.56726
G1 X44.078 Y56.959 E14.57422
G1 X43.999 Y57.207 E14.58289
G1 X43.999 Y57.515 E14.59315
G1 X44.084 Y57.767 E14.60201
G1 X44.178 Y57.967 E14.60937
G1 X44.397 Y58.335 E14.62364
G1 X44.772 Y58.864 E14.64524
G1 X44.851 Y59.01 E14.65076
G1 X44.891 Y59.149 E14.65558
G1 X44.902 Y59.321 E14.66132
G1 X44.897 Y59.461 E14.66599
G1 X44.856 Y59.818 E14.67796
G1 X44.794 Y60.202 E14.69092
G1 X44.767 Y60.447 E14.69913
G1 X44.767 Y60.71 E14.70789
G1 X44.824 Y60.994 E14.71754
G1 X44.947 Y61.25 E14.727
G1 X45.096 Y61.45 E14.73531
G1 X45.266 Y61.629 E14.74353
G1 X45.467 Y61.803 E14.75238
G1 X45.706 Y61.942 E14.76159
G1 X45.873 Y62.011 E14.76761
G1 X46.148 Y62.091 E14.77715
G1 X46.47 Y62.157 E14.7881
G1 X46.944 Y62.241 E14.80414
G1 X47.073 Y62.286 E14.80869
G1 X47.108 Y62.305 E14.81001
G1 X47.116 Y62.485 E14.81602
G1 X47.204 Y62.742 E14.82506
G1 X47.315 Y62.945 E14.83277
G1 X47.443 Y63.129 E14.84024
G1 X47.587 Y63.302 E14.84774
G1 X47.849 Y63.583 E14.86053
G1 X48.145 Y63.928 E14.87568
G1 X48.227 Y64.041 E14.88033
G1 X48.293 Y64.148 E14.88451
G1 X48.333 Y64.229 E14.88752
G1 X48.357 Y64.298 E14.88996
G1 X48.384 Y64.41 E14.89379
G1 X48.404 Y64.534 E14.89798
G1 X48.415 Y64.676 E14.90272
G1 X48.428 Y65.6 E14.9335
G1 X48.444 Y65.952 E14.94524
G1 X48.491 Y66.259 E14.95559
G1 X48.548 Y66.439 E14.96188
G1 X48.625 Y66.605 E14.96797
G1 X48.738 Y66.772 E14.97469
G1 X48.929 Y66.963 E14.98369
G1 X49.116 Y67.111 E14.99163
G1 X49.383 Y67.275 E15.00207
G1 X49.559 Y67.352 E15.00847
G1 X49.736 Y67.407 E15.01464
G1 X49.93 Y67.44 E15.0212
G1 X50.151 Y67.446 E15.02856
G1 X50.391 Y67.412 E15.03663
G1 X50.616 Y67.349 E15.04442
G1 X50.831 Y67.262 E15.05214
G1 X51.04 Y67.157 E15.05993
G1 X51.256 Y67.034 E15.06821
G1 X51.664 Y66.773 E15.08435
G1 X51.945 Y66.575 E15.0958
G1 X52.2 Y66.378 E15.10653
G1 X52.435 Y66.175 E15.11688
G1 X52.65 Y65.964 E15.12691
G1 X52.844 Y65.744 E15.13668
G1 X53.017 Y65.512 E15.14632
G1 X53.168 Y65.268 E15.15588
G1 X53.294 Y65.014 E15.16532
G1 X53.396 Y64.751 E15.17472
G1 X53.475 Y64.486 E15.18393
G1 X53.572 Y64.064 E15.19835
G1 X53.648 Y63.838 E15.2063
G1 X53.726 Y63.677 E15.21226
G1 X53.85 Y63.481 E15.21998
G1 X54.099 Y63.036 E15.23697
G1 X54.342 Y62.546 E15.25519
G1 X54.565 Y62.046 E15.27342
G1 X54.753 Y61.566 E15.2906
G1 X54.892 Y61.132 E15.30578
G1 X54.949 Y60.865 E15.31487
G1 X54.987 Y60.728 E15.31961
G1 X55.018 Y60.654 E15.32228
G1 X55.067 Y60.567 E15.3256
G1 X55.128 Y60.484 E15.32904
G1 X55.238 Y60.363 E15.33448
G1 X55.423 Y60.182 E15.3431
G1 X55.555 Y60.03 E15.34981
G1 X55.672 Y59.871 E15.35639
G1 X55.775 Y59.691 E15.36329
G1 X55.857 Y59.482 E15.37077
G1 X55.902 Y59.251 E15.37861
G1 X55.902 Y59.011 E15.38661
G1 X55.856 Y58.785 E15.39429
G1 X55.781 Y58.583 E15.40147
G1 X55.682 Y58.403 E15.40831
G1 X55.571 Y58.243 E15.4148
G1 X55.503 Y58.159 E15.4184
G1 X55.484 Y58.044 E15.42228
G1 X55.475 Y57.931 E15.42605
G1 X55.478 Y57.603 E15.43698
G1 X55.513 Y57.23 E15.44946
G1 X55.577 Y56.838 E15.46269
G1 X55.657 Y56.497 E15.47436
G1 X55.706 Y56.331 E15.48012
G1 X55.763 Y56.191 E15.48516
G1 X55.816 Y56.093 E15.48887
G1 X55.875 Y56.011 E15.49223
G1 X55.966 Y55.911 E15.49674
G1 X56.123 Y55.764 E15.5039
G1 X56.312 Y55.567 E15.513
G1 X56.475 Y55.343 E15.52222
G1 X56.555 Y55.186 E15.52809
G1 X56.618 Y55.02 E15.53401
G1 X56.673 Y54.751 E15.54315
G1 X56.692 Y54.485 E15.55204
G1 X56.701 Y54.208 E15.56127
G1 X56.713 Y54.119 E15.56426
G1 X56.778 Y53.818 E15.57452
G1 X56.865 Y53.552 E15.58384
G1 X56.998 Y53.252 E15.59477
G1 X57.132 Y53.021 E15.60367
G1 X57.189 Y52.942 E15.60691
G1 X57.333 Y52.77 E15.61438
G1 X57.448 Y52.597 E15.6213
G1 X57.546 Y52.407 E15.62842
G1 X57.628 Y52.207 E15.63563
G1 X57.692 Y52.003 E15.64275
G1 X57.741 Y51.8 E15.6497
G1 X57.787 Y51.532 E15.65876
G1 X57.807 Y51.511 E15.65973
G1 X58.185 Y51.252 E15.67499
G1 X58.438 Y51.051 E15.68575
G1 X58.57 Y50.916 E15.69204
G1 X58.706 Y50.729 E15.69975
G1 X58.727 Y50.665 E15.70199
G1 X58.929 Y50.422 E15.71251
G1 X59.206 Y50.121 E15.72614
G1 X59.39 Y49.887 E15.73606
G1 X59.563 Y49.644 E15.74599
G1 X59.727 Y49.39 E15.75606
G1 X59.878 Y49.132 E15.76602
G1 X60.018 Y48.871 E15.77589
G1 X60.142 Y48.613 E15.78542
G1 X60.249 Y48.359 E15.7946
G1 X60.338 Y48.109 E15.80344
G1 X60.405 Y47.857 E15.81213
G1 X60.445 Y47.572 E15.82172
G1 X60.423 Y47.362 E15.82875
G1 X60.516 Y47.257 E15.83342
G1 X60.65 Y47.07 E15.84108
G1 X60.762 Y46.855 E15.84916
G1 X60.842 Y46.629 E15.85715
G1 X60.896 Y46.403 E15.86489
G1 X60.925 Y46.179 E15.87241
G1 X60.947 Y45.869 E15.88276
G1 X60.971 Y45.731 E15.88743
G1 X61.013 Y45.582 E15.89258
G1 X61.055 Y45.479 E15.89629
G1 X61.112 Y45.374 E15.90027
G1 X61.173 Y45.289 E15.90375
G1 X61.258 Y45.196 E15.90795
G1 X61.336 Y45.128 E15.9114
G1 X61.456 Y45.045 E15.91626
G1 X61.582 Y44.976 E15.92104
G1 X61.725 Y44.915 E15.92622
G1 X62.187 Y44.765 E15.9424
G1 X62.712 Y44.57 E15.96106
G1 X63.243 Y44.334 E15.98041
G1 X63.752 Y44.073 E15.99947
G1 X64.216 Y43.796 E16.01747
G1 X64.435 Y43.649 E16.02625
G1 X64.636 Y43.502 E16.03455
G1 X64.995 Y43.201 E16.05015
G1 X65.284 Y42.988 E16.06211
G1 X65.685 Y42.731 E16.07798
G1 X66.082 Y42.455 E16.09408
G1 X66.436 Y42.08 E16.11126
G1 X66.694 Y41.654 E16.12785
G1 X66.85 Y41.193 E16.14406
G1 X66.899 Y40.718 E16.15997
G1 X66.848 Y40.25 E16.17565
G1 X66.699 Y39.803 E16.19135
G1 X66.46 Y39.39 E16.20724
G1 X66.132 Y39.03 E16.22346
G1 X65.729 Y38.735 E16.2401
G1 X65.258 Y38.519 E16.25736
G1 X64.734 Y38.39 E16.27534
G1 X64.492 Y38.373 E16.28342
G1 X63.896 Y38.371 E16.30327
G1 X63.098 Y38.394 E16.32986
G1 X61.857 Y38.47 E16.37128
G1 X61.191 Y38.54 E16.39359
G1 X60.891 Y38.587 E16.4037
G1 X60.617 Y38.641 E16.413
G1 X60.358 Y38.708 E16.42192
G1 X60.116 Y38.786 E16.43038
G1 X59.885 Y38.878 E16.43867
G1 X59.665 Y38.985 E16.44682
G1 X59.464 Y39.1 E16.45453
G1 X59.161 Y39.289 E16.46643
G1 X59.022 Y39.357 E16.47158
G1 X58.863 Y39.423 E16.47731
G1 X58.445 Y39.559 E16.49196
G1 X58.22 Y39.617 E16.4997
G1 X57.733 Y39.714 E16.51624
G1 X57.504 Y39.746 E16.52394
G1 X57.257 Y39.77 E16.53221
G1 X57.053 Y39.781 E16.53901
G1 X56.86 Y39.78 E16.54544
G1 X55.428 Y39.73 E16.59317
G1 X54.404 Y39.713 E16.62728
G1 X53.993 Y39.72 E16.64098
G1 X53.634 Y39.742 E16.65296
G1 X53.31 Y39.779 E16.66382
G1 X53.008 Y39.836 E16.67406
G1 X52.725 Y39.914 E16.68384
G1 X52.445 Y40.008 E16.69367
G0 F2625 X52.41 Y39.915
G0 X46.933 Y42.436
G0 X46.243 Y43.039
G0 X44.648 Y44.814
G0 X44.279 Y45.57
G0 X42.851 Y49.852
G0 X42.357 Y53.152
G0 X42.424 Y53.687
G0 X44.913 Y61.27
G0 X50.534 Y69.567
G0 X50.531 Y69.666
G1 F900 X50.276 Y69.688 E16.7022
G1 X50.042 Y69.765 E16.71041
G1 X49.849 Y69.875 E16.71781
G1 X49.687 Y70 E16.72462
G1 X49.508 Y70.178 E16.73303
G1 X49.445 Y70.229 E16.73573
G1 X49.26 Y70.348 E16.74306
G1 X49.017 Y70.468 E16.75209
G1 X48.761 Y70.564 E16.76119
G1 X48.526 Y70.624 E16.76927
G1 X48.453 Y70.634 E16.77173
G1 X48.255 Y70.643 E16.77833
G1 X48.033 Y70.666 E16.78576
G1 X47.796 Y70.726 E16.79391
G1 X47.569 Y70.818 E16.80207
G1 X47.361 Y70.942 E16.81013
G1 X47.172 Y71.091 E16.81815
G1 X46.997 Y71.268 E16.82644
G1 X46.833 Y71.466 E16.835
G1 X46.7 Y71.701 E16.844
G1 X46.636 Y71.887 E16.85055
G1 X46.591 Y72.153 E16.85954
G1 X46.591 Y72.422 E16.8685
G1 X46.612 Y72.706 E16.87798
G1 X46.647 Y72.956 E16.88639
G1 X46.705 Y73.21 E16.89507
G1 X46.784 Y73.456 E16.90368
G1 X46.881 Y73.694 E16.91224
G1 X47.001 Y73.93 E16.92106
G1 X47.217 Y74.264 E16.93431
G1 X47.349 Y74.511 E16.94364
G1 X47.394 Y74.622 E16.94763
G1 X47.436 Y74.757 E16.95233
G1 X47.466 Y74.888 E16.95681
G1 X47.492 Y75.048 E16.96221
G1 X47.515 Y75.389 E16.9736
G1 X47.516 Y75.626 E16.98149
G1 X47.465 Y76.578 E17.01325
G1 X47.459 Y76.949 E17.02561
G1 X47.477 Y77.299 E17.03728
G1 X47.521 Y77.637 E17.04863
G1 X47.593 Y77.973 E17.06008
G1 X47.882 Y79.04 E17.0969
G1 X47.973 Y79.433 E17.11034
G1 X48.05 Y79.851 E17.1245
G1 X48.111 Y80.133 E17.13411
G1 X48.309 Y80.822 E17.15799
G1 X48.691 Y82.008 E17.19949
G1 X48.898 Y82.674 E17.22273
G1 X48.983 Y82.987 E17.23353
G1 X49.049 Y83.26 E17.24289
G1 X49.11 Y83.554 E17.25289
G1 X49.162 Y83.854 E17.26303
G1 X49.203 Y84.148 E17.27292
G1 X49.24 Y84.481 E17.28408
G1 X49.296 Y85.24 E17.30943
G1 X49.396 Y87.867 E17.397
G1 X48.963 Y89.081 E17.43993
G1 X48.793 Y89.576 E17.45737
G1 X48.642 Y90.069 E17.47454
G1 X48.508 Y90.559 E17.49146
G1 X48.392 Y91.052 E17.50833
G1 X48.293 Y91.551 E17.52528
G1 X48.21 Y92.063 E17.54256
G1 X48.145 Y92.59 E17.56025
G1 X48.094 Y93.137 E17.57854
G1 X48.058 Y93.709 E17.59764
G1 X48.034 Y94.313 E17.61777
G1 X48.024 Y94.952 E17.63906
G1 X48.024 Y95.632 E17.66171
G1 X48.034 Y96.275 E17.68313
G1 X48.054 Y96.885 E17.70346
G1 X48.085 Y97.47 E17.72298
G1 X48.128 Y98.035 E17.74185
G1 X48.184 Y98.587 E17.76033
G1 X48.254 Y99.13 E17.77857
G1 X48.339 Y99.671 E17.79681
G1 X48.439 Y100.215 E17.81524
G1 X48.555 Y100.769 E17.83409
G1 X48.688 Y101.338 E17.85355
G1 X48.84 Y101.932 E17.87398
G1 X49.148 Y103.029 E17.91193
G1 X49.29 Y103.489 E17.92797
G1 X49.569 Y104.297 E17.95644
G1 X49.856 Y104.996 E17.98161
G1 X50.009 Y105.314 E17.99337
G1 X50.167 Y105.606 E18.00443
G1 X50.33 Y105.875 E18.0149
G1 X50.502 Y106.126 E18.02504
G1 X50.689 Y106.364 E18.03512
G1 X50.983 Y106.675 E18.04938
G1 X51.208 Y106.88 E18.05952
G1 X51.435 Y107.054 E18.06904
G1 X51.672 Y107.2 E18.07832
G1 X51.925 Y107.313 E18.08755
G1 X52.19 Y107.385 E18.09669
G1 X52.41 Y107.406 E18.10406
G1 X52.685 Y107.384 E18.11325
G1 X52.915 Y107.322 E18.12118
G1 X53.155 Y107.218 E18.12989
G1 X53.384 Y107.049 E18.13937
G1 X53.667 Y106.806 E18.1518
G1 X54.443 Y106.095 E18.18686
G1 X55.885 Y104.711 E18.25343
G1 X56.339 Y104.286 E18.27415
G1 X56.775 Y103.891 E18.29375
G1 X57.225 Y103.498 E18.31365
G1 X57.705 Y103.095 E18.33453
G1 X58.212 Y102.686 E18.35622
G1 X58.77 Y102.25 E18.37981
G1 X59.402 Y101.772 E18.40621
G1 X60.912 Y100.664 E18.46859
G1 X63.618 Y98.723 E18.57952
G1 X64.33 Y98.195 E18.60905
G1 X64.954 Y97.716 E18.63525
G1 X65.472 Y97.298 E18.65743
G1 X65.868 Y96.958 E18.67481
G1 X66.042 Y96.793 E18.6828
G1 X66.396 Y96.377 E18.70099
G1 X68.83 Y96.501 E18.78218
G1 X69.231 Y96.54 E18.7956
G1 X69.424 Y96.579 E18.80216
G1 X69.539 Y96.623 E18.80626
G1 X69.682 Y96.708 E18.8118
G1 X69.962 Y96.897 E18.82305
G1 X70.332 Y97.132 E18.83765
G1 X70.762 Y97.383 E18.85424
G1 X71.264 Y97.66 E18.87334
G1 X72.517 Y98.312 E18.92039
G1 X72.906 Y98.507 E18.93488
G1 X73.243 Y98.664 E18.94727
G1 X73.612 Y98.814 E18.96053
G1 X74 Y98.952 E18.97425
G1 X74.402 Y99.078 E18.98828
G1 X74.818 Y99.192 E19.00265
G1 X75.248 Y99.295 E19.01738
G1 X75.685 Y99.384 E19.03224
G1 X76.125 Y99.46 E19.04711
G1 X76.57 Y99.522 E19.06208
G1 X77.015 Y99.57 E19.07699
G1 X77.46 Y99.602 E19.09185
G1 X78.106 Y99.621 E19.11337
G1 X78.476 Y99.62 E19.1257
G1 X78.778 Y99.605 E19.13577
G1 X79.062 Y99.564 E19.14533
G1 X79.359 Y99.454 E19.15588
G1 X79.569 Y99.283 E19.1649
G1 X79.71 Y99.08 E19.17313
G1 X79.8 Y98.817 E19.18239
G1 X79.79 Y98.499 E19.19299
G1 X79.659 Y98.204 E19.20374
G1 X79.424 Y97.966 E19.21488
G1 X79.173 Y97.808 E19.22476
G1 X78.906 Y97.676 E19.23468
G1 X78.587 Y97.541 E19.24622
G1 X77.844 Y97.256 E19.27273
G1 X77.072 Y96.923 E19.30074
G1 X76.274 Y96.542 E19.33019
G1 X75.492 Y96.131 E19.35962
