;Generated by Cura LulzBot Edition GCodeWriter Version: 2.6.66
;FLAVOR:RepRap
;TIME:1501
;Filament used: 0.731495m
;Layer height: 0.38
;Generated with Cura_SteamEngine 2.6.66
;This G-Code has been generated specifically for the LulzBot Mini with standard extruder
G26 ; clear potential 'probe fail' condition
G21 ; set units to Millimetres
M107 ; disable fans
G90 ; absolute positioning
M82 ; set extruder to absolute mode
G92 E0 ; set extruder position to 0
M140 S60 ; start bed heating up
G28 ; home all axes
G0 X0 Y187 Z156 F200 ; move away from endstops
M109 R140 ;
G1 E-30 F75 ; retract filament
M109 R140 ; wait for extruder to reach wiping temp
G1 X45 Y173 F11520 ; move above wiper pad
G1 Z0 F1200 ; push nozzle into wiper
G1 X42 Y173 Z-.5 F4000             ; wiping
G1 X52 Y171 Z-.5 F4000             ; wiping
G1 X42 Y173 Z0 F4000               ; wiping
G1 X52 Y171 F4000                  ; wiping
G1 X42 Y173 F4000                  ; wiping
G1 X52 Y171 F4000                  ; wiping
G1 X42 Y173 F4000                  ; wiping
G1 X52 Y171 F4000                  ; wiping
G1 X57 Y173 F4000                  ; wiping
G1 X77 Y171 F4000                  ; wiping
G1 X57 Y173 F4000                  ; wiping
G1 X77 Y171 F4000                  ; wiping
G1 X57 Y173 F4000                  ; wiping
G1 X87 Y171 F4000                  ; wiping
G1 X77 Y173 F4000                  ; wiping
G1 X97 Y171 F4000                  ; wiping
G1 X77 Y173 F4000                  ; wiping
G1 X97 Y171 F4000                  ; wiping
G1 X77 Y173 F4000                  ; wiping
G1 X97 Y171 F4000                  ; wiping
G1 X107 Y173 F4000                 ; wiping
G1 X97 Y171 F4000                  ; wiping
G1 X107 Y173 F4000                 ; wiping
G1 X97 Y171 F4000                  ; wiping
G1 X107 Y173 F4000                 ; wiping
G1 X112 Y171 Z-0.5 F1000           ; wiping
G1 Z10 ; raise extruder
G28 X0 Y0 ; home X and Y
G0 X0 Y187 F200 ; move away from endstops
M109 R140 ; wait for extruder to reach probe temp
M204 S300 ; set probing acceleration
G29 ; start auto-leveling sequence
M204 S2000 ; restore standard acceleration
G28 X0 Y0 ; re-home to account for build variance of earlier mini builds
G0 X0 Y187 F200 ; move away from endstops
G0 Y152 F4000 ; move in front of wiper pad
G4 S1 ; pause
M400 ; wait for moves to finish
M117 Heating... ; progress indicator message on LCD
M109 R205 ; wait for extruder to reach printing temp
M190 S60 ; wait for bed to reach printing temp
G1 Z2 E0 F75 ; prime tiny bit of filament into the nozzle
M117 Mini Printing... ; progress indicator message on LCD

M221 S100
;LAYER_COUNT:1
;LAYER:0
M107
G0 F2625 X42.433 Y17.141 Z0.425
;TYPE:WALL-INNER
G1 F900 X111.567 Y17.141 E2.30288
G1 X146.135 Y77 E4.6054
G1 X111.567 Y136.859 E6.90793
G1 X42.433 Y136.859 E9.21081
G1 X7.865 Y77 E11.51333
G1 X42.433 Y17.141 E13.81586
G0 F2625 X42.482 Y17.227
G0 X53.828 Y42.266
G0 X53.871 Y42.356
G1 F900 X51.861 Y43.453 E13.89214
G1 X49.972 Y44.74 E13.96828
G1 X48.21 Y46.201 E14.04452
G1 X46.587 Y47.817 E14.12081
G1 X45.112 Y49.575 E14.19725
G1 X43.793 Y51.456 E14.27378
G1 X42.642 Y53.446 E14.35036
G1 X41.668 Y55.529 E14.42695
G1 X40.883 Y57.679 E14.50319
G1 X39.968 Y60.823 E14.61227
G1 X39.397 Y64.03 E14.72077
G1 X39.162 Y67.26 E14.82865
G1 X39.246 Y70.49 E14.93628
G1 X39.637 Y73.697 E15.0439
G1 X40.322 Y76.859 E15.15167
G1 X41.286 Y79.952 E15.25958
G1 X42.516 Y82.953 E15.36762
G1 X43.997 Y85.841 E15.47573
G1 X45.719 Y88.592 E15.58384
G1 X47.666 Y91.186 E15.69188
G1 X49.87 Y93.645 E15.80188
G1 X50.958 Y94.358 E15.84521
G1 X51.833 Y95.085 E15.8831
G1 X52.566 Y95.856 E15.91854
G1 X53.193 Y96.696 E15.95345
G1 X53.718 Y97.606 E15.98845
G1 X54.129 Y98.561 E16.02308
G1 X54.427 Y99.551 E16.05752
G1 X54.62 Y100.6 E16.09305
G1 X54.702 Y101.67 E16.1288
G1 X54.675 Y102.787 E16.16601
G1 X54.541 Y103.899 E16.20332
G1 X54.287 Y105.079 E16.24353
G1 X54.033 Y106.18 E16.28117
G1 X53.942 Y107.359 E16.32056
G1 X54.018 Y108.53 E16.35965
G1 X54.254 Y109.671 E16.39846
G1 X54.64 Y110.763 E16.43704
G1 X55.171 Y111.784 E16.47537
G1 X55.84 Y112.715 E16.51356
G1 X56.643 Y113.533 E16.55174
G1 X57.572 Y114.211 E16.59005
G1 X58.619 Y114.726 E16.62892
G1 X59.775 Y115.048 E16.66889
G1 X61.032 Y115.152 E16.71091
G1 X61.447 Y115.136 E16.72474
G1 X62.144 Y115.139 E16.74796
G1 X62.848 Y115.063 E16.77155
G1 X63.523 Y114.913 E16.79458
G1 X64.166 Y114.698 E16.81716
G1 X64.779 Y114.429 E16.83946
G1 X65.364 Y114.114 E16.86159
G1 X65.921 Y113.764 E16.88351
G1 X66.454 Y113.389 E16.90521
G1 X66.968 Y112.994 E16.92681
G1 X67.465 Y112.586 E16.94823
G1 X68.387 Y111.791 E16.98878
G1 X69.581 Y110.836 E17.03971
G1 X70.777 Y109.81 E17.0922
G1 X73.171 Y107.707 E17.19834
G1 X74.366 Y106.712 E17.25014
G1 X75.62 Y105.756 E17.30267
G1 X76.864 Y104.927 E17.35246
G1 X78.139 Y104.226 E17.40093
G1 X79.461 Y103.68 E17.44857
G1 X80.818 Y103.321 E17.49533
G1 X82.232 Y103.171 E17.5427
G1 X83.873 Y103.269 E17.59746
G1 X85.373 Y102.999 E17.64822
G1 X86.624 Y102.95 E17.68993
G1 X87.743 Y103.08 E17.72745
G1 X88.775 Y103.372 E17.76318
G1 X89.72 Y103.814 E17.79793
G1 X90.592 Y104.394 E17.83281
G1 X91.421 Y105.121 E17.86954
G1 X92.196 Y105.972 E17.90788
G1 X92.92 Y106.928 E17.94783
G1 X93.62 Y108.01 E17.99076
G1 X94.274 Y109.161 E18.03485
G1 X94.913 Y110.411 E18.08162
G1 X95.565 Y111.548 E18.12528
G1 X96.437 Y112.561 E18.1698
G1 X97.46 Y113.39 E18.21366
G1 X98.594 Y114.023 E18.25692
G1 X99.803 Y114.454 E18.29967
G1 X101.055 Y114.666 E18.34197
G1 X102.31 Y114.647 E18.38378
G1 X103.536 Y114.376 E18.42561
G1 X104.683 Y113.834 E18.46786
G1 X105.698 Y113.01 E18.51141
G1 X106.529 Y111.903 E18.55752
G1 X107.106 Y110.572 E18.60584
G1 X107.691 Y108.926 E18.66403
G1 X108.243 Y107.285 E18.72171
G1 X108.763 Y105.63 E18.77949
G1 X109.25 Y103.962 E18.83737
G1 X109.699 Y102.282 E18.8953
G1 X110.107 Y100.59 E18.95327
G1 X110.469 Y98.888 E19.01124
G1 X110.785 Y97.174 E19.06929
G1 X111.048 Y95.452 E19.12732
G1 X111.255 Y93.72 E19.18542
G1 X111.401 Y91.98 E19.24359
G1 X111.486 Y90.226 E19.30208
G1 X111.475 Y88.906 E19.34605
G1 X111.562 Y87.667 E19.38743
G1 X111.731 Y86.434 E19.42888
G1 X111.967 Y85.207 E19.4705
G1 X112.262 Y83.954 E19.51338
G1 X112.589 Y82.725 E19.55574
G1 X113.297 Y80.221 E19.64242
G1 X113.64 Y78.956 E19.68608
G1 X113.957 Y77.674 E19.73007
G1 X114.226 Y76.373 E19.77433
G1 X114.441 Y75 E19.82062
G1 X114.295 Y71.397 E19.94073
G1 X113.687 Y67.941 E20.05762
G1 X112.655 Y64.625 E20.17331
G1 X111.239 Y61.464 E20.28868
G1 X109.479 Y58.474 E20.40425
G1 X107.413 Y55.666 E20.52038
G1 X105.081 Y53.053 E20.63704
G1 X102.521 Y50.646 E20.75409
G1 X99.77 Y48.459 E20.87115
G1 X96.864 Y46.503 E20.98784
G1 X93.841 Y44.791 E21.10356
G1 X90.725 Y43.332 E21.21817
G1 X88.288 Y42.493 E21.30403
G1 X85.835 Y41.78 E21.38912
G1 X83.353 Y41.181 E21.47417
G1 X80.847 Y40.695 E21.5592
G1 X78.32 Y40.315 E21.64432
G1 X75.779 Y40.04 E21.72946
G1 X73.228 Y39.866 E21.81463
G1 X70.674 Y39.789 E21.89974
G1 X68.12 Y39.805 E21.98482
G1 X65.572 Y39.911 E22.06977
G1 X63.036 Y40.104 E22.15449
G1 X60.501 Y40.38 E22.23943
G1 X58.209 Y40.802 E22.31706
G1 X55.99 Y41.466 E22.39421
G1 X53.871 Y42.356 E22.47077
G0 F2625 X54.088 Y42.807
;TYPE:WALL-OUTER
G1 F900 X52.122 Y43.88 E22.54538
G1 X50.273 Y45.14 E22.61991
G1 X48.547 Y46.571 E22.69459
G1 X46.956 Y48.156 E22.7694
G1 X45.509 Y49.88 E22.84437
G1 X44.215 Y51.725 E22.91944
G1 X43.086 Y53.678 E22.99458
G1 X42.13 Y55.721 E23.06972
G1 X41.358 Y57.835 E23.14468
G1 X40.456 Y60.937 E23.25229
G1 X39.894 Y64.092 E23.35904
G1 X39.662 Y67.272 E23.46525
G1 X39.745 Y70.453 E23.57125
G1 X40.131 Y73.614 E23.67732
G1 X40.806 Y76.731 E23.78356
G1 X41.757 Y79.782 E23.89001
G1 X42.971 Y82.744 E23.99664
G1 X44.432 Y85.594 E24.10332
G1 X46.132 Y88.309 E24.21003
G1 X48.053 Y90.868 E24.31661
G1 X50.199 Y93.263 E24.42373
G1 X51.262 Y93.96 E24.46607
G1 X52.167 Y94.712 E24.50527
G1 X52.948 Y95.534 E24.54304
G1 X53.614 Y96.425 E24.58009
G1 X54.165 Y97.381 E24.61685
G1 X54.6 Y98.392 E24.65351
G1 X54.914 Y99.435 E24.68979
G1 X55.117 Y100.536 E24.72709
G1 X55.203 Y101.654 E24.76444
G1 X55.175 Y102.818 E24.80322
G1 X55.033 Y103.99 E24.84255
G1 X54.775 Y105.185 E24.88327
G1 X54.529 Y106.256 E24.91987
G1 X54.443 Y107.362 E24.95683
G1 X54.515 Y108.463 E24.99358
G1 X54.737 Y109.536 E25.03008
G1 X55.1 Y110.563 E25.06636
G1 X55.598 Y111.521 E25.10233
G1 X56.224 Y112.392 E25.13806
G1 X56.971 Y113.153 E25.17358
G1 X57.832 Y113.782 E25.2091
G1 X58.798 Y114.257 E25.24495
G1 X59.863 Y114.554 E25.28178
G1 X61.043 Y114.651 E25.32122
G1 X61.43 Y114.636 E25.33412
G1 X62.118 Y114.639 E25.35704
G1 X62.767 Y114.569 E25.37878
G1 X63.389 Y114.431 E25.40001
G1 X63.986 Y114.231 E25.42098
G1 X64.56 Y113.979 E25.44186
G1 X65.112 Y113.682 E25.46274
G1 X65.644 Y113.348 E25.48367
G1 X66.157 Y112.986 E25.50458
G1 X66.657 Y112.602 E25.52558
G1 X67.143 Y112.203 E25.54653
G1 X68.075 Y111.4 E25.5875
G1 X69.262 Y110.451 E25.63813
G1 X70.449 Y109.432 E25.69024
G1 X72.841 Y107.331 E25.79629
G1 X74.063 Y106.314 E25.84925
G1 X75.324 Y105.353 E25.90206
G1 X76.606 Y104.498 E25.95339
G1 X77.923 Y103.775 E26.00343
G1 X79.299 Y103.206 E26.05303
G1 X80.728 Y102.828 E26.10227
G1 X82.221 Y102.67 E26.15228
G1 X83.843 Y102.766 E26.2064
G1 X85.321 Y102.5 E26.25643
G1 X86.642 Y102.449 E26.30046
G1 X87.838 Y102.587 E26.34057
G1 X88.952 Y102.903 E26.37914
G1 X89.963 Y103.376 E26.41632
G1 X90.899 Y103.998 E26.45375
G1 X91.773 Y104.764 E26.49247
G1 X92.581 Y105.651 E26.53243
G1 X93.33 Y106.64 E26.57376
G1 X94.047 Y107.748 E26.61772
G1 X94.709 Y108.914 E26.66238
G1 X95.353 Y110.173 E26.70949
G1 X95.975 Y111.258 E26.75115
G1 X96.787 Y112.201 E26.7926
G1 X97.741 Y112.974 E26.8335
G1 X98.801 Y113.566 E26.87394
G1 X99.93 Y113.968 E26.91386
G1 X101.093 Y114.165 E26.95316
G1 X102.252 Y114.148 E26.99177
G1 X103.373 Y113.9 E27.03001
G1 X104.415 Y113.408 E27.06839
G1 X105.335 Y112.661 E27.10787
G1 X106.094 Y111.65 E27.14998
G1 X106.641 Y110.389 E27.19577
G1 X107.218 Y108.763 E27.25324
G1 X107.767 Y107.13 E27.31063
G1 X108.284 Y105.485 E27.36806
G1 X108.768 Y103.827 E27.4256
G1 X109.214 Y102.159 E27.48311
G1 X109.619 Y100.479 E27.54068
G1 X109.979 Y98.791 E27.59817
G1 X110.292 Y97.091 E27.65575
G1 X110.552 Y95.385 E27.71323
G1 X110.757 Y93.669 E27.7708
G1 X110.902 Y91.947 E27.82836
G1 X110.986 Y90.216 E27.88609
G1 X110.975 Y88.888 E27.93033
G1 X111.064 Y87.624 E27.97254
G1 X111.24 Y86.34 E28.01571
G1 X111.48 Y85.092 E28.05804
G1 X111.776 Y83.839 E28.10093
G1 X112.108 Y82.589 E28.14401
G1 X112.815 Y80.088 E28.23058
G1 X113.156 Y78.831 E28.27397
G1 X113.469 Y77.563 E28.31747
G1 X113.734 Y76.284 E28.36098
G1 X113.939 Y74.971 E28.40525
G1 X113.797 Y71.451 E28.5226
G1 X113.2 Y68.059 E28.63732
G1 X112.186 Y64.802 E28.75095
G1 X110.794 Y61.694 E28.86439
G1 X109.061 Y58.75 E28.97818
G1 X107.024 Y55.981 E29.09269
G1 X104.723 Y53.402 E29.20782
G1 X102.194 Y51.025 E29.32343
G1 X99.474 Y48.863 E29.43917
G1 X96.601 Y46.929 E29.55453
G1 X93.611 Y45.236 E29.66899
G1 X90.537 Y43.796 E29.78206
G1 X88.137 Y42.97 E29.86661
G1 X85.707 Y42.263 E29.95091
G1 X83.247 Y41.67 E30.0352
G1 X80.762 Y41.188 E30.11952
G1 X78.256 Y40.811 E30.20393
G1 X75.735 Y40.538 E30.2884
G1 X73.203 Y40.365 E30.37294
G1 X70.668 Y40.289 E30.45742
G1 X68.132 Y40.305 E30.5419
G1 X65.601 Y40.41 E30.62628
G1 X63.082 Y40.602 E30.71043
G1 X60.573 Y40.875 E30.7945
G1 X58.326 Y41.289 E30.87061
G1 X56.159 Y41.937 E30.94595
G1 X54.088 Y42.807 E31.02077
G0 F2625 X53.869 Y42.926
G0 X53.584 Y42.4
G0 X42.482 Y17.227
G0 X42.144 Y16.641
G1 F900 X111.856 Y16.641 E33.3429
G1 X146.712 Y77 E35.66465
G1 X111.856 Y137.359 E37.9864
G1 X42.144 Y137.359 E40.30853
G1 X7.288 Y77 E42.63028
G1 X42.144 Y16.641 E44.95202
G0 F2625 X42.394 Y16.641
G0 X42.822 Y17.366
;TYPE:SKIN
G1 F900 X65.171 Y39.715 E46.00484
G1 X65.259 Y39.803
G0 F2625 X64.514 Y39.765
G1 F900 X42.398 Y17.649 E47.04668
G1 X42.31 Y17.561
G0 F2625 X42.139 Y18.097
G1 F900 X63.857 Y39.815 E48.06977
G1 X63.945 Y39.903
G0 F2625 X63.199 Y39.865
G1 F900 X41.88 Y18.545 E49.07409
G1 X41.792 Y18.457
G0 F2625 X41.621 Y18.994
G1 F900 X62.557 Y39.929 E50.06032
G1 X62.645 Y40.017
G0 F2625 X61.919 Y39.998
G1 F900 X41.362 Y19.442 E51.02869
G1 X41.274 Y19.354
G0 F2625 X41.104 Y19.89
G1 F900 X61.281 Y40.068 E51.97921
G1 X61.369 Y40.156
G0 F2625 X60.644 Y40.138
G1 F900 X40.845 Y20.339 E52.9119
G1 X40.757 Y20.251
G0 F2625 X40.586 Y20.787
G1 F900 X60.036 Y40.237 E53.82815
G1 X60.124 Y40.325
G0 F2625 X59.438 Y40.346
G1 F900 X40.327 Y21.235 E54.72843
G1 X40.239 Y21.147
G0 F2625 X40.068 Y21.683
G1 F900 X58.841 Y40.457 E55.61281
G1 X58.929 Y40.545
G0 F2625 X58.245 Y40.567
G1 F900 X39.809 Y22.131 E56.4813
G1 X39.721 Y22.043
G0 F2625 X39.55 Y22.58
G1 F900 X57.692 Y40.721 E57.3359
G1 X57.78 Y40.809
G0 F2625 X57.147 Y40.884
G1 F900 X39.291 Y23.028 E58.17706
G1 X39.203 Y22.94
G0 F2625 X39.033 Y23.476
G1 F900 X56.603 Y41.046 E59.00475
G1 X56.691 Y41.134
G0 F2625 X56.058 Y41.209
G1 F900 X38.774 Y23.924 E59.81899
G1 X38.686 Y23.836
G0 F2625 X38.515 Y24.373
G1 F900 X55.548 Y41.406 E60.62138
G1 X55.636 Y41.494
G0 F2625 X55.05 Y41.615
G1 F900 X38.256 Y24.821 E61.41251
G1 X38.168 Y24.733
G0 F2625 X37.997 Y25.269
G1 F900 X54.552 Y41.824 E62.19238
G1 X54.64 Y41.912
G0 F2625 X54.054 Y42.033
G1 F900 X37.738 Y25.718 E62.96097
G1 X37.65 Y25.63
G0 F2625 X37.479 Y26.165
G1 F900 X53.573 Y42.26 E63.71915
G1 X53.661 Y42.348
G0 F2625 X53.116 Y42.509
G1 F900 X37.22 Y26.614 E64.46796
G1 X37.132 Y26.526
G0 F2625 X36.961 Y27.062
G1 F900 X52.658 Y42.759 E65.20741
G1 X52.746 Y42.847
G0 F2625 X52.201 Y43.009
G1 F900 X36.703 Y27.51 E65.93751
G1 X36.615 Y27.422
G0 F2625 X36.444 Y27.959
G1 F900 X51.743 Y43.258 E66.65822
G1 X51.831 Y43.346
G0 F2625 X51.323 Y43.545
G1 F900 X36.185 Y28.407 E67.37134
G1 X36.097 Y28.319
G0 F2625 X35.926 Y28.855
G1 F900 X50.903 Y43.832 E68.07687
G1 X50.991 Y43.92
G0 F2625 X50.482 Y44.118
G1 F900 X35.667 Y29.303 E68.77478
G1 X35.579 Y29.215
G0 F2625 X35.409 Y29.752
G1 F900 X50.062 Y44.405 E69.46505
G1 X50.15 Y44.493
G0 F2625 X49.657 Y44.707
G1 F900 X35.15 Y30.2 E70.14845
G1 X35.062 Y30.112
G0 F2625 X34.891 Y30.648
G1 F900 X49.271 Y45.028 E70.82586
G1 X49.359 Y45.116
G0 F2625 X48.884 Y45.348
G1 F900 X34.631 Y31.096 E71.49727
G1 X34.543 Y31.008
G0 F2625 X34.373 Y31.544
G1 F900 X48.497 Y45.669 E72.16264
G1 X48.585 Y45.757
G0 F2625 X48.111 Y45.99
G1 F900 X34.114 Y31.993 E72.82201
G1 X34.026 Y31.905
G0 F2625 X33.855 Y32.441
G1 F900 X47.753 Y46.338 E73.47669
G1 X47.841 Y46.426
G0 F2625 X47.398 Y46.69
G1 F900 X33.596 Y32.889 E74.12686
G1 X33.508 Y32.801
G0 F2625 X33.337 Y33.337
G1 F900 X47.043 Y47.043 E74.77252
G1 X47.131 Y47.131
G0 F2625 X46.689 Y47.396
G1 F900 X33.079 Y33.786 E75.41366
G1 X32.991 Y33.698
G0 F2625 X32.82 Y34.234
G1 F900 X46.343 Y47.757 E76.0507
G1 X46.431 Y47.845
G0 F2625 X46.021 Y48.142
G1 F900 X32.561 Y34.682 E76.68477
G1 X32.473 Y34.594
G0 F2625 X32.302 Y35.131
G1 F900 X45.698 Y48.527 E77.31583
G1 X45.786 Y48.615
G0 F2625 X45.375 Y48.911
G1 F900 X32.043 Y35.579 E77.94387
G1 X31.955 Y35.491
G0 F2625 X31.784 Y36.027
G1 F900 X45.053 Y49.295 E78.56892
G1 X45.141 Y49.383
G0 F2625 X44.749 Y49.699
G1 F900 X31.525 Y36.475 E79.19188
G1 X31.437 Y36.387
G0 F2625 X31.266 Y36.923
G1 F900 X44.458 Y50.115 E79.81333
G1 X44.546 Y50.203
G0 F2625 X44.166 Y50.53
G1 F900 X31.008 Y37.372 E80.43317
G1 X30.92 Y37.284
G0 F2625 X30.749 Y37.82
G1 F900 X43.874 Y50.945 E81.05147
G1 X43.962 Y51.033
G0 F2625 X43.586 Y51.364
G1 F900 X30.49 Y38.268 E81.66839
G1 X30.402 Y38.18
G0 F2625 X30.231 Y38.716
G1 F900 X43.327 Y51.812 E82.28532
G1 X43.415 Y51.9
G0 F2625 X43.068 Y52.26
G1 F900 X29.972 Y39.165 E82.90222
G1 X29.884 Y39.077
G0 F2625 X29.714 Y39.613
G1 F900 X42.808 Y52.708 E83.51908
G1 X42.896 Y52.796
G0 F2625 X42.55 Y53.156
G1 F900 X29.455 Y40.061 E84.13596
G1 X29.367 Y39.973
G0 F2625 X29.196 Y40.51
G1 F900 X42.31 Y53.624 E84.75373
G1 X42.398 Y53.712
G0 F2625 X42.085 Y54.106
G1 F900 X28.937 Y40.958 E85.3731
G1 X28.849 Y40.87
G0 F2625 X28.678 Y41.406
G1 F900 X41.86 Y54.587 E85.99406
G1 X41.948 Y54.675
G0 F2625 X41.635 Y55.07
G1 F900 X28.419 Y41.854 E86.61664
G1 X28.331 Y41.766
G0 F2625 X28.16 Y42.302
G1 F900 X41.417 Y55.559 E87.24115
