;Generated by Cura LulzBot Edition GCodeWriter Version: 2.6.66
;FLAVOR:RepRap
;TIME:1612
;Filament used: 0.793232m
;Layer height: 0.38
;Generated with Cura_SteamEngine 2.6.66
;This G-Code has been generated specifically for the LulzBot Mini with standard extruder
G26 ; clear potential 'probe fail' condition
G21 ; set units to Millimetres
M107 ; disable fans
G90 ; absolute positioning
M82 ; set extruder to absolute mode
G92 E0 ; set extruder position to 0
M140 S60 ; start bed heating up
G28 ; home all axes
G0 X0 Y187 Z156 F200 ; move away from endstops
M109 R140 ;
G1 E-30 F75 ; retract filament
M109 R140 ; wait for extruder to reach wiping temp
G1 X45 Y173 F11520 ; move above wiper pad
G1 Z0 F1200 ; push nozzle into wiper
G1 X42 Y173 Z-.5 F4000             ; wiping
G1 X52 Y171 Z-.5 F4000             ; wiping
G1 X42 Y173 Z0 F4000               ; wiping
G1 X52 Y171 F4000                  ; wiping
G1 X42 Y173 F4000                  ; wiping
G1 X52 Y171 F4000                  ; wiping
G1 X42 Y173 F4000                  ; wiping
G1 X52 Y171 F4000                  ; wiping
G1 X57 Y173 F4000                  ; wiping
G1 X77 Y171 F4000                  ; wiping
G1 X57 Y173 F4000                  ; wiping
G1 X77 Y171 F4000                  ; wiping
G1 X57 Y173 F4000                  ; wiping
G1 X87 Y171 F4000                  ; wiping
G1 X77 Y173 F4000                  ; wiping
G1 X97 Y171 F4000                  ; wiping
G1 X77 Y173 F4000                  ; wiping
G1 X97 Y171 F4000                  ; wiping
G1 X77 Y173 F4000                  ; wiping
G1 X97 Y171 F4000                  ; wiping
G1 X107 Y173 F4000                 ; wiping
G1 X97 Y171 F4000                  ; wiping
G1 X107 Y173 F4000                 ; wiping
G1 X97 Y171 F4000                  ; wiping
G1 X107 Y173 F4000                 ; wiping
G1 X112 Y171 Z-0.5 F1000           ; wiping
G1 Z10 ; raise extruder
G28 X0 Y0 ; home X and Y
G0 X0 Y187 F200 ; move away from endstops
M109 R140 ; wait for extruder to reach probe temp
M204 S300 ; set probing acceleration
G29 ; start auto-leveling sequence
M204 S2000 ; restore standard acceleration
G28 X0 Y0 ; re-home to account for build variance of earlier mini builds
G0 X0 Y187 F200 ; move away from endstops
G0 Y152 F4000 ; move in front of wiper pad
G4 S1 ; pause
M400 ; wait for moves to finish
M117 Heating... ; progress indicator message on LCD
M109 R205 ; wait for extruder to reach printing temp
M190 S60 ; wait for bed to reach printing temp
G1 Z2 E0 F75 ; prime tiny bit of filament into the nozzle
M117 Mini Printing... ; progress indicator message on LCD

M221 S100
;LAYER_COUNT:1
;LAYER:0
M107
G0 F2625 X40.433 Y17.141 Z0.425
;TYPE:WALL-INNER
G1 F900 X109.567 Y17.141 E2.30288
G1 X144.135 Y77 E4.6054
G1 X109.567 Y136.859 E6.90793
G1 X40.433 Y136.859 E9.21081
G1 X5.865 Y77 E11.51333
G1 X40.433 Y17.141 E13.81586
G0 F2625 X40.482 Y17.227
G0 X57.661 Y59.468
G0 X57.731 Y59.538
G1 F900 X57.731 Y72.698 E14.25422
G1 X95.12 Y72.698 E15.49967
G1 X95.12 Y59.538 E15.93803
G1 X57.731 Y59.538 E17.18347
G0 F2625 X57.661 Y59.468
G0 X57.661 Y83.62
G0 X57.731 Y83.69
G1 F900 X57.731 Y96.85 E17.62184
G1 X95.12 Y96.85 E18.86728
G1 X95.12 Y83.69 E19.30564
G1 X57.731 Y83.69 E20.55108
G0 F2625 X58.231 Y84.19
;TYPE:WALL-OUTER
G1 F900 X58.231 Y96.35 E20.95614
G1 X94.62 Y96.35 E22.16827
G1 X94.62 Y84.19 E22.57332
G1 X58.231 Y84.19 E23.78545
G0 F2625 X58.231 Y84.44
G0 X57.631 Y84.44
G0 X57.631 Y72.198
G0 X58.231 Y72.198
G1 F900 X94.62 Y72.198 E24.99758
G1 X94.62 Y60.038 E25.40264
G1 X58.231 Y60.038 E26.61477
G1 X58.231 Y72.198 E27.01982
G0 F2625 X58.481 Y72.198
G0 X58.481 Y72.798
G0 X5.965 Y77
G0 X5.288 Y77
G1 F900 X40.144 Y16.641 E29.34157
G1 X109.856 Y16.641 E31.6637
G1 X144.712 Y77 E33.98545
G1 X109.856 Y137.359 E36.30719
G1 X40.144 Y137.359 E38.62932
G1 X5.288 Y77 E40.95107
G0 F2625 X5.413 Y76.784
G0 X6.183 Y76.894
;TYPE:SKIN
G1 F900 X65.922 Y136.633 E43.76525
G1 X66.01 Y136.721
G0 F2625 X65.215 Y136.633
G1 F900 X6.866 Y78.283 E46.51398
G1 X6.778 Y78.195
G0 F2625 X6.443 Y76.446
G1 F900 X66.629 Y136.633 E49.34924
G1 X66.717 Y136.721
G0 F2625 X67.337 Y136.633
G1 F900 X6.701 Y75.998 E52.20566
G1 X6.613 Y75.91
G0 F2625 X6.96 Y75.55
G1 F900 X68.044 Y136.633 E55.08318
G1 X68.132 Y136.721
G0 F2625 X68.751 Y136.633
G1 F900 X7.219 Y75.101 E57.98182
G1 X7.131 Y75.013
G0 F2625 X7.478 Y74.653
G1 F900 X69.458 Y136.633 E60.90158
G1 X69.546 Y136.721
G0 F2625 X70.165 Y136.633
G1 F900 X7.737 Y74.205 E63.84243
G1 X7.649 Y74.117
G0 F2625 X7.995 Y73.756
G1 F900 X70.872 Y136.633 E66.80444
G1 X70.96 Y136.721
G0 F2625 X71.579 Y136.633
G1 F900 X8.254 Y73.308 E69.78755
G1 X8.166 Y73.22
G0 F2625 X8.513 Y72.86
G1 F900 X72.286 Y136.633 E72.79177
G1 X72.374 Y136.721
G0 F2625 X72.993 Y136.633
G1 F900 X8.772 Y72.411 E75.81711
G1 X8.684 Y72.323
G0 F2625 X9.031 Y71.963
G1 F900 X73.701 Y136.633 E78.86358
G1 X73.789 Y136.721
G0 F2625 X74.408 Y136.633
G1 F900 X9.289 Y71.515 E81.93118
G1 X9.201 Y71.427
G0 F2625 X9.548 Y71.067
G1 F900 X75.115 Y136.633 E85.01989
G1 X75.203 Y136.721
G0 F2625 X75.822 Y136.633
G1 F900 X9.808 Y70.619 E88.12967
G1 X9.72 Y70.531
G0 F2625 X10.067 Y70.171
G1 F900 X76.529 Y136.633 E91.26056
G1 X76.617 Y136.721
G0 F2625 X77.236 Y136.633
G1 F900 X10.325 Y69.722 E94.4126
G1 X10.237 Y69.634
G0 F2625 X10.584 Y69.274
G1 F900 X77.943 Y136.633 E97.58575
G1 X78.031 Y136.721
G0 F2625 X78.65 Y136.633
G1 F900 X10.843 Y68.826 E100.78
G1 X10.755 Y68.738
G0 F2625 X11.102 Y68.377
G1 F900 X79.357 Y136.633 E103.99538
G1 X79.445 Y136.721
G0 F2625 X80.064 Y136.633
G1 F900 X11.361 Y67.929 E107.23186
G1 X11.273 Y67.841
G0 F2625 X11.619 Y67.481
G1 F900 X80.772 Y136.633 E110.48949
G1 X80.86 Y136.721
G0 F2625 X81.479 Y136.633
G1 F900 X11.878 Y67.033 E113.76823
G1 X11.79 Y66.945
G0 F2625 X12.137 Y66.584
G1 F900 X82.186 Y136.633 E117.06809
G1 X82.274 Y136.721
G0 F2625 X82.893 Y136.633
G1 F900 X12.396 Y66.136 E120.38906
G1 X12.308 Y66.048
G0 F2625 X12.655 Y65.688
G1 F900 X83.6 Y136.633 E123.73114
G1 X83.688 Y136.721
G0 F2625 X84.307 Y136.633
G1 F900 X12.914 Y65.24 E127.09432
G1 X12.826 Y65.152
G0 F2625 X13.173 Y64.792
G1 F900 X85.014 Y136.633 E130.4786
G1 X85.102 Y136.721
G0 F2625 X85.721 Y136.633
G1 F900 X13.432 Y64.343 E133.88401
G1 X13.344 Y64.255
G0 F2625 X13.691 Y63.895
G1 F900 X86.428 Y136.633 E137.31053
G1 X86.516 Y136.721
G0 F2625 X87.136 Y136.633
G1 F900 X13.949 Y63.447 E140.75819
G1 X13.861 Y63.359
G0 F2625 X14.208 Y62.998
G1 F900 X87.843 Y136.633 E144.22699
G1 X87.931 Y136.721
G0 F2625 X88.55 Y136.633
G1 F900 X14.467 Y62.55 E147.71689
G1 X14.379 Y62.462
G0 F2625 X14.726 Y62.102
G1 F900 X89.257 Y136.633 E151.22789
G1 X89.345 Y136.721
G0 F2625 X89.964 Y136.633
G1 F900 X14.985 Y61.654 E154.76
G1 X14.897 Y61.566
G0 F2625 X15.243 Y61.205
G1 F900 X90.671 Y136.633 E158.31326
G1 X90.759 Y136.721
G0 F2625 X91.378 Y136.633
G1 F900 X15.502 Y60.757 E161.88762
G1 X15.414 Y60.669
G0 F2625 X15.761 Y60.309
G1 F900 X92.085 Y136.633 E165.48309
G1 X92.173 Y136.721
G0 F2625 X92.792 Y136.633
G1 F900 X16.02 Y59.861 E169.09966
G1 X15.932 Y59.773
G0 F2625 X16.279 Y59.413
G1 F900 X93.5 Y136.633 E172.73736
G1 X93.588 Y136.721
G0 F2625 X94.207 Y136.633
G1 F900 X16.538 Y58.964 E176.39619
G1 X16.45 Y58.876
G0 F2625 X16.797 Y58.516
G1 F900 X94.914 Y136.633 E180.07613
G1 X95.002 Y136.721
G0 F2625 X95.621 Y136.633
G1 F900 X17.056 Y58.068 E183.77716
G1 X16.968 Y57.98
G0 F2625 X17.314 Y57.62
G1 F900 X96.328 Y136.633 E187.49933
G1 X96.416 Y136.721
G0 F2625 X97.035 Y136.633
G1 F900 X17.573 Y57.171 E191.24262
G1 X17.485 Y57.083
G0 F2625 X17.832 Y56.723
G1 F900 X57.506 Y96.397 E193.11158
G1 X57.594 Y96.485
G0 F2625 X57.506 Y95.689
G1 F900 X18.091 Y56.275 E194.96832
G1 X18.003 Y56.187
G0 F2625 X18.35 Y55.826
G1 F900 X57.506 Y94.982 E196.81288
G1 X57.594 Y95.07
G0 F2625 X57.506 Y94.275
G1 F900 X18.608 Y55.378 E198.64526
G1 X18.52 Y55.29
G0 F2625 X18.867 Y54.93
G1 F900 X57.506 Y93.568 E200.46544
G1 X57.594 Y93.656
G0 F2625 X57.506 Y92.861
G1 F900 X19.126 Y54.481 E202.27345
G1 X19.038 Y54.393
G0 F2625 X19.386 Y54.034
G1 F900 X57.506 Y92.154 E204.0692
G1 X57.594 Y92.242
G0 F2625 X57.506 Y91.447
G1 F900 X19.644 Y53.585 E205.8528
G1 X19.556 Y53.497
G0 F2625 X19.903 Y53.137
G1 F900 X57.506 Y90.74 E207.6242
G1 X57.594 Y90.828
G0 F2625 X57.506 Y90.033
G1 F900 X20.162 Y52.689 E209.3834
G1 X20.074 Y52.601
G0 F2625 X20.421 Y52.241
G1 F900 X57.506 Y89.325 E211.13038
G1 X57.594 Y89.413
G0 F2625 X57.506 Y88.618
G1 F900 X20.68 Y51.792 E212.86518
G1 X20.592 Y51.704
G0 F2625 X20.938 Y51.344
G1 F900 X57.506 Y87.911 E214.5878
G1 X57.594 Y87.999
G0 F2625 X57.506 Y87.204
G1 F900 X21.197 Y50.896 E216.29822
G1 X21.109 Y50.808
G0 F2625 X21.456 Y50.447
G1 F900 X57.506 Y86.497 E217.99646
G1 X57.594 Y86.585
G0 F2625 X57.506 Y85.79
G1 F900 X21.715 Y49.999 E219.6825
G1 X21.627 Y49.911
G0 F2625 X21.974 Y49.551
G1 F900 X57.506 Y85.083 E221.35634
G1 X57.594 Y85.171
G0 F2625 X57.506 Y84.376
G1 F900 X22.232 Y49.102 E223.01803
G1 X22.144 Y49.014
G0 F2625 X22.492 Y48.655
G1 F900 X57.506 Y83.669 E224.66746
G1 X57.594 Y83.757
G0 F2625 X58.008 Y83.464
G1 F900 X22.751 Y48.207 E226.32835
G1 X22.663 Y48.119
G0 F2625 X23.009 Y47.758
G1 F900 X58.715 Y83.464 E228.01039
G1 X58.803 Y83.552
G0 F2625 X59.422 Y83.464
G1 F900 X23.268 Y47.31 E229.71353
G1 X23.18 Y47.222
G0 F2625 X23.527 Y46.862
G1 F900 X60.129 Y83.464 E231.43777
G1 X60.217 Y83.552
G0 F2625 X60.836 Y83.464
G1 F900 X23.786 Y46.413 E233.18315
G1 X23.698 Y46.325
G0 F2625 X24.045 Y45.965
G1 F900 X61.543 Y83.464 E234.94963
G1 X61.631 Y83.552
G0 F2625 X62.25 Y83.464
G1 F900 X24.303 Y45.517 E236.73723
G1 X24.215 Y45.429
G0 F2625 X24.562 Y45.068
G1 F900 X62.957 Y83.464 E238.54597
G1 X63.045 Y83.552
G0 F2625 X63.665 Y83.464
G1 F900 X24.821 Y44.62 E240.37583
G1 X24.733 Y44.532
G0 F2625 X25.08 Y44.172
G1 F900 X64.372 Y83.464 E242.22679
G1 X64.46 Y83.552
G0 F2625 X65.079 Y83.464
G1 F900 X25.339 Y43.723 E244.09889
G1 X25.251 Y43.635
G0 F2625 X25.598 Y43.276
G1 F900 X65.786 Y83.464 E245.99206
G1 X65.874 Y83.552
G0 F2625 X66.493 Y83.464
G1 F900 X25.857 Y42.828 E247.90634
G1 X25.769 Y42.74
G0 F2625 X26.116 Y42.379
G1 F900 X67.2 Y83.464 E249.84175
G1 X67.288 Y83.552
G0 F2625 X67.907 Y83.464
G1 F900 X26.375 Y41.931 E251.79826
G1 X26.287 Y41.843
G0 F2625 X26.633 Y41.483
G1 F900 X57.506 Y72.355 E253.2526
G1 X57.594 Y72.443
G0 F2625 X57.506 Y71.648
G1 F900 X26.892 Y41.034 E254.69476
G1 X26.804 Y40.946
G0 F2625 X27.151 Y40.586
G1 F900 X57.506 Y70.941 E256.12473
G1 X57.594 Y71.029
G0 F2625 X57.506 Y70.234
G1 F900 X27.41 Y40.138 E257.54249
G1 X27.322 Y40.05
G0 F2625 X27.669 Y39.689
G1 F900 X57.506 Y69.526 E258.94805
G1 X57.594 Y69.614
G0 F2625 X57.506 Y68.819
G1 F900 X27.927 Y39.241 E260.34143
G1 X27.839 Y39.153
G0 F2625 X28.186 Y38.793
G1 F900 X57.506 Y68.112 E261.72261
G1 X57.594 Y68.2
G0 F2625 X57.506 Y67.405
G1 F900 X28.445 Y38.344 E263.09162
G1 X28.357 Y38.256
G0 F2625 X28.704 Y37.897
G1 F900 X57.506 Y66.698 E264.4484
G1 X57.594 Y66.786
G0 F2625 X57.506 Y65.991
G1 F900 X28.963 Y37.449 E265.79298
G1 X28.875 Y37.361
G0 F2625 X29.222 Y37
G1 F900 X57.506 Y65.284 E267.12538
G1 X57.594 Y65.372
G0 F2625 X57.506 Y64.577
G1 F900 X29.481 Y36.552 E268.44558
G1 X29.393 Y36.464
G0 F2625 X29.74 Y36.104
G1 F900 X57.506 Y63.87 E269.75358
G1 X57.594 Y63.958
G0 F2625 X57.506 Y63.163
G1 F900 X29.999 Y35.655 E271.0494
G1 X29.911 Y35.567
G0 F2625 X30.257 Y35.207
G1 F900 X57.506 Y62.455 E272.33302
G1 X57.594 Y62.543
G0 F2625 X57.506 Y61.748
G1 F900 X30.516 Y34.759 E273.60444
G1 X30.428 Y34.671
G0 F2625 X30.775 Y34.31
G1 F900 X57.506 Y61.041 E274.86368
G1 X57.594 Y61.129
G0 F2625 X57.506 Y60.334
G1 F900 X31.034 Y33.862 E276.11073
G1 X30.946 Y33.774
G0 F2625 X31.293 Y33.414
G1 F900 X57.506 Y59.627 E277.34557
G1 X57.594 Y59.715
G0 F2625 X57.897 Y59.312
G1 F900 X31.551 Y32.966 E278.58667
G1 X31.463 Y32.878
G0 F2625 X31.81 Y32.517
G1 F900 X58.605 Y59.312 E279.84893
G1 X58.693 Y59.4
G0 F2625 X59.312 Y59.312
G1 F900 X32.07 Y32.07 E281.13225
G1 X31.982 Y31.982
G0 F2625 X32.328 Y31.621
G1 F900 X60.019 Y59.312 E282.43671
G1 X60.107 Y59.4
G0 F2625 X60.726 Y59.312
G1 F900 X32.587 Y31.173 E283.76228
G1 X32.499 Y31.085
G0 F2625 X32.846 Y30.725
G1 F900 X61.433 Y59.312 E285.10896
G1 X61.521 Y59.4
G0 F2625 X62.14 Y59.312
G1 F900 X33.105 Y30.276 E286.47676
G1 X33.017 Y30.188
G0 F2625 X33.364 Y29.828
G1 F900 X62.847 Y59.312 E287.86567
G1 X62.935 Y59.4
G0 F2625 X63.554 Y59.312
G1 F900 X33.622 Y29.38 E289.27571
G1 X33.534 Y29.292
G0 F2625 X33.881 Y28.931
G1 F900 X64.261 Y59.312 E290.70687
G1 X64.349 Y59.4
G0 F2625 X64.968 Y59.312
G1 F900 X34.14 Y28.483 E292.15914
G1 X34.052 Y28.395
G0 F2625 X34.399 Y28.035
G1 F900 X65.676 Y59.312 E293.63253
G1 X65.764 Y59.4
G0 F2625 X66.383 Y59.312
G1 F900 X34.658 Y27.587 E295.12703
G1 X34.57 Y27.499
G0 F2625 X34.916 Y27.138
G1 F900 X67.09 Y59.312 E296.64269
G1 X67.178 Y59.4
G0 F2625 X67.797 Y59.312
G1 F900 X35.176 Y26.691 E298.17939
G1 X35.088 Y26.603
G0 F2625 X35.435 Y26.242
G1 F900 X68.504 Y59.312 E299.73723
G1 X68.592 Y59.4
G0 F2625 X69.211 Y59.312
G1 F900 X35.694 Y25.794 E301.31617
G1 X35.606 Y25.706
G0 F2625 X35.952 Y25.346
G1 F900 X69.918 Y59.312 E302.91624
G1 X70.006 Y59.4
G0 F2625 X70.625 Y59.312
G1 F900 X36.211 Y24.897 E304.53744
G1 X36.123 Y24.809
G0 F2625 X36.47 Y24.449
G1 F900 X71.332 Y59.312 E306.17974
G1 X71.42 Y59.4
G0 F2625 X72.04 Y59.312
G1 F900 X36.729 Y24.001 E307.84317
G1 X36.641 Y23.913
G0 F2625 X36.988 Y23.553
G1 F900 X72.747 Y59.312 E309.5277
G1 X72.835 Y59.4
G0 F2625 X73.454 Y59.312
G1 F900 X37.246 Y23.104 E311.23339
G1 X37.158 Y23.016
G0 F2625 X37.505 Y22.656
G1 F900 X74.161 Y59.312 E312.96018
G1 X74.249 Y59.4
G0 F2625 X74.868 Y59.312
G1 F900 X37.764 Y22.208 E314.70807
G1 X37.676 Y22.12
G0 F2625 X38.023 Y21.759
G1 F900 X75.575 Y59.312 E316.47709
G1 X75.663 Y59.4
G0 F2625 X76.282 Y59.312
G1 F900 X38.282 Y21.312 E318.2672
G1 X38.194 Y21.224
G0 F2625 X38.541 Y20.863
G1 F900 X76.989 Y59.312 E320.07843
G1 X77.077 Y59.4
G0 F2625 X77.696 Y59.312
G1 F900 X38.8 Y20.415 E321.91076
G1 X38.712 Y20.327
G0 F2625 X39.059 Y19.967
G1 F900 X78.403 Y59.312 E323.7642
G1 X78.491 Y59.4
G0 F2625 X79.111 Y59.312
G1 F900 X39.317 Y19.518 E325.63881
G1 X39.229 Y19.43
G0 F2625 X39.576 Y19.07
G1 F900 X79.818 Y59.312 E327.53453
G1 X79.906 Y59.4
G0 F2625 X80.525 Y59.312
G1 F900 X39.835 Y18.622 E329.45136
G1 X39.747 Y18.534
G0 F2625 X40.094 Y18.174
G1 F900 X81.232 Y59.312 E331.38928
G1 X81.32 Y59.4
G0 F2625 X81.939 Y59.312
G1 F900 X40.353 Y17.725 E333.34834
G1 X40.265 Y17.637
G0 F2625 X40.7 Y17.365
G1 F900 X82.646 Y59.312 E335.32435
G1 X82.734 Y59.4
G0 F2625 X83.353 Y59.312
G1 F900 X41.407 Y17.365 E337.30037
G1 X41.319 Y17.277
G0 F2625 X42.114 Y17.365
G1 F900 X84.06 Y59.312 E339.27638
G1 X84.148 Y59.4
G0 F2625 X84.767 Y59.312
G1 F900 X42.821 Y17.365 E341.2524
G1 X42.733 Y17.277
G0 F2625 X43.528 Y17.365
G1 F900 X85.475 Y59.312 E343.22843
G1 X85.563 Y59.4
G0 F2625 X86.182 Y59.312
G1 F900 X44.235 Y17.365 E345.20447
G1 X44.147 Y17.277
G0 F2625 X44.942 Y17.365
G1 F900 X86.889 Y59.312 E347.18051
G1 X86.977 Y59.4
G0 F2625 X87.596 Y59.312
G1 F900 X45.65 Y17.365 E349.15652
G1 X45.562 Y17.277
G0 F2625 X46.357 Y17.365
G1 F900 X88.303 Y59.312 E351.13254
G1 X88.391 Y59.4
G0 F2625 X89.01 Y59.312
G1 F900 X47.064 Y17.365 E353.10855
G1 X46.976 Y17.277
G0 F2625 X47.771 Y17.365
G1 F900 X89.717 Y59.312 E355.08457
G1 X89.805 Y59.4
G0 F2625 X90.424 Y59.312
G1 F900 X48.478 Y17.365 E357.06058
G1 X48.39 Y17.277
G0 F2625 X49.185 Y17.365
G1 F900 X91.131 Y59.312 E359.03659
G1 X91.219 Y59.4
G0 F2625 X91.839 Y59.312
G1 F900 X49.892 Y17.365 E361.01263
G1 X49.804 Y17.277
G0 F2625 X50.599 Y17.365
G1 F900 X92.546 Y59.312 E362.98867
G1 X92.634 Y59.4
G0 F2625 X93.253 Y59.312
G1 F900 X51.306 Y17.365 E364.96471
G1 X51.218 Y17.277
G0 F2625 X52.014 Y17.365
G1 F900 X93.96 Y59.312 E366.94072
G1 X94.048 Y59.4
G0 F2625 X94.667 Y59.312
G1 F900 X52.721 Y17.365 E368.91674
G1 X52.633 Y17.277
G0 F2625 X53.428 Y17.365
G1 F900 X132.595 Y96.532 E372.64613
G1 X132.683 Y96.62
G0 F2625 X132.854 Y96.084
G1 F900 X54.135 Y17.365 E376.35442
G1 X54.047 Y17.277
G0 F2625 X54.842 Y17.365
G1 F900 X133.112 Y95.636 E380.04159
G1 X133.2 Y95.724
