;Generated by Cura LulzBot Edition GCodeWriter Version: 2.6.66
;FLAVOR:RepRap
;TIME:1486
;Filament used: 0.730353m
;Layer height: 0.38
;Generated with Cura_SteamEngine 2.6.66
;This G-Code has been generated specifically for the LulzBot Mini with standard extruder
G26 ; clear potential 'probe fail' condition
G21 ; set units to Millimetres
M107 ; disable fans
G90 ; absolute positioning
M82 ; set extruder to absolute mode
G92 E0 ; set extruder position to 0
M140 S60 ; start bed heating up
G28 ; home all axes
G0 X0 Y187 Z156 F200 ; move away from endstops
M109 R140 ;
G1 E-30 F75 ; retract filament
M109 R140 ; wait for extruder to reach wiping temp
G1 X45 Y173 F11520 ; move above wiper pad
G1 Z0 F1200 ; push nozzle into wiper
G1 X42 Y173 Z-.5 F4000             ; wiping
G1 X52 Y171 Z-.5 F4000             ; wiping
G1 X42 Y173 Z0 F4000               ; wiping
G1 X52 Y171 F4000                  ; wiping
G1 X42 Y173 F4000                  ; wiping
G1 X52 Y171 F4000                  ; wiping
G1 X42 Y173 F4000                  ; wiping
G1 X52 Y171 F4000                  ; wiping
G1 X57 Y173 F4000                  ; wiping
G1 X77 Y171 F4000                  ; wiping
G1 X57 Y173 F4000                  ; wiping
G1 X77 Y171 F4000                  ; wiping
G1 X57 Y173 F4000                  ; wiping
G1 X87 Y171 F4000                  ; wiping
G1 X77 Y173 F4000                  ; wiping
G1 X97 Y171 F4000                  ; wiping
G1 X77 Y173 F4000                  ; wiping
G1 X97 Y171 F4000                  ; wiping
G1 X77 Y173 F4000                  ; wiping
G1 X97 Y171 F4000                  ; wiping
G1 X107 Y173 F4000                 ; wiping
G1 X97 Y171 F4000                  ; wiping
G1 X107 Y173 F4000                 ; wiping
G1 X97 Y171 F4000                  ; wiping
G1 X107 Y173 F4000                 ; wiping
G1 X112 Y171 Z-0.5 F1000           ; wiping
G1 Z10 ; raise extruder
G28 X0 Y0 ; home X and Y
G0 X0 Y187 F200 ; move away from endstops
M109 R140 ; wait for extruder to reach probe temp
M204 S300 ; set probing acceleration
G29 ; start auto-leveling sequence
M204 S2000 ; restore standard acceleration
G28 X0 Y0 ; re-home to account for build variance of earlier mini builds
G0 X0 Y187 F200 ; move away from endstops
G0 Y152 F4000 ; move in front of wiper pad
G4 S1 ; pause
M400 ; wait for moves to finish
M117 Heating... ; progress indicator message on LCD
M109 R205 ; wait for extruder to reach printing temp
M190 S60 ; wait for bed to reach printing temp
G1 Z2 E0 F75 ; prime tiny bit of filament into the nozzle
M117 Mini Printing... ; progress indicator message on LCD

M221 S100
;LAYER_COUNT:1
;LAYER:0
M107
G0 F2625 X44.433 Y17.141 Z0.425
;TYPE:WALL-INNER
G1 F900 X113.567 Y17.141 E2.30288
G1 X148.135 Y77 E4.6054
G1 X113.567 Y136.859 E6.90793
G1 X44.433 Y136.859 E9.21081
G1 X9.865 Y77 E11.51333
G1 X44.433 Y17.141 E13.81586
G0 F2625 X44.482 Y17.227
G0 X57.881 Y48.439
G0 X57.951 Y48.509
G1 F900 X57.951 Y48.759 E13.82419
G1 X57.951 Y71.199 E14.57167
G1 X50.784 Y71.199 E14.81041
G1 X50.784 Y82.252 E15.17859
G1 X57.951 Y82.252 E15.41732
G1 X57.951 Y104.829 E16.16937
G1 X57.951 Y104.83 E16.1694
G1 X57.951 Y105.084 E16.17786
G1 X58.205 Y105.079 E16.18331
G1 X72.602 Y104.762 E16.663
G1 X75.987 Y104.679 E16.77579
G1 X78.947 Y104.583 E16.87444
G1 X81.526 Y104.467 E16.96043
G1 X83.773 Y104.325 E17.03543
G1 X85.736 Y104.148 E17.10108
G1 X87.459 Y103.93 E17.15893
G1 X88.989 Y103.661 E17.21068
G1 X90.372 Y103.336 E17.258
G1 X91.648 Y102.946 E17.30245
G1 X92.857 Y102.487 E17.34553
G1 X94.042 Y101.954 E17.38881
G1 X95.25 Y101.34 E17.43395
G1 X96.487 Y100.634 E17.48139
G1 X97.652 Y99.864 E17.52791
G1 X98.748 Y99.023 E17.57392
G1 X99.778 Y98.106 E17.61986
G1 X100.745 Y97.106 E17.6662
G1 X101.655 Y96.017 E17.71347
G1 X102.512 Y94.833 E17.76216
G1 X103.323 Y93.55 E17.81272
G1 X104.094 Y92.16 E17.86566
G1 X104.831 Y90.655 E17.92149
G1 X105.54 Y89.03 E17.98054
G1 X106.23 Y87.27 E18.04351
G1 X106.404 Y86.755 E18.06162
G1 X106.56 Y86.191 E18.08111
G1 X106.696 Y85.581 E18.10193
G1 X106.816 Y84.918 E18.12437
G1 X106.917 Y84.196 E18.14866
G1 X107.004 Y83.411 E18.17497
G1 X107.074 Y82.557 E18.20351
G1 X107.13 Y81.628 E18.23451
G1 X107.174 Y80.618 E18.26819
G1 X107.203 Y79.521 E18.30474
G1 X107.221 Y78.333 E18.34432
G1 X107.226 Y77.048 E18.38712
G1 X107.222 Y75.516 E18.43815
G1 X107.206 Y74.166 E18.48313
G1 X107.175 Y72.973 E18.52288
G1 X107.124 Y71.906 E18.55846
G1 X107.051 Y70.942 E18.59066
G1 X106.952 Y70.054 E18.62043
G1 X106.82 Y69.219 E18.64859
G1 X106.657 Y68.414 E18.67595
G1 X106.455 Y67.613 E18.70346
G1 X106.215 Y66.798 E18.73176
G1 X105.934 Y65.942 E18.76177
G1 X105.607 Y65.013 E18.79458
G1 X105.018 Y63.477 E18.84938
G1 X104.392 Y62.039 E18.90162
G1 X103.724 Y60.695 E18.95161
G1 X103.004 Y59.438 E18.99987
G1 X102.228 Y58.261 E19.04683
G1 X101.387 Y57.157 E19.09306
G1 X100.477 Y56.118 E19.13907
G1 X99.491 Y55.14 E19.18533
G1 X98.425 Y54.212 E19.2324
G1 X97.272 Y53.327 E19.28082
G1 X96.028 Y52.479 E19.33097
G1 X94.681 Y51.653 E19.3836
G1 X93.595 Y51.066 E19.42473
G1 X92.458 Y50.548 E19.46634
G1 X91.24 Y50.103 E19.50954
G1 X89.918 Y49.725 E19.55534
G1 X88.458 Y49.409 E19.6051
G1 X86.83 Y49.152 E19.66
G1 X85.003 Y48.948 E19.72124
G1 X82.944 Y48.79 E19.79002
G1 X80.616 Y48.674 E19.86767
G1 X77.987 Y48.596 E19.95528
G1 X75.023 Y48.55 E20.05402
G1 X70.272 Y48.529 E20.21228
G1 X58.201 Y48.509 E20.61437
G1 X57.951 Y48.509 E20.61976
G0 F2625 X58.451 Y49.01
;TYPE:WALL-OUTER
G1 F900 X58.451 Y49.26 E20.62809
G1 X58.451 Y71.699 E21.37554
G1 X51.284 Y71.699 E21.61427
G1 X51.284 Y81.752 E21.94914
G1 X58.451 Y81.752 E22.18788
G1 X58.451 Y104.318 E22.93956
G1 X58.451 Y104.319 E22.93959
G1 X58.451 Y104.573 E22.94805
G1 X58.705 Y104.568 E22.9535
G1 X72.59 Y104.262 E23.41613
G1 X75.973 Y104.179 E23.52885
G1 X78.928 Y104.083 E23.62733
G1 X81.499 Y103.968 E23.71306
G1 X83.735 Y103.826 E23.78769
G1 X85.682 Y103.651 E23.85281
G1 X87.384 Y103.435 E23.90996
G1 X88.889 Y103.171 E23.96086
G1 X90.242 Y102.853 E24.00715
G1 X91.486 Y102.473 E24.05048
G1 X92.666 Y102.025 E24.09253
G1 X93.826 Y101.503 E24.1349
G1 X95.013 Y100.9 E24.17925
G1 X96.225 Y100.208 E24.22574
G1 X97.362 Y99.457 E24.27113
G1 X98.429 Y98.638 E24.31593
G1 X99.431 Y97.745 E24.36064
G1 X100.373 Y96.771 E24.40578
G1 X101.26 Y95.71 E24.45184
G1 X102.098 Y94.553 E24.49943
G1 X102.893 Y93.295 E24.549
G1 X103.651 Y91.929 E24.60104
G1 X104.377 Y90.445 E24.65607
G1 X105.078 Y88.839 E24.71444
G1 X105.76 Y87.099 E24.77669
G1 X105.926 Y86.608 E24.79396
G1 X106.075 Y86.07 E24.81255
G1 X106.206 Y85.482 E24.83262
G1 X106.322 Y84.839 E24.85438
G1 X106.421 Y84.134 E24.8781
G1 X106.506 Y83.363 E24.90394
G1 X106.575 Y82.521 E24.93208
G1 X106.631 Y81.602 E24.96275
G1 X106.674 Y80.601 E24.99612
G1 X106.703 Y79.511 E25.03244
G1 X106.721 Y78.328 E25.07185
G1 X106.726 Y77.048 E25.11449
G1 X106.722 Y75.52 E25.16539
G1 X106.706 Y74.176 E25.21016
G1 X106.675 Y72.991 E25.24965
G1 X106.625 Y71.937 E25.2848
G1 X106.553 Y70.989 E25.31646
G1 X106.456 Y70.121 E25.34556
G1 X106.328 Y69.308 E25.37297
G1 X106.169 Y68.525 E25.39959
G1 X105.973 Y67.745 E25.42638
G1 X105.738 Y66.947 E25.45409
G1 X105.461 Y66.103 E25.48368
G1 X105.138 Y65.186 E25.51606
G1 X104.555 Y63.666 E25.57029
G1 X103.939 Y62.25 E25.62173
G1 X103.283 Y60.931 E25.6708
G1 X102.578 Y59.7 E25.71805
G1 X101.82 Y58.55 E25.76393
G1 X101 Y57.474 E25.80899
G1 X100.112 Y56.461 E25.85387
G1 X99.15 Y55.506 E25.89902
G1 X98.108 Y54.599 E25.94504
G1 X96.979 Y53.732 E25.99245
G1 X95.756 Y52.899 E26.04174
G1 X94.431 Y52.086 E26.09353
G1 X93.372 Y51.514 E26.13362
G1 X92.268 Y51.011 E26.17403
G1 X91.085 Y50.579 E26.21598
G1 X89.796 Y50.21 E26.26064
G1 X88.366 Y49.901 E26.30938
G1 X86.763 Y49.648 E26.36344
G1 X84.956 Y49.446 E26.424
G1 X82.912 Y49.289 E26.49229
G1 X80.596 Y49.174 E26.56953
G1 X77.976 Y49.096 E26.65684
G1 X75.018 Y49.05 E26.75539
G1 X70.27 Y49.029 E26.91355
G1 X58.701 Y49.01 E27.29891
G1 X58.451 Y49.01 E27.3043
G0 F2625 X58.451 Y49.26
G0 X57.851 Y49.26
G0 X44.482 Y17.227
G0 X44.144 Y16.641
G1 F900 X113.856 Y16.641 E29.62643
G1 X148.712 Y77 E31.94818
G1 X113.856 Y137.359 E34.26993
G1 X44.144 Y137.359 E36.59206
G1 X9.288 Y77 E38.9138
G1 X44.144 Y16.641 E41.23555
G0 F2625 X44.394 Y16.641
G0 X44.942 Y17.365
;TYPE:SKIN
G1 F900 X75.914 Y48.337 E42.69458
G1 X76.002 Y48.425
G0 F2625 X75.196 Y48.326
G1 F900 X44.442 Y17.572 E44.14334
G1 X44.354 Y17.484
G0 F2625 X44.183 Y18.02
G1 F900 X74.484 Y48.321 E45.57076
G1 X74.572 Y48.409
G0 F2625 X73.774 Y48.318
G1 F900 X43.924 Y18.468 E46.97693
G1 X43.836 Y18.38
G0 F2625 X43.665 Y18.917
G1 F900 X73.064 Y48.315 E48.36183
G1 X73.152 Y48.403
G0 F2625 X72.353 Y48.312
G1 F900 X43.407 Y19.365 E49.72544
G1 X43.319 Y19.277
G0 F2625 X43.148 Y19.813
G1 F900 X71.644 Y48.309 E51.06783
G1 X71.732 Y48.397
G0 F2625 X70.934 Y48.306
G1 F900 X42.889 Y20.262 E52.38895
G1 X42.801 Y20.174
G0 F2625 X42.63 Y20.71
G1 F900 X70.223 Y48.303 E53.6888
G1 X70.311 Y48.391
G0 F2625 X69.515 Y48.302
G1 F900 X42.371 Y21.158 E54.9675
G1 X42.283 Y21.07
G0 F2625 X42.113 Y21.607
G1 F900 X68.807 Y48.301 E56.225
G1 X68.895 Y48.389
G0 F2625 X68.098 Y48.299
G1 F900 X41.853 Y22.054 E57.46135
G1 X41.765 Y21.966
G0 F2625 X41.594 Y22.502
G1 F900 X67.39 Y48.298 E58.67654
G1 X67.478 Y48.386
G0 F2625 X66.682 Y48.297
G1 F900 X41.336 Y22.951 E59.87054
G1 X41.248 Y22.863
G0 F2625 X41.077 Y23.399
G1 F900 X65.973 Y48.296 E61.04337
G1 X66.061 Y48.384
G0 F2625 X65.265 Y48.295
G1 F900 X40.818 Y23.847 E62.19504
G1 X40.73 Y23.759
G0 F2625 X40.559 Y24.296
G1 F900 X64.557 Y48.293 E63.32551
G1 X64.645 Y48.381
G0 F2625 X63.848 Y48.292
G1 F900 X40.3 Y24.744 E64.43481
G1 X40.212 Y24.656
G0 F2625 X40.042 Y25.192
G1 F900 X63.14 Y48.291 E65.52293
G1 X63.228 Y48.379
G0 F2625 X62.432 Y48.29
G1 F900 X39.783 Y25.641 E66.58988
G1 X39.695 Y25.553
G0 F2625 X39.524 Y26.089
G1 F900 X61.724 Y48.289 E67.63568
G1 X61.812 Y48.377
G0 F2625 X61.015 Y48.287
G1 F900 X39.265 Y26.537 E68.66028
G1 X39.177 Y26.449
G0 F2625 X39.006 Y26.985
G1 F900 X60.307 Y48.286 E69.66372
G1 X60.395 Y48.374
G0 F2625 X59.599 Y48.285
G1 F900 X38.747 Y27.433 E70.64602
G1 X38.659 Y27.345
G0 F2625 X38.488 Y27.881
G1 F900 X58.89 Y48.284 E71.60714
G1 X58.978 Y48.372
G0 F2625 X58.182 Y48.283
G1 F900 X38.229 Y28.33 E72.54708
G1 X38.141 Y28.242
G0 F2625 X37.97 Y28.778
G1 F900 X57.726 Y48.533 E73.47772
G1 X57.814 Y48.621
G0 F2625 X57.726 Y49.24
G1 F900 X37.712 Y29.226 E74.42054
G1 X37.624 Y29.138
G0 F2625 X37.453 Y29.675
G1 F900 X57.726 Y49.947 E75.37554
G1 X57.814 Y50.035
G0 F2625 X57.726 Y50.655
G1 F900 X37.194 Y30.123 E76.34276
G1 X37.106 Y30.035
G0 F2625 X36.935 Y30.571
G1 F900 X57.726 Y51.362 E77.32218
G1 X57.814 Y51.45
G0 F2625 X57.726 Y52.069
G1 F900 X36.676 Y31.02 E78.31378
G1 X36.588 Y30.932
G0 F2625 X36.418 Y31.468
G1 F900 X57.726 Y52.776 E79.31756
G1 X57.814 Y52.864
G0 F2625 X57.726 Y53.483
G1 F900 X36.158 Y31.915 E80.33358
G1 X36.07 Y31.827
G0 F2625 X35.899 Y32.364
G1 F900 X57.726 Y54.19 E81.36178
G1 X57.814 Y54.278
G0 F2625 X57.726 Y54.897
G1 F900 X35.641 Y32.812 E82.40216
G1 X35.553 Y32.724
G0 F2625 X35.382 Y33.26
G1 F900 X57.726 Y55.604 E83.45474
G1 X57.814 Y55.692
G0 F2625 X57.726 Y56.311
G1 F900 X35.123 Y33.709 E84.5195
G1 X35.035 Y33.621
G0 F2625 X34.864 Y34.157
G1 F900 X57.726 Y57.018 E85.59646
G1 X57.814 Y57.106
G0 F2625 X57.726 Y57.726
G1 F900 X34.605 Y34.605 E86.68564
G1 X34.517 Y34.517
G0 F2625 X34.347 Y35.054
G1 F900 X57.726 Y58.433 E87.78698
G1 X57.814 Y58.521
G0 F2625 X57.726 Y59.14
G1 F900 X34.088 Y35.502 E88.90052
G1 X34 Y35.414
G0 F2625 X33.829 Y35.95
G1 F900 X57.726 Y59.847 E90.02626
G1 X57.814 Y59.935
G0 F2625 X57.726 Y60.554
G1 F900 X33.57 Y36.399 E91.16417
G1 X33.482 Y36.311
G0 F2625 X33.311 Y36.846
G1 F900 X57.726 Y61.261 E92.31432
G1 X57.814 Y61.349
G0 F2625 X57.726 Y61.968
G1 F900 X33.052 Y37.294 E93.47666
G1 X32.964 Y37.206
G0 F2625 X32.793 Y37.743
G1 F900 X57.726 Y62.675 E94.65118
G1 X57.814 Y62.763
G0 F2625 X57.726 Y63.382
G1 F900 X32.534 Y38.191 E95.8379
G1 X32.446 Y38.103
G0 F2625 X32.275 Y38.639
G1 F900 X57.726 Y64.09 E97.03684
G1 X57.814 Y64.178
G0 F2625 X57.726 Y64.797
G1 F900 X32.017 Y39.088 E98.24794
G1 X31.929 Y39
G0 F2625 X31.758 Y39.536
G1 F900 X57.726 Y65.504 E99.47124
G1 X57.814 Y65.592
G0 F2625 X57.726 Y66.211
G1 F900 X31.499 Y39.984 E100.70674
G1 X31.411 Y39.896
G0 F2625 X31.24 Y40.433
G1 F900 X57.726 Y66.918 E101.95442
G1 X57.814 Y67.006
G0 F2625 X57.726 Y67.625
G1 F900 X30.981 Y40.881 E103.2143
G1 X30.893 Y40.793
G0 F2625 X30.723 Y41.329
G1 F900 X57.726 Y68.332 E104.48635
G1 X57.814 Y68.42
G0 F2625 X57.726 Y69.039
G1 F900 X30.463 Y41.777 E105.77063
G1 X30.375 Y41.689
G0 F2625 X30.204 Y42.225
G1 F900 X57.726 Y69.746 E107.06712
G1 X57.814 Y69.834
G0 F2625 X57.726 Y70.453
G1 F900 X29.945 Y42.673 E108.3758
G1 X29.857 Y42.585
G0 F2625 X29.687 Y43.122
G1 F900 X57.537 Y70.973 E109.68778
G1 X57.625 Y71.061
G0 F2625 X56.83 Y70.973
G1 F900 X29.428 Y43.57 E110.97866
G1 X29.34 Y43.482
G0 F2625 X29.169 Y44.018
G1 F900 X56.123 Y70.973 E112.24843
G1 X56.211 Y71.061
G0 F2625 X55.416 Y70.973
G1 F900 X28.91 Y44.467 E113.49707
G1 X28.822 Y44.379
G0 F2625 X28.651 Y44.915
G1 F900 X54.709 Y70.973 E114.72461
G1 X54.797 Y71.061
G0 F2625 X54.002 Y70.973
G1 F900 X28.393 Y45.363 E115.93102
G1 X28.305 Y45.275
G0 F2625 X28.134 Y45.812
G1 F900 X53.295 Y70.973 E117.1163
G1 X53.383 Y71.061
G0 F2625 X52.588 Y70.973
G1 F900 X27.875 Y46.26 E118.28048
G1 X27.787 Y46.172
G0 F2625 X27.616 Y46.707
G1 F900 X51.881 Y70.973 E119.42358
G1 X51.969 Y71.061
G0 F2625 X51.174 Y70.973
G1 F900 X27.357 Y47.156 E120.54555
G1 X27.269 Y47.068
G0 F2625 X27.098 Y47.604
G1 F900 X50.558 Y71.064 E121.65071
G1 X50.646 Y71.152
G0 F2625 X50.558 Y71.772
G1 F900 X26.839 Y48.052 E122.76808
G1 X26.751 Y47.964
G0 F2625 X26.58 Y48.501
G1 F900 X50.558 Y72.479 E123.89764
G1 X50.646 Y72.567
G0 F2625 X50.558 Y73.186
G1 F900 X26.322 Y48.949 E125.03937
G1 X26.234 Y48.861
G0 F2625 X26.063 Y49.397
G1 F900 X50.558 Y73.893 E126.1933
G1 X50.646 Y73.981
G0 F2625 X50.558 Y74.6
G1 F900 X25.804 Y49.846 E127.35941
G1 X25.716 Y49.758
G0 F2625 X25.545 Y50.294
G1 F900 X50.558 Y75.307 E128.53772
G1 X50.646 Y75.395
G0 F2625 X50.558 Y76.014
G1 F900 X25.286 Y50.742 E129.72824
G1 X25.198 Y50.654
G0 F2625 X25.028 Y51.19
G1 F900 X50.558 Y76.721 E130.93093
G1 X50.646 Y76.809
G0 F2625 X50.558 Y77.428
G1 F900 X24.768 Y51.638 E132.14584
G1 X24.68 Y51.55
G0 F2625 X24.509 Y52.086
G1 F900 X50.558 Y78.136 E133.37298
G1 X50.646 Y78.224
G0 F2625 X50.558 Y78.843
G1 F900 X24.25 Y52.535 E134.6123
G1 X24.162 Y52.447
G0 F2625 X23.992 Y52.983
G1 F900 X50.558 Y79.55 E135.86379
G1 X50.646 Y79.638
G0 F2625 X50.558 Y80.257
G1 F900 X23.733 Y53.431 E137.12749
G1 X23.645 Y53.343
G0 F2625 X23.474 Y53.88
G1 F900 X50.558 Y80.964 E138.40336
G1 X50.646 Y81.052
G0 F2625 X50.558 Y81.671
G1 F900 X23.215 Y54.328 E139.69143
G1 X23.127 Y54.24
G0 F2625 X22.956 Y54.776
G1 F900 X50.558 Y82.378 E140.9917
G1 X50.646 Y82.466
G0 F2625 X50.656 Y82.476
G1 F900 X57.726 Y89.545 E141.32473
G1 X57.814 Y89.633
G0 F2625 X57.726 Y88.838
G1 F900 X51.363 Y82.476 E141.62446
G1 X51.275 Y82.388
G0 F2625 X52.07 Y82.476
G1 F900 X57.726 Y88.131 E141.89088
G1 X57.814 Y88.219
G0 F2625 X57.726 Y87.424
G1 F900 X52.777 Y82.476 E142.12399
G1 X52.689 Y82.388
G0 F2625 X53.484 Y82.476
G1 F900 X57.726 Y86.717 E142.3238
G1 X57.814 Y86.805
G0 F2625 X57.726 Y86.01
G1 F900 X54.191 Y82.476 E142.4903
G1 X54.103 Y82.388
G0 F2625 X54.899 Y82.476
G1 F900 X57.726 Y85.303 E142.62348
G1 X57.814 Y85.391
G0 F2625 X57.726 Y84.596
G1 F900 X55.606 Y82.476 E142.72335
G1 X55.518 Y82.388
G0 F2625 X56.313 Y82.476
G1 F900 X57.726 Y83.889 E142.78991
G1 X57.814 Y83.977
G0 F2625 X57.726 Y83.181
G1 F900 X57.02 Y82.476 E142.82314
G0 F2625 X57.726 Y90.252
G1 F900 X22.698 Y55.225 E144.47322
G1 X22.61 Y55.137
G0 F2625 X22.439 Y55.673
G1 F900 X57.726 Y90.96 E146.13552
G1 X57.814 Y91.048
G0 F2625 X57.726 Y91.667
G1 F900 X22.18 Y56.121 E147.81002
G1 X22.092 Y56.033
G0 F2625 X21.921 Y56.569
G1 F900 X57.726 Y92.374 E149.49672
G1 X57.814 Y92.462
G0 F2625 X57.726 Y93.081
G1 F900 X21.662 Y57.017 E151.19562
G1 X21.574 Y56.929
G0 F2625 X21.403 Y57.465
