;Generated by Cura LulzBot Edition GCodeWriter Version: 2.6.66
;FLAVOR:RepRap
;TIME:1408
;Filament used: 0.986042m
;Layer height: 0.38
;Generated with Cura_SteamEngine 2.6.66
;This G-Code has been generated specifically for the LulzBot Mini with standard extruder
G26 ; clear potential 'probe fail' condition
G21 ; set units to Millimetres
M107 ; disable fans
G90 ; absolute positioning
M82 ; set extruder to absolute mode
G92 E0 ; set extruder position to 0
M140 S60 ; start bed heating up
G28 ; home all axes
G0 X0 Y187 Z156 F200 ; move away from endstops
M109 R140 ;
G1 E-30 F75 ; retract filament
M109 R140 ; wait for extruder to reach wiping temp
G1 X45 Y173 F11520 ; move above wiper pad
G1 Z0 F1200 ; push nozzle into wiper
G1 X42 Y173 Z-.5 F4000             ; wiping
G1 X52 Y171 Z-.5 F4000             ; wiping
G1 X42 Y173 Z0 F4000               ; wiping
G1 X52 Y171 F4000                  ; wiping
G1 X42 Y173 F4000                  ; wiping
G1 X52 Y171 F4000                  ; wiping
G1 X42 Y173 F4000                  ; wiping
G1 X52 Y171 F4000                  ; wiping
G1 X57 Y173 F4000                  ; wiping
G1 X77 Y171 F4000                  ; wiping
G1 X57 Y173 F4000                  ; wiping
G1 X77 Y171 F4000                  ; wiping
G1 X57 Y173 F4000                  ; wiping
G1 X87 Y171 F4000                  ; wiping
G1 X77 Y173 F4000                  ; wiping
G1 X97 Y171 F4000                  ; wiping
G1 X77 Y173 F4000                  ; wiping
G1 X97 Y171 F4000                  ; wiping
G1 X77 Y173 F4000                  ; wiping
G1 X97 Y171 F4000                  ; wiping
G1 X107 Y173 F4000                 ; wiping
G1 X97 Y171 F4000                  ; wiping
G1 X107 Y173 F4000                 ; wiping
G1 X97 Y171 F4000                  ; wiping
G1 X107 Y173 F4000                 ; wiping
G1 X112 Y171 Z-0.5 F1000           ; wiping
G1 Z10 ; raise extruder
G28 X0 Y0 ; home X and Y
G0 X0 Y187 F200 ; move away from endstops
M109 R140 ; wait for extruder to reach probe temp
M204 S300 ; set probing acceleration
G29 ; start auto-leveling sequence
M204 S2000 ; restore standard acceleration
G28 X0 Y0 ; re-home to account for build variance of earlier mini builds
G0 X0 Y187 F200 ; move away from endstops
G0 Y152 F4000 ; move in front of wiper pad
G4 S1 ; pause
M400 ; wait for moves to finish
M117 Heating... ; progress indicator message on LCD
M109 R205 ; wait for extruder to reach printing temp
M190 S60 ; wait for bed to reach printing temp
G1 Z2 E0 F75 ; prime tiny bit of filament into the nozzle
M117 Mini Printing... ; progress indicator message on LCD

M221 S100
;LAYER_COUNT:20
;LAYER:0
M107
G0 F2625 X9.669 Y69.706 Z0.425
;TYPE:WALL-INNER
G1 F900 X70.325 Y69.706 E2.02047
G1 X89.842 Y35.892 E3.32099
G1 X96.598 Y24.229 E3.76996
G1 X99.008 Y20.088 E3.92956
G1 X100.779 Y17.082 E4.04577
G1 X101.332 Y17.386 E4.06679
G1 X102.961 Y18.309 E4.12916
G1 X104.811 Y19.369 E4.20018
G1 X106.486 Y20.341 E4.26469
G1 X107.38 Y20.875 E4.29938
G1 X106.988 Y21.644 E4.32813
G1 X106.41 Y22.71 E4.36852
G1 X105.562 Y24.226 E4.42639
G1 X102.907 Y28.885 E4.60501
G1 X98.695 Y36.204 E4.8863
G1 X77.098 Y73.608 E6.32502
G1 X97.87 Y109.587 E7.70889
G1 X101.852 Y116.511 E7.97495
G1 X104.666 Y121.44 E8.16401
G1 X106.466 Y124.643 E8.28639
G1 X107.03 Y125.673 E8.32551
G1 X107.367 Y126.314 E8.34963
G1 X105.776 Y127.255 E8.41121
G1 X103.944 Y128.304 E8.48153
G1 X102.12 Y129.328 E8.55121
G1 X100.747 Y130.078 E8.60332
G1 X99.855 Y128.574 E8.66157
G1 X97.847 Y125.136 E8.79419
G1 X91.676 Y114.507 E9.20359
G1 X87.814 Y107.832 E9.46047
G1 X70.312 Y77.524 E10.62628
G1 X9.669 Y77.455 E12.64633
G1 X9.669 Y69.706 E12.90445
G0 F2625 X9.169 Y69.206
;TYPE:WALL-OUTER
G1 F900 X70.036 Y69.206 E14.93195
G1 X89.409 Y35.642 E16.22285
G1 X96.166 Y23.978 E16.67187
G1 X98.577 Y19.834 E16.83157
G1 X100.595 Y16.409 E16.96399
G1 X101.578 Y16.951 E17.00138
G1 X103.21 Y17.875 E17.06385
G1 X105.06 Y18.935 E17.13487
G1 X106.743 Y19.912 E17.1997
G1 X108.006 Y20.667 E17.24871
G1 X107.983 Y20.753 E17.25168
G1 X107.797 Y21.166 E17.26677
G1 X107.433 Y21.873 E17.29325
G1 X106.846 Y22.954 E17.33423
G1 X105.996 Y24.474 E17.39224
G1 X103.34 Y29.134 E17.57091
G1 X99.128 Y36.453 E17.8522
G1 X77.675 Y73.608 E19.28133
G1 X98.303 Y109.337 E20.65559
G1 X102.286 Y116.263 E20.92173
G1 X105.102 Y121.195 E21.11091
G1 X106.905 Y124.403 E21.23349
G1 X107.473 Y125.441 E21.2729
G1 X107.842 Y126.144 E21.29935
G1 X108.012 Y126.502 E21.31255
G1 X107.493 Y126.825 E21.33291
G1 X106.03 Y127.686 E21.38946
G1 X104.189 Y128.74 E21.46012
G1 X102.36 Y129.767 E21.53
G1 X100.949 Y130.538 E21.58356
G1 X100.558 Y130.74 E21.59822
G1 X99.425 Y128.829 E21.67222
G1 X97.415 Y125.388 E21.80496
G1 X91.244 Y114.758 E22.21439
G1 X87.382 Y108.083 E22.47127
G1 X70.023 Y78.024 E23.62752
G1 X9.169 Y77.954 E25.65459
G1 X9.169 Y69.206 E25.94599
G0 F2625 X9.419 Y69.206
G0 X9.893 Y69.997
;TYPE:SKIN
G1 F900 X17.132 Y77.236 E26.287
G1 X17.22 Y77.324
G0 F2625 X16.424 Y77.235
G1 F900 X9.893 Y70.705 E26.59464
G1 X9.805 Y70.617
G0 F2625 X9.893 Y71.412
G1 F900 X15.716 Y77.235 E26.86895
G1 X15.804 Y77.323
G0 F2625 X15.009 Y77.234
G1 F900 X9.893 Y72.119 E27.10993
G1 X9.805 Y72.031
G0 F2625 X9.893 Y72.826
G1 F900 X14.301 Y77.233 E27.31756
G1 X14.389 Y77.321
G0 F2625 X13.592 Y77.232
G1 F900 X9.893 Y73.533 E27.49181
G1 X9.805 Y73.445
G0 F2625 X9.893 Y74.24
G1 F900 X12.884 Y77.231 E27.63271
G1 X12.972 Y77.319
G0 F2625 X12.177 Y77.23
G1 F900 X9.893 Y74.947 E27.74029
G1 X9.805 Y74.859
G0 F2625 X9.893 Y75.654
G1 F900 X11.469 Y77.23 E27.81453
G1 X11.557 Y77.318
G0 F2625 X10.761 Y77.229
G1 F900 X9.893 Y76.361 E27.85542
G1 X9.805 Y76.273
G0 F2625 X9.893 Y77.068
G1 F900 X10.053 Y77.228 E27.86295
G0 F2625 X10.533 Y69.93
G1 F900 X17.84 Y77.237 E28.20717
G1 X17.928 Y77.325
G0 F2625 X18.548 Y77.238
G1 F900 X11.24 Y69.93 E28.55144
G1 X11.152 Y69.842
G0 F2625 X11.947 Y69.93
G1 F900 X19.256 Y77.239 E28.89575
G1 X19.344 Y77.327
G0 F2625 X19.964 Y77.24
G1 F900 X12.655 Y69.93 E29.24009
G1 X12.567 Y69.842
G0 F2625 X13.362 Y69.93
G1 F900 X20.672 Y77.24 E29.58444
G1 X20.76 Y77.328
G0 F2625 X21.38 Y77.241
G1 F900 X14.069 Y69.93 E29.92885
G1 X13.981 Y69.842
G0 F2625 X14.776 Y69.93
G1 F900 X22.087 Y77.242 E30.27328
G1 X22.175 Y77.33
G0 F2625 X22.795 Y77.242
G1 F900 X15.483 Y69.93 E30.61773
G1 X15.395 Y69.842
G0 F2625 X16.19 Y69.93
G1 F900 X23.504 Y77.244 E30.96228
G1 X23.592 Y77.332
G0 F2625 X24.212 Y77.245
G1 F900 X16.897 Y69.93 E31.30688
G1 X16.809 Y69.842
G0 F2625 X17.604 Y69.93
G1 F900 X24.919 Y77.245 E31.65147
G1 X25.007 Y77.333
G0 F2625 X25.627 Y77.246
G1 F900 X18.311 Y69.93 E31.99611
G1 X18.223 Y69.842
G0 F2625 X19.019 Y69.93
G1 F900 X26.335 Y77.247 E32.34078
G1 X26.423 Y77.335
G0 F2625 X27.043 Y77.247
G1 F900 X19.726 Y69.93 E32.68547
G1 X19.638 Y69.842
G0 F2625 X20.433 Y69.93
G1 F900 X27.751 Y77.248 E33.0302
G1 X27.839 Y77.336
G0 F2625 X28.459 Y77.25
G1 F900 X21.14 Y69.93 E33.37501
G1 X21.052 Y69.842
G0 F2625 X21.847 Y69.93
G1 F900 X29.167 Y77.25 E33.71984
G1 X29.255 Y77.338
G0 F2625 X29.875 Y77.251
G1 F900 X22.554 Y69.93 E34.06472
G1 X22.466 Y69.842
G0 F2625 X23.261 Y69.93
G1 F900 X30.583 Y77.252 E34.40964
G1 X30.671 Y77.34
G0 F2625 X31.29 Y77.252
G1 F900 X23.968 Y69.93 E34.75457
G1 X23.88 Y69.842
G0 F2625 X24.675 Y69.93
G1 F900 X31.998 Y77.253 E35.09954
G1 X32.086 Y77.341
G0 F2625 X32.706 Y77.254
G1 F900 X25.383 Y69.93 E35.44453
G1 X25.295 Y69.842
G0 F2625 X26.09 Y69.93
G1 F900 X33.415 Y77.255 E35.7896
G1 X33.503 Y77.343
G0 F2625 X34.122 Y77.256
G1 F900 X26.797 Y69.93 E36.13469
G1 X26.709 Y69.842
G0 F2625 X27.504 Y69.93
G1 F900 X34.83 Y77.257 E36.47983
G1 X34.918 Y77.345
G0 F2625 X35.538 Y77.257
G1 F900 X28.211 Y69.93 E36.82499
G1 X28.123 Y69.842
G0 F2625 X28.918 Y69.93
G1 F900 X36.246 Y77.258 E37.17019
G1 X36.334 Y77.346
G0 F2625 X36.954 Y77.259
G1 F900 X29.625 Y69.93 E37.51545
G1 X29.537 Y69.842
G0 F2625 X30.332 Y69.93
G1 F900 X37.661 Y77.259 E37.8607
G1 X37.749 Y77.347
G0 F2625 X38.37 Y77.261
G1 F900 X31.039 Y69.93 E38.20605
G1 X30.951 Y69.842
G0 F2625 X31.746 Y69.93
G1 F900 X39.078 Y77.262 E38.55145
G1 X39.166 Y77.35
G0 F2625 X39.786 Y77.262
G1 F900 X32.454 Y69.93 E38.89684
G1 X32.366 Y69.842
G0 F2625 X33.161 Y69.93
G1 F900 X40.493 Y77.263 E39.24226
G1 X40.581 Y77.351
G0 F2625 X41.201 Y77.264
G1 F900 X33.868 Y69.93 E39.58773
G1 X33.78 Y69.842
G0 F2625 X34.575 Y69.93
G1 F900 X41.909 Y77.264 E39.93322
G1 X41.997 Y77.352
G0 F2625 X42.617 Y77.265
G1 F900 X35.282 Y69.93 E40.27875
G1 X35.194 Y69.842
G0 F2625 X35.989 Y69.93
G1 F900 X43.325 Y77.266 E40.62434
G1 X43.413 Y77.354
G0 F2625 X44.033 Y77.267
G1 F900 X36.696 Y69.93 E40.96997
G1 X36.608 Y69.842
G0 F2625 X37.403 Y69.93
G1 F900 X44.741 Y77.268 E41.31565
G1 X44.829 Y77.356
G0 F2625 X45.449 Y77.269
G1 F900 X38.11 Y69.93 E41.66137
G1 X38.022 Y69.842
G0 F2625 X38.818 Y69.93
G1 F900 X46.157 Y77.269 E42.0071
G1 X46.245 Y77.357
G0 F2625 X46.864 Y77.27
G1 F900 X39.525 Y69.93 E42.35285
G1 X39.437 Y69.842
G0 F2625 X40.232 Y69.93
G1 F900 X47.572 Y77.271 E42.69864
G1 X47.66 Y77.359
G0 F2625 X48.281 Y77.272
G1 F900 X40.939 Y69.93 E43.04451
G1 X40.851 Y69.842
G0 F2625 X41.646 Y69.93
G1 F900 X48.989 Y77.273 E43.39042
G1 X49.077 Y77.361
G0 F2625 X49.696 Y77.274
G1 F900 X42.353 Y69.93 E43.73636
G1 X42.265 Y69.842
G0 F2625 X43.06 Y69.93
G1 F900 X50.404 Y77.274 E44.08232
G1 X50.492 Y77.362
G0 F2625 X51.112 Y77.275
G1 F900 X43.767 Y69.93 E44.42833
G1 X43.679 Y69.842
G0 F2625 X44.474 Y69.93
G1 F900 X51.82 Y77.276 E44.77438
G1 X51.908 Y77.364
G0 F2625 X52.528 Y77.277
G1 F900 X45.182 Y69.93 E45.12046
G1 X45.094 Y69.842
G0 F2625 X45.889 Y69.93
G1 F900 X53.236 Y77.278 E45.46659
G1 X53.324 Y77.366
G0 F2625 X53.944 Y77.278
G1 F900 X46.596 Y69.93 E45.81274
G1 X46.508 Y69.842
G0 F2625 X47.303 Y69.93
G1 F900 X54.652 Y77.279 E46.15893
G1 X54.74 Y77.367
G0 F2625 X55.36 Y77.28
G1 F900 X48.01 Y69.93 E46.50518
G1 X47.922 Y69.842
G0 F2625 X48.717 Y69.93
G1 F900 X56.067 Y77.281 E46.85144
G1 X56.155 Y77.369
G0 F2625 X56.775 Y77.281
G1 F900 X49.424 Y69.93 E47.19774
G1 X49.336 Y69.842
G0 F2625 X50.131 Y69.93
G1 F900 X57.484 Y77.283 E47.54412
G1 X57.572 Y77.371
G0 F2625 X58.192 Y77.283
G1 F900 X50.838 Y69.93 E47.89053
G1 X50.75 Y69.842
G0 F2625 X51.545 Y69.93
G1 F900 X58.899 Y77.284 E48.23696
G1 X58.987 Y77.372
G0 F2625 X59.607 Y77.285
G1 F900 X52.253 Y69.93 E48.58342
G1 X52.165 Y69.842
G0 F2625 X52.96 Y69.93
G1 F900 X60.315 Y77.286 E48.92992
G1 X60.403 Y77.374
G0 F2625 X61.023 Y77.286
G1 F900 X53.667 Y69.93 E49.27644
G1 X53.579 Y69.842
G0 F2625 X54.374 Y69.93
G1 F900 X61.731 Y77.287 E49.62302
G1 X61.819 Y77.375
G0 F2625 X62.439 Y77.288
G1 F900 X55.081 Y69.93 E49.96964
G1 X54.993 Y69.842
G0 F2625 X55.788 Y69.93
G1 F900 X63.147 Y77.289 E50.31631
G1 X63.235 Y77.377
G0 F2625 X63.855 Y77.29
G1 F900 X56.495 Y69.93 E50.66302
G1 X56.407 Y69.842
G0 F2625 X57.202 Y69.93
G1 F900 X64.563 Y77.291 E51.00978
G1 X64.651 Y77.379
G0 F2625 X65.27 Y77.291
G1 F900 X57.909 Y69.93 E51.35654
G1 X57.821 Y69.842
G0 F2625 X58.617 Y69.93
G1 F900 X65.978 Y77.292 E51.70333
G1 X66.066 Y77.38
G0 F2625 X66.686 Y77.293
G1 F900 X59.324 Y69.93 E52.05016
G1 X59.236 Y69.842
G0 F2625 X60.031 Y69.93
G1 F900 X67.395 Y77.294 E52.39706
G1 X67.483 Y77.382
G0 F2625 X68.102 Y77.295
G1 F900 X60.738 Y69.93 E52.74399
G1 X60.65 Y69.842
G0 F2625 X61.445 Y69.93
G1 F900 X68.81 Y77.295 E53.09094
G1 X68.898 Y77.383
G0 F2625 X69.518 Y77.296
G1 F900 X62.152 Y69.93 E53.43794
G1 X62.064 Y69.842
G0 F2625 X62.859 Y69.93
G1 F900 X70.226 Y77.297 E53.78498
G1 X70.314 Y77.385
G0 F2625 X70.731 Y77.802
G1 F900 X90.909 Y97.98 E54.73553
G1 X90.997 Y98.068
G0 F2625 X89.943 Y96.307
G1 F900 X63.566 Y69.93 E55.97809
G1 X63.478 Y69.842
G0 F2625 X64.273 Y69.93
G1 F900 X88.977 Y94.634 E57.14185
G1 X89.065 Y94.722
G0 F2625 X88.011 Y92.961
G1 F900 X64.98 Y69.93 E58.22679
G1 X64.892 Y69.842
G0 F2625 X65.688 Y69.93
G1 F900 X87.044 Y91.287 E59.23285
G1 X87.132 Y91.375
G0 F2625 X86.078 Y89.614
G1 F900 X66.395 Y69.93 E60.1601
G1 X66.307 Y69.842
G0 F2625 X67.102 Y69.93
G1 F900 X85.113 Y87.941 E61.00857
G1 X85.201 Y88.029
G0 F2625 X84.147 Y86.268
G1 F900 X67.809 Y69.93 E61.77822
G1 X67.721 Y69.842
G0 F2625 X68.516 Y69.93
G1 F900 X83.18 Y84.594 E62.46901
G1 X83.268 Y84.682
G0 F2625 X82.214 Y82.921
G1 F900 X69.223 Y69.93 E63.08099
G1 X69.135 Y69.842
G0 F2625 X69.93 Y69.93
G1 F900 X81.248 Y81.248 E63.61415
G1 X81.336 Y81.336
G0 F2625 X80.282 Y79.575
G1 F900 X70.521 Y69.814 E64.07397
G1 X70.433 Y69.726
G0 F2625 X70.779 Y69.365
G1 F900 X79.316 Y77.901 E64.47611
G1 X79.404 Y77.989
G0 F2625 X78.35 Y76.228
G1 F900 X71.038 Y68.917 E64.82054
G1 X70.95 Y68.829
G0 F2625 X71.297 Y68.469
G1 F900 X77.384 Y74.555 E65.10726
G1 X77.472 Y74.643
G0 F2625 X76.949 Y73.413
G1 F900 X71.556 Y68.02 E65.36132
G1 X71.468 Y67.932
G0 F2625 X71.815 Y67.572
G1 F900 X77.208 Y72.965 E65.61537
G1 X77.296 Y73.053
G0 F2625 X77.467 Y72.517
G1 F900 X72.073 Y67.123 E65.86947
G1 X71.985 Y67.035
G0 F2625 X72.332 Y66.675
G1 F900 X77.725 Y72.069 E66.12355
G1 X77.813 Y72.157
G0 F2625 X77.985 Y71.621
G1 F900 X72.59 Y66.226 E66.3777
G1 X72.502 Y66.138
G0 F2625 X72.849 Y65.778
G1 F900 X78.244 Y71.173 E66.63184
G1 X78.332 Y71.261
G0 F2625 X78.502 Y70.724
G1 F900 X73.108 Y65.33 E66.88594
G1 X73.02 Y65.242
G0 F2625 X73.367 Y64.881
G1 F900 X78.761 Y70.276 E67.14007
G1 X78.849 Y70.364
G0 F2625 X79.02 Y69.828
G1 F900 X73.626 Y64.433 E67.39419
G1 X73.538 Y64.345
G0 F2625 X73.884 Y63.985
G1 F900 X79.279 Y69.379 E67.64831
G1 X79.367 Y69.467
G0 F2625 X79.538 Y68.931
G1 F900 X74.143 Y63.537 E67.90244
G1 X74.055 Y63.449
G0 F2625 X74.402 Y63.088
G1 F900 X79.797 Y68.483 E68.15659
G1 X79.885 Y68.571
G0 F2625 X80.055 Y68.034
G1 F900 X74.661 Y62.64 E68.41069
G1 X74.573 Y62.552
G0 F2625 X74.92 Y62.192
G1 F900 X80.314 Y67.586 E68.66479
G1 X80.402 Y67.674
G0 F2625 X80.573 Y67.138
G1 F900 X75.178 Y61.743 E68.91893
G1 X75.09 Y61.655
G0 F2625 X75.437 Y61.295
G1 F900 X80.832 Y66.69 E69.17308
G1 X80.92 Y66.778
G0 F2625 X81.091 Y66.241
G1 F900 X75.696 Y60.847 E69.42721
G1 X75.608 Y60.759
G0 F2625 X75.955 Y60.398
G1 F900 X81.349 Y65.793 E69.68133
G1 X81.437 Y65.881
G0 F2625 X81.608 Y65.345
G1 F900 X76.214 Y59.95 E69.93545
G1 X76.126 Y59.862
G0 F2625 X76.472 Y59.502
G1 F900 X81.867 Y64.896 E70.18958
G1 X81.955 Y64.984
G0 F2625 X82.126 Y64.448
G1 F900 X76.731 Y59.054 E70.4437
G1 X76.643 Y58.966
G0 F2625 X76.99 Y58.605
G1 F900 X82.385 Y64 E70.69785
G1 X82.473 Y64.088
G0 F2625 X82.643 Y63.551
G1 F900 X77.249 Y58.157 E70.95195
G1 X77.161 Y58.069
G0 F2625 X77.508 Y57.709
G1 F900 X82.902 Y63.103 E71.20605
G1 X82.99 Y63.191
G0 F2625 X83.161 Y62.655
G1 F900 X77.766 Y57.26 E71.4602
G1 X77.678 Y57.172
G0 F2625 X78.025 Y56.812
G1 F900 X83.42 Y62.207 E71.71434
G1 X83.508 Y62.295
G0 F2625 X83.679 Y61.759
G1 F900 X78.284 Y56.364 E71.96849
G1 X78.196 Y56.276
G0 F2625 X78.543 Y55.915
G1 F900 X83.938 Y61.311 E72.22266
G1 X84.026 Y61.399
G0 F2625 X84.197 Y60.862
G1 F900 X78.802 Y55.467 E72.47681
G1 X78.714 Y55.379
G0 F2625 X79.06 Y55.019
G1 F900 X84.456 Y60.414 E72.73098
G1 X84.544 Y60.502
G0 F2625 X84.714 Y59.966
G1 F900 X79.319 Y54.57 E72.98515
G1 X79.231 Y54.482
G0 F2625 X79.578 Y54.122
G1 F900 X84.973 Y59.517 E73.2393
G1 X85.061 Y59.605
G0 F2625 X85.232 Y59.069
G1 F900 X79.837 Y53.674 E73.49345
G1 X79.749 Y53.586
G0 F2625 X80.096 Y53.226
G1 F900 X85.491 Y58.621 E73.74759
G1 X85.579 Y58.709
G0 F2625 X85.75 Y58.172
G1 F900 X80.354 Y52.777 E74.00177
G1 X80.266 Y52.689
G0 F2625 X80.613 Y52.329
G1 F900 X86.008 Y57.724 E74.25591
G1 X86.096 Y57.812
G0 F2625 X86.267 Y57.276
G1 F900 X80.872 Y51.881 E74.51006
G1 X80.784 Y51.793
G0 F2625 X81.131 Y51.432
G1 F900 X86.526 Y56.828 E74.76423
G1 X86.614 Y56.916
G0 F2625 X86.785 Y56.379
G1 F900 X81.39 Y50.984 E75.01838
G1 X81.302 Y50.896
G0 F2625 X81.648 Y50.536
G1 F900 X87.044 Y55.931 E75.27255
G1 X87.132 Y56.019
G0 F2625 X87.302 Y55.483
G1 F900 X81.907 Y50.087 E75.52672
G1 X81.819 Y49.999
G0 F2625 X82.165 Y49.638
G1 F900 X87.561 Y55.034 E75.78092
G1 X87.649 Y55.122
G0 F2625 X87.82 Y54.586
G1 F900 X82.424 Y49.19 E76.03511
G1 X82.336 Y49.102
G0 F2625 X82.683 Y48.742
G1 F900 X88.079 Y54.138 E76.28931
G1 X88.167 Y54.226
G0 F2625 X88.338 Y53.689
