;Generated by Cura LulzBot Edition GCodeWriter Version: 2.6.66
;FLAVOR:RepRap
;TIME:1175
;Filament used: 0.557955m
;Layer height: 0.38
;Generated with Cura_SteamEngine 2.6.66
;This G-Code has been generated specifically for the LulzBot Mini with standard extruder
G26 ; clear potential 'probe fail' condition
G21 ; set units to Millimetres
M107 ; disable fans
G90 ; absolute positioning
M82 ; set extruder to absolute mode
G92 E0 ; set extruder position to 0
M140 S60 ; start bed heating up
G28 ; home all axes
G0 X0 Y187 Z156 F200 ; move away from endstops
M109 R140 ;
G1 E-30 F75 ; retract filament
M109 R140 ; wait for extruder to reach wiping temp
G1 X45 Y173 F11520 ; move above wiper pad
G1 Z0 F1200 ; push nozzle into wiper
G1 X42 Y173 Z-.5 F4000             ; wiping
G1 X52 Y171 Z-.5 F4000             ; wiping
G1 X42 Y173 Z0 F4000               ; wiping
G1 X52 Y171 F4000                  ; wiping
G1 X42 Y173 F4000                  ; wiping
G1 X52 Y171 F4000                  ; wiping
G1 X42 Y173 F4000                  ; wiping
G1 X52 Y171 F4000                  ; wiping
G1 X57 Y173 F4000                  ; wiping
G1 X77 Y171 F4000                  ; wiping
G1 X57 Y173 F4000                  ; wiping
G1 X77 Y171 F4000                  ; wiping
G1 X57 Y173 F4000                  ; wiping
G1 X87 Y171 F4000                  ; wiping
G1 X77 Y173 F4000                  ; wiping
G1 X97 Y171 F4000                  ; wiping
G1 X77 Y173 F4000                  ; wiping
G1 X97 Y171 F4000                  ; wiping
G1 X77 Y173 F4000                  ; wiping
G1 X97 Y171 F4000                  ; wiping
G1 X107 Y173 F4000                 ; wiping
G1 X97 Y171 F4000                  ; wiping
G1 X107 Y173 F4000                 ; wiping
G1 X97 Y171 F4000                  ; wiping
G1 X107 Y173 F4000                 ; wiping
G1 X112 Y171 Z-0.5 F1000           ; wiping
G1 Z10 ; raise extruder
G28 X0 Y0 ; home X and Y
G0 X0 Y187 F200 ; move away from endstops
M109 R140 ; wait for extruder to reach probe temp
M204 S300 ; set probing acceleration
G29 ; start auto-leveling sequence
M204 S2000 ; restore standard acceleration
G28 X0 Y0 ; re-home to account for build variance of earlier mini builds
G0 X0 Y187 F200 ; move away from endstops
G0 Y152 F4000 ; move in front of wiper pad
G4 S1 ; pause
M400 ; wait for moves to finish
M117 Heating... ; progress indicator message on LCD
M109 R205 ; wait for extruder to reach printing temp
M190 S60 ; wait for bed to reach printing temp
G1 Z2 E0 F75 ; prime tiny bit of filament into the nozzle
M117 Mini Printing... ; progress indicator message on LCD

M221 S100
;LAYER_COUNT:1
;LAYER:0
M107
G0 F2625 X37.539 Y17.141 Z0.425
;TYPE:WALL-INNER
G1 F900 X106.673 Y17.141 E2.30288
G1 X110.733 Y24.172 E2.57333
G1 X110.297 Y24.536 E2.59225
G1 X109.793 Y24.98 E2.61462
G1 X109.208 Y25.515 E2.64103
G1 X107.901 Y26.751 E2.70095
G1 X103.184 Y31.256 E2.91822
G1 X102.345 Y32.092 E2.95767
G1 X101.765 Y32.715 E2.98603
G1 X101.55 Y32.973 E2.99721
G1 X101.378 Y33.208 E3.00691
G1 X101.239 Y33.441 E3.01595
G1 X101.133 Y33.701 E3.0253
G1 X101.087 Y34.011 E3.03574
G1 X101.146 Y34.368 E3.0478
G1 X101.257 Y34.798 E3.06259
G1 X101.614 Y36 E3.10436
G1 X102.11 Y37.523 E3.15771
G1 X102.461 Y38.55 E3.19386
G1 X102.743 Y39.332 E3.22155
G1 X102.972 Y39.913 E3.24236
G1 X103.078 Y40.151 E3.25104
G1 X103.181 Y40.354 E3.25862
G1 X103.29 Y40.538 E3.26574
G1 X103.418 Y40.711 E3.27291
G1 X103.584 Y40.873 E3.28064
G1 X103.982 Y41.123 E3.29629
G1 X104.355 Y41.219 E3.30912
G1 X104.735 Y41.13 E3.32212
G1 X105.013 Y40.976 E3.33271
G1 X105.276 Y40.782 E3.3436
G1 X105.588 Y40.519 E3.35719
G1 X105.986 Y40.161 E3.37502
G1 X107.126 Y39.085 E3.42724
G1 X114.732 Y31.715 E3.78003
G1 X114.961 Y31.493 E3.79065
G1 X115.12 Y31.769 E3.79707
G1 X115.121 Y31.77 E3.79712
G1 X116.063 Y33.4 E3.85983
G1 X112.784 Y36.762 E4.01626
G1 X110.788 Y38.838 E4.11219
G1 X110.3 Y39.371 E4.13627
G1 X110.147 Y39.551 E4.14414
G1 X110.021 Y39.722 E4.15121
G1 X109.912 Y39.963 E4.16002
G1 X109.86 Y40.242 E4.16948
G1 X109.883 Y40.521 E4.1788
G1 X109.955 Y40.774 E4.18756
G1 X110.061 Y41.007 E4.19609
G1 X110.199 Y41.245 E4.20525
G1 X110.559 Y41.756 E4.22608
G1 X111.09 Y42.434 E4.25476
G1 X113.433 Y45.286 E4.37771
G1 X113.628 Y45.538 E4.38832
G1 X113.747 Y45.674 E4.39434
G1 X113.896 Y45.811 E4.40109
G1 X114.087 Y45.935 E4.40867
G1 X114.33 Y46.03 E4.41736
G1 X114.618 Y46.055 E4.42699
G1 X114.899 Y45.999 E4.43654
G1 X115.132 Y45.893 E4.44506
G1 X115.323 Y45.762 E4.45278
G1 X115.496 Y45.615 E4.46034
G1 X115.807 Y45.301 E4.47506
G1 X120 Y40.859 E4.67853
G1 X120.229 Y40.616 E4.68966
G1 X120.395 Y40.905 E4.6963
G1 X120.396 Y40.906 E4.69635
G1 X120.824 Y41.647 E4.72485
G1 X117.377 Y45.071 E4.88669
G1 X114.342 Y48.109 E5.02974
G1 X113.157 Y49.323 E5.08625
G1 X112.966 Y49.543 E5.09595
G1 X112.836 Y49.843 E5.10684
G1 X112.781 Y50.142 E5.11697
G1 X112.809 Y50.455 E5.12744
G1 X112.913 Y50.747 E5.13776
G1 X113.07 Y50.994 E5.14751
G1 X113.255 Y51.205 E5.15686
G1 X113.465 Y51.403 E5.16647
G1 X113.712 Y51.605 E5.1771
G1 X114 Y51.816 E5.18899
G1 X114.702 Y52.289 E5.21719
G1 X116.553 Y53.449 E5.28995
G1 X117.207 Y53.843 E5.31539
G1 X117.685 Y54.109 E5.33361
G1 X117.893 Y54.211 E5.34133
G1 X118.083 Y54.29 E5.34818
G1 X118.271 Y54.349 E5.35474
G1 X118.478 Y54.39 E5.36177
G1 X118.721 Y54.391 E5.36987
G1 X118.968 Y54.35 E5.37821
G1 X119.219 Y54.239 E5.38735
G1 X119.556 Y53.988 E5.40135
G1 X119.968 Y53.639 E5.41933
G1 X120.476 Y53.185 E5.44203
G1 X121.065 Y52.641 E5.46873
G1 X121.709 Y52.029 E5.49833
G1 X124.75 Y49.067 E5.63973
G1 X124.751 Y49.066 E5.63978
G1 X124.98 Y48.844 E5.65041
G1 X125.14 Y49.121 E5.65686
G1 X141.241 Y77 E6.72927
G1 X106.673 Y136.859 E9.03179
G1 X37.539 Y136.859 E11.33467
G1 X15.652 Y98.957 E12.79259
G1 X15.974 Y98.419 E12.81347
G1 X16.323 Y97.746 E12.83873
G1 X16.672 Y96.941 E12.86795
G1 X17.012 Y96.036 E12.90016
G1 X17.341 Y95.053 E12.93468
G1 X17.653 Y94.011 E12.97092
G1 X17.943 Y92.935 E13.00804
G1 X18.207 Y91.845 E13.0454
G1 X18.435 Y90.765 E13.08216
G1 X18.626 Y89.719 E13.11758
G1 X18.769 Y88.727 E13.15097
G1 X18.863 Y87.807 E13.18177
G1 X18.906 Y86.713 E13.21824
G1 X18.936 Y86.483 E13.22597
G1 X18.977 Y86.309 E13.23192
G1 X19.037 Y86.153 E13.23749
G1 X19.094 Y86.048 E13.24147
G1 X19.164 Y85.958 E13.24527
G1 X19.231 Y85.897 E13.24829
G1 X19.334 Y85.832 E13.25234
G1 X19.449 Y85.782 E13.25652
G1 X19.606 Y85.738 E13.26195
G1 X19.804 Y85.708 E13.26862
G1 X20.027 Y85.698 E13.27606
G1 X20.288 Y85.714 E13.28477
G1 X20.46 Y85.754 E13.29065
G1 X20.61 Y85.828 E13.29622
G1 X20.707 Y85.895 E13.30015
G1 X20.817 Y85.986 E13.30491
G1 X21.084 Y86.255 E13.31753
G1 X21.804 Y87.08 E13.35401
G1 X22.211 Y87.475 E13.3729
G1 X22.648 Y87.851 E13.3921
G1 X23.112 Y88.206 E13.41156
G1 X23.595 Y88.538 E13.43109
G1 X24.091 Y88.845 E13.45052
G1 X24.595 Y89.121 E13.46966
G1 X25.097 Y89.362 E13.48821
G1 X25.594 Y89.563 E13.50606
G1 X26.082 Y89.722 E13.52316
G1 X26.561 Y89.83 E13.53952
G1 X27.047 Y89.881 E13.55579
G1 X27.853 Y89.802 E13.58277
G1 X28.649 Y89.524 E13.61086
G1 X29.401 Y89.073 E13.64007
G1 X30.109 Y88.466 E13.67113
G1 X30.782 Y87.716 E13.7047
G1 X31.423 Y86.829 E13.74115
G1 X32.038 Y85.804 E13.78097
G1 X32.627 Y84.647 E13.82421
G1 X33.191 Y83.357 E13.87111
G1 X33.732 Y81.939 E13.92167
G1 X34.246 Y80.391 E13.976
G1 X34.73 Y78.723 E14.03385
G1 X34.844 Y78.287 E14.04886
G1 X34.943 Y77.852 E14.06373
G1 X35.033 Y77.411 E14.07872
G1 X35.11 Y76.955 E14.09412
G1 X35.176 Y76.486 E14.1099
G1 X35.233 Y75.993 E14.12643
G1 X35.28 Y75.471 E14.14389
G1 X35.319 Y74.917 E14.16239
G1 X35.35 Y74.32 E14.1823
G1 X35.39 Y72.991 E14.22659
G1 X35.439 Y68.783 E14.36677
G1 X36.276 Y68.65 E14.395
G1 X36.513 Y68.624 E14.40294
G1 X36.534 Y68.622 E14.40365
G1 X36.752 Y68.609 E14.41092
G1 X36.991 Y68.62 E14.41889
G1 X36.992 Y68.642 E14.41962
G1 X37.007 Y68.816 E14.42544
G1 X37.074 Y69.054 E14.43368
G1 X37.172 Y69.263 E14.44137
G1 X37.292 Y69.441 E14.44852
G1 X37.428 Y69.605 E14.45561
G1 X37.582 Y69.747 E14.46259
G1 X37.746 Y69.874 E14.4695
G1 X37.93 Y69.984 E14.47664
G1 X38.119 Y70.071 E14.48357
G1 X38.325 Y70.142 E14.49083
G1 X38.547 Y70.187 E14.49838
G1 X39.043 Y70.223 E14.51494
G1 X39.404 Y69.895 E14.53119
G1 X39.554 Y69.597 E14.5423
G1 X39.68 Y69.282 E14.5536
G1 X39.823 Y68.882 E14.56775
G1 X40.243 Y67.578 E14.61339
G1 X40.43 Y66.866 E14.63791
G1 X40.578 Y66.098 E14.66396
G1 X40.688 Y65.3 E14.69079
G1 X40.76 Y64.492 E14.71782
G1 X40.797 Y63.688 E14.74463
G1 X40.797 Y62.902 E14.77081
G1 X40.762 Y62.154 E14.79575
G1 X40.691 Y61.456 E14.81912
G1 X40.579 Y60.821 E14.8406
G1 X40.422 Y60.251 E14.86029
G1 X40.188 Y59.739 E14.87905
G1 X39.835 Y59.329 E14.89707
G1 X39.578 Y59.187 E14.90685
G1 X39.364 Y59.107 E14.91446
G1 X39.138 Y59.041 E14.9223
G1 X38.636 Y58.931 E14.93942
G1 X38.028 Y58.832 E14.95994
G1 X37.343 Y58.746 E14.98294
G1 X36.61 Y58.679 E15.00745
G1 X36.227 Y58.651 E15.02025
G1 X34.871 Y58.582 E15.06547
G1 X33.31 Y58.519 E15.11751
G1 X31.593 Y58.466 E15.17473
G1 X29.774 Y58.423 E15.23534
G1 X27.908 Y58.389 E15.29751
G1 X26.046 Y58.366 E15.35954
G1 X24.242 Y58.354 E15.41963
G1 X22.549 Y58.353 E15.47603
G1 X21.022 Y58.364 E15.52689
G1 X19.709 Y58.387 E15.57064
G1 X18.66 Y58.425 E15.6056
G1 X17.927 Y58.477 E15.63008
G1 X16.552 Y58.641 E15.67621
G1 X14.963 Y58.848 E15.72958
G1 X13.824 Y59.013 E15.76792
G1 X13.823 Y59.014 E15.76797
G1 X13.315 Y59.086 E15.78506
G1 X13.572 Y58.641 E15.79448
G1 X37.539 Y17.141 E17.39083
G0 F2625 X37.588 Y17.227
G0 X45.254 Y24.946
G0 X45.32 Y25.02
G1 F900 X44.781 Y29.002 E17.52468
G1 X44.071 Y31.819 E17.62145
G1 X43.153 Y34.206 E17.70664
G1 X42.099 Y36.169 E17.78085
G1 X40.962 Y37.761 E17.84602
G1 X39.787 Y39.037 E17.9038
G1 X38.641 Y40.02 E17.95409
G1 X37.59 Y40.737 E17.99647
G1 X36.669 Y41.241 E18.03145
G1 X35.96 Y41.55 E18.05721
G1 X35.502 Y41.71 E18.07337
G1 X34.877 Y41.883 E18.09497
G1 X34.727 Y42.837 E18.12714
G1 X35.314 Y43.225 E18.15058
G1 X35.785 Y43.557 E18.16977
G1 X36.552 Y44.149 E18.20205
G1 X37.5 Y44.959 E18.24358
G1 X38.579 Y45.996 E18.29343
G1 X39.736 Y47.262 E18.35056
G1 X40.902 Y48.75 E18.41353
G1 X41.999 Y50.434 E18.48048
G1 X42.982 Y52.336 E18.5518
G1 X43.788 Y54.448 E18.6271
G1 X44.357 Y56.767 E18.70663
G1 X44.696 Y59.966 E18.81379
G1 X45.958 Y60.047 E18.85592
G1 X46.909 Y56.052 E18.99271
G1 X47.894 Y53.196 E19.09334
G1 X49.009 Y50.805 E19.18122
G1 X50.21 Y48.833 E19.25813
G1 X51.44 Y47.243 E19.32509
G1 X52.653 Y45.997 E19.38302
G1 X53.814 Y45.038 E19.43318
G1 X54.85 Y44.351 E19.47459
G1 X55.746 Y43.873 E19.50841
G1 X56.435 Y43.582 E19.53333
G1 X56.844 Y43.446 E19.54769
G1 X57.557 Y43.259 E19.57224
G1 X57.569 Y42.114 E19.61038
G1 X56.866 Y41.913 E19.63474
G1 X56.442 Y41.76 E19.64975
G1 X55.74 Y41.443 E19.67541
G1 X54.849 Y40.941 E19.70948
G1 X53.806 Y40.211 E19.75188
G1 X52.666 Y39.22 E19.8022
G1 X51.49 Y37.939 E19.86012
G1 X50.31 Y36.31 E19.92713
G1 X49.192 Y34.311 E20.00342
G1 X48.187 Y31.9 E20.09043
G1 X47.343 Y29.022 E20.19033
G1 X46.598 Y24.99 E20.32692
G1 X45.32 Y25.02 E20.3695
G0 F2625 X45.254 Y24.946
G0 X46.623 Y24.959
G0 X54.428 Y28.655
G0 X54.502 Y28.722
G1 F900 X54.343 Y29.664 E20.40132
G1 X55.139 Y30.215 E20.43357
G1 X55.611 Y30.58 E20.45344
G1 X56.168 Y31.056 E20.47785
G1 X56.809 Y31.671 E20.50744
G1 X57.513 Y32.441 E20.54219
G1 X58.211 Y33.332 E20.57989
G1 X58.866 Y34.34 E20.61994
G1 X59.46 Y35.486 E20.66293
G1 X59.941 Y36.746 E20.70786
G1 X60.281 Y38.132 E20.7554
G1 X60.513 Y40.317 E20.82859
G1 X61.775 Y40.398 E20.87071
G1 X62.411 Y37.724 E20.96227
G1 X63.001 Y36.011 E21.02262
G1 X63.678 Y34.56 E21.07596
G1 X64.397 Y33.38 E21.12198
G1 X65.131 Y32.431 E21.16195
G1 X65.85 Y31.692 E21.19629
G1 X66.54 Y31.122 E21.2261
G1 X67.147 Y30.719 E21.25037
G1 X67.677 Y30.437 E21.27037
G1 X68.069 Y30.27 E21.28457
G1 X68.313 Y30.19 E21.29312
G1 X68.935 Y30.023 E21.31457
G1 X68.974 Y28.912 E21.3516
G1 X68.076 Y28.605 E21.38322
G1 X67.678 Y28.425 E21.39777
G1 X67.156 Y28.131 E21.41772
G1 X66.544 Y27.703 E21.4426
G1 X65.86 Y27.109 E21.47277
G1 X65.166 Y26.353 E21.50696
G1 X64.462 Y25.38 E21.54696
G1 X63.797 Y24.192 E21.59231
G1 X63.187 Y22.727 E21.64518
G1 X62.681 Y21.001 E21.70509
G1 X62.182 Y18.3 E21.79658
G1 X60.904 Y18.33 E21.83917
G1 X60.542 Y21.002 E21.92898
G1 X60.115 Y22.694 E21.98711
G1 X59.564 Y24.125 E22.03819
G1 X58.934 Y25.3 E22.0826
G1 X58.259 Y26.246 E22.12131
G1 X57.568 Y26.997 E22.15531
G1 X56.884 Y27.583 E22.18531
G1 X56.267 Y28.004 E22.21019
G1 X55.724 Y28.301 E22.23081
G1 X55.314 Y28.48 E22.24571
G1 X55.052 Y28.572 E22.25496
G1 X54.502 Y28.722 E22.27395
G0 F2625 X54.428 Y28.655
G0 X54.307 Y29.679
G0 X60.486 Y40.345
G0 X74.934 Y41.204
G0 X75.019 Y41.255
G1 F900 X74.807 Y41.664 E22.28929
G1 X74.625 Y42.121 E22.30568
G1 X74.453 Y42.643 E22.32399
G1 X74.274 Y43.261 E22.34542
G1 X73.328 Y46.704 E22.46436
G1 X71.978 Y51.53 E22.63128
G1 X70.988 Y55.178 E22.75719
G1 X69.458 Y56.371 E22.82182
G1 X68.3 Y57.304 E22.87136
G1 X67.022 Y58.356 E22.9265
G1 X65.75 Y59.419 E22.98171
G1 X64.614 Y60.388 E23.03145
G1 X63.736 Y61.156 E23.07031
G1 X63.43 Y61.438 E23.08417
G1 X62.605 Y62.229 E23.12224
G1 X61.757 Y63.07 E23.16202
G1 X60.888 Y63.953 E23.20329
G1 X60.004 Y64.873 E23.24579
G1 X59.113 Y65.823 E23.28918
G1 X58.221 Y66.795 E23.33312
G1 X57.332 Y67.783 E23.37739
G1 X56.455 Y68.78 E23.42162
G1 X55.596 Y69.778 E23.46549
G1 X54.76 Y70.77 E23.5087
G1 X53.954 Y71.752 E23.55102
G1 X53.182 Y72.715 E23.59213
G1 X52.511 Y73.584 E23.6287
G1 X51.807 Y74.532 E23.66804
G1 X51.081 Y75.538 E23.70936
G1 X50.344 Y76.586 E23.75204
G1 X49.609 Y77.66 E23.79539
G1 X48.886 Y78.74 E23.83868
G1 X48.189 Y79.81 E23.88122
G1 X47.526 Y80.853 E23.92239
G1 X46.911 Y81.85 E23.96141
G1 X46.356 Y82.785 E23.99763
G1 X45.869 Y83.642 E24.03046
G1 X45.368 Y84.583 E24.06597
G1 X45.22 Y84.842 E24.07591
G1 X44.882 Y85.402 E24.0977
G1 X44.675 Y85.79 E24.11234
G1 X44.159 Y86.837 E24.15123
G1 X43.539 Y88.149 E24.19956
G1 X42.899 Y89.557 E24.25108
G1 X42.31 Y90.892 E24.29969
G1 X41.858 Y91.985 E24.33909
G1 X41.481 Y92.964 E24.37403
G1 X41.13 Y93.922 E24.40802
G1 X40.801 Y94.864 E24.44125
G1 X40.496 Y95.797 E24.47395
G1 X40.211 Y96.723 E24.50622
G1 X39.946 Y97.647 E24.53824
G1 X39.7 Y98.573 E24.57016
G1 X39.471 Y99.504 E24.60209
G1 X39.259 Y100.445 E24.63423
G1 X39.062 Y101.399 E24.66667
G1 X38.88 Y102.372 E24.69965
G1 X38.637 Y103.831 E24.74892
G1 X38.516 Y104.683 E24.77758
G1 X38.426 Y105.474 E24.8041
G1 X38.366 Y106.263 E24.83046
G1 X38.328 Y107.106 E24.85857
G1 X38.31 Y108.064 E24.89048
G1 X38.304 Y109.177 E24.92756
G1 X38.308 Y110.095 E24.95814
G1 X38.326 Y110.769 E24.9806
G1 X38.365 Y111.261 E24.99704
G1 X38.4 Y111.48 E25.00443
G1 X38.448 Y111.68 E25.01128
G1 X38.514 Y111.868 E25.01791
G1 X38.599 Y112.043 E25.02439
G1 X38.742 Y112.263 E25.03313
G1 X38.976 Y112.541 E25.04524
G1 X39.239 Y112.784 E25.05717
G1 X39.511 Y112.96 E25.06796
G1 X39.743 Y113.02 E25.07594
G1 X40.1 Y113.059 E25.0879
G1 X40.598 Y113.094 E25.10453
G1 X41.242 Y113.126 E25.12601
G1 X42.003 Y113.153 E25.15138
G1 X44.14 Y113.196 E25.22257
G1 X44.733 Y113.202 E25.24233
G1 X45.496 Y113.2 E25.26774
G1 X46.161 Y113.184 E25.2899
G1 X46.772 Y113.147 E25.31029
G1 X47.378 Y113.09 E25.33057
G1 X48.022 Y113.008 E25.35219
G1 X48.755 Y112.901 E25.37687
G1 X49.961 Y112.702 E25.41758
G1 X50.82 Y112.54 E25.4467
G1 X51.72 Y112.356 E25.4773
G1 X52.644 Y112.153 E25.50881
G1 X54.483 Y111.713 E25.5718
G1 X55.359 Y111.486 E25.60194
G1 X56.184 Y111.261 E25.63043
G1 X56.936 Y111.041 E25.65653
G1 X57.596 Y110.832 E25.67959
G1 X58.156 Y110.636 E25.69935
G1 X58.929 Y110.309 E25.72731
G1 X59.154 Y110.245 E25.7351
G1 X59.658 Y110.064 E25.75294
G1 X61.31 Y109.417 E25.81204
G1 X63.021 Y108.712 E25.87368
G1 X64.176 Y108.192 E25.91587
G1 X65.05 Y107.775 E25.94813
G1 X65.949 Y107.328 E25.98157
G1 X66.868 Y106.857 E26.01597
G1 X67.802 Y106.361 E26.0512
G1 X68.746 Y105.846 E26.08702
G1 X69.695 Y105.312 E26.12329
G1 X70.642 Y104.766 E26.1597
G1 X71.584 Y104.206 E26.19621
G1 X72.513 Y103.639 E26.23246
G1 X73.426 Y103.066 E26.26837
G1 X74.749 Y102.202 E26.321
G1 X75.789 Y101.49 E26.36299
G1 X76.95 Y100.677 E26.4102
G1 X78.109 Y99.853 E26.45757
G1 X79.143 Y99.101 E26.50016
