;Generated by Cura LulzBot Edition GCodeWriter Version: 2.6.66
;FLAVOR:RepRap
;TIME:1349
;Filament used: 0.644922m
;Layer height: 0.38
;Generated with Cura_SteamEngine 2.6.66
;This G-Code has been generated specifically for the LulzBot Mini with standard extruder
G26 ; clear potential 'probe fail' condition
G21 ; set units to Millimetres
M107 ; disable fans
G90 ; absolute positioning
M82 ; set extruder to absolute mode
G92 E0 ; set extruder position to 0
M140 S60 ; start bed heating up
G28 ; home all axes
G0 X0 Y187 Z156 F200 ; move away from endstops
M109 R140 ;
G1 E-30 F75 ; retract filament
M109 R140 ; wait for extruder to reach wiping temp
G1 X45 Y173 F11520 ; move above wiper pad
G1 Z0 F1200 ; push nozzle into wiper
G1 X42 Y173 Z-.5 F4000             ; wiping
G1 X52 Y171 Z-.5 F4000             ; wiping
G1 X42 Y173 Z0 F4000               ; wiping
G1 X52 Y171 F4000                  ; wiping
G1 X42 Y173 F4000                  ; wiping
G1 X52 Y171 F4000                  ; wiping
G1 X42 Y173 F4000                  ; wiping
G1 X52 Y171 F4000                  ; wiping
G1 X57 Y173 F4000                  ; wiping
G1 X77 Y171 F4000                  ; wiping
G1 X57 Y173 F4000                  ; wiping
G1 X77 Y171 F4000                  ; wiping
G1 X57 Y173 F4000                  ; wiping
G1 X87 Y171 F4000                  ; wiping
G1 X77 Y173 F4000                  ; wiping
G1 X97 Y171 F4000                  ; wiping
G1 X77 Y173 F4000                  ; wiping
G1 X97 Y171 F4000                  ; wiping
G1 X77 Y173 F4000                  ; wiping
G1 X97 Y171 F4000                  ; wiping
G1 X107 Y173 F4000                 ; wiping
G1 X97 Y171 F4000                  ; wiping
G1 X107 Y173 F4000                 ; wiping
G1 X97 Y171 F4000                  ; wiping
G1 X107 Y173 F4000                 ; wiping
G1 X112 Y171 Z-0.5 F1000           ; wiping
G1 Z10 ; raise extruder
G28 X0 Y0 ; home X and Y
G0 X0 Y187 F200 ; move away from endstops
M109 R140 ; wait for extruder to reach probe temp
M204 S300 ; set probing acceleration
G29 ; start auto-leveling sequence
M204 S2000 ; restore standard acceleration
G28 X0 Y0 ; re-home to account for build variance of earlier mini builds
G0 X0 Y187 F200 ; move away from endstops
G0 Y152 F4000 ; move in front of wiper pad
G4 S1 ; pause
M400 ; wait for moves to finish
M117 Heating... ; progress indicator message on LCD
M109 R205 ; wait for extruder to reach printing temp
M190 S60 ; wait for bed to reach printing temp
G1 Z2 E0 F75 ; prime tiny bit of filament into the nozzle
M117 Mini Printing... ; progress indicator message on LCD

M221 S100
;LAYER_COUNT:1
;LAYER:0
M107
G0 F2625 X34.54 Y12.585 Z0.425
;TYPE:WALL-INNER
G1 F900 X108.936 Y12.585 E2.47816
G1 X113.343 Y20.216 E2.77169
G1 X113.268 Y20.272 E2.77481
G1 X112.836 Y20.635 E2.79361
G1 X112.296 Y21.112 E2.81761
G1 X111.669 Y21.684 E2.84588
G1 X110.981 Y22.328 E2.87727
G1 X106.424 Y26.673 E3.08701
G1 X105.191 Y27.859 E3.14399
G1 X104.291 Y28.754 E3.18627
G1 X103.948 Y29.115 E3.20286
G1 X103.666 Y29.425 E3.21682
G1 X103.44 Y29.698 E3.22863
G1 X103.257 Y29.946 E3.23889
G1 X103.11 Y30.193 E3.24847
G1 X103.002 Y30.463 E3.25815
G1 X102.955 Y30.78 E3.26883
G1 X103.017 Y31.152 E3.28139
G1 X103.134 Y31.607 E3.29704
G1 X103.303 Y32.198 E3.31752
G1 X103.77 Y33.692 E3.36966
G1 X104.051 Y34.541 E3.39945
G1 X104.428 Y35.64 E3.43815
G1 X104.731 Y36.481 E3.46792
G1 X104.979 Y37.11 E3.49045
G1 X105.195 Y37.566 E3.50725
G1 X105.314 Y37.765 E3.51498
G1 X105.445 Y37.943 E3.52234
G1 X105.618 Y38.113 E3.53042
G1 X105.987 Y38.345 E3.54494
G1 X106.179 Y38.424 E3.55185
G1 X106.46 Y38.46 E3.56129
G1 X106.801 Y38.381 E3.57295
G1 X107.089 Y38.221 E3.58392
G1 X107.367 Y38.014 E3.59547
G1 X107.7 Y37.734 E3.60996
G1 X108.127 Y37.35 E3.62909
G1 X109.352 Y36.194 E3.6852
G1 X117.598 Y28.203 E4.06769
G1 X117.827 Y27.981 E4.07831
G1 X117.986 Y28.257 E4.08474
G1 X117.987 Y28.258 E4.08478
G1 X119.069 Y30.132 E4.15686
G1 X115.514 Y33.776 E4.32644
G1 X114.242 Y35.093 E4.38743
G1 X113.37 Y36.008 E4.42954
G1 X112.847 Y36.578 E4.4553
G1 X112.68 Y36.773 E4.46386
G1 X112.552 Y36.951 E4.47116
G1 X112.442 Y37.193 E4.48001
G1 X112.388 Y37.477 E4.48964
G1 X112.408 Y37.768 E4.49936
G1 X112.486 Y38.034 E4.50859
G1 X112.598 Y38.278 E4.51754
G1 X112.74 Y38.521 E4.52691
G1 X112.915 Y38.781 E4.53735
G1 X113.13 Y39.078 E4.54957
G1 X113.697 Y39.8 E4.58015
G1 X116.216 Y42.867 E4.71235
G1 X116.425 Y43.139 E4.72378
G1 X116.552 Y43.282 E4.73015
G1 X116.704 Y43.421 E4.73701
G1 X116.901 Y43.551 E4.74487
G1 X117.151 Y43.646 E4.75378
G1 X117.44 Y43.673 E4.76345
G1 X117.732 Y43.615 E4.77336
G1 X117.972 Y43.504 E4.78217
G1 X118.171 Y43.369 E4.79018
G1 X118.345 Y43.22 E4.79781
G1 X118.517 Y43.055 E4.80575
G1 X120.8 Y40.628 E4.91674
G1 X123.26 Y38.03 E5.03592
G1 X123.49 Y37.787 E5.04707
G1 X123.657 Y38.077 E5.05374
G1 X124.189 Y38.998 E5.08917
G1 X120.451 Y42.71 E5.26465
G1 X117.19 Y45.977 E5.41841
G1 X115.916 Y47.281 E5.47914
G1 X115.719 Y47.509 E5.48917
G1 X115.584 Y47.817 E5.50038
G1 X115.527 Y48.125 E5.51081
G1 X115.556 Y48.452 E5.52175
G1 X115.666 Y48.749 E5.5323
G1 X115.826 Y49.004 E5.54232
G1 X116.021 Y49.228 E5.55222
G1 X116.245 Y49.437 E5.56242
G1 X116.51 Y49.653 E5.57381
G1 X117.161 Y50.117 E5.60044
G1 X118.032 Y50.679 E5.63497
G1 X119.933 Y51.86 E5.70952
G1 X120.531 Y52.21 E5.7326
G1 X120.775 Y52.342 E5.74184
G1 X120.991 Y52.446 E5.74982
G1 X121.191 Y52.53 E5.75705
G1 X121.393 Y52.593 E5.7641
G1 X121.598 Y52.63 E5.77104
G1 X121.831 Y52.638 E5.7788
G1 X122.129 Y52.588 E5.78887
G1 X122.373 Y52.472 E5.79787
G1 X122.719 Y52.214 E5.81224
G1 X123.161 Y51.842 E5.83149
G1 X123.707 Y51.353 E5.8559
G1 X124.34 Y50.768 E5.88461
G1 X125.643 Y49.517 E5.94478
G1 X128.371 Y46.861 E6.07161
G1 X128.372 Y46.86 E6.07166
G1 X128.6 Y46.637 E6.08228
G1 X128.76 Y46.914 E6.08873
G1 X146.135 Y77 E7.24602
G1 X108.936 Y141.415 E9.72379
G1 X34.54 Y141.415 E12.20195
G1 X10.973 Y100.606 E13.77171
G1 X11.336 Y100.003 E13.79515
G1 X11.711 Y99.282 E13.82222
G1 X12.085 Y98.419 E13.85355
G1 X12.45 Y97.448 E13.88811
G1 X12.802 Y96.392 E13.92519
G1 X13.137 Y95.274 E13.96406
G1 X13.448 Y94.119 E14.00391
G1 X13.732 Y92.949 E14.04401
G1 X13.978 Y91.79 E14.08348
G1 X14.182 Y90.666 E14.12153
G1 X14.336 Y89.601 E14.15737
G1 X14.436 Y88.615 E14.19039
G1 X14.483 Y87.435 E14.22972
G1 X14.514 Y87.193 E14.23785
G1 X14.563 Y86.985 E14.24497
G1 X14.623 Y86.827 E14.2506
G1 X14.698 Y86.691 E14.25577
G1 X14.771 Y86.597 E14.25974
G1 X14.862 Y86.515 E14.26382
G1 X14.968 Y86.447 E14.26801
G1 X15.098 Y86.39 E14.27274
G1 X15.284 Y86.338 E14.27917
G1 X15.494 Y86.308 E14.28624
G1 X15.75 Y86.295 E14.29478
G1 X15.898 Y86.299 E14.29971
G1 X16.041 Y86.313 E14.3045
G1 X16.225 Y86.357 E14.3108
G1 X16.312 Y86.394 E14.31395
G1 X16.404 Y86.445 E14.31745
G1 X16.5 Y86.512 E14.32135
G1 X16.636 Y86.624 E14.32722
G1 X16.759 Y86.741 E14.33288
G1 X17.109 Y87.125 E14.35018
G1 X17.324 Y87.38 E14.36129
G1 X17.697 Y87.8 E14.38
G1 X18.129 Y88.22 E14.40007
G1 X18.598 Y88.622 E14.42065
G1 X19.094 Y89.002 E14.44146
G1 X19.611 Y89.36 E14.46241
G1 X20.143 Y89.687 E14.48321
G1 X20.68 Y89.981 E14.5036
G1 X21.217 Y90.239 E14.52345
G1 X21.749 Y90.455 E14.54258
G1 X22.27 Y90.624 E14.56082
G1 X22.78 Y90.739 E14.57824
G1 X23.292 Y90.791 E14.59538
G1 X24.146 Y90.709 E14.62396
G1 X24.991 Y90.414 E14.65377
G1 X25.79 Y89.934 E14.68482
G1 X26.545 Y89.287 E14.71794
G1 X27.263 Y88.486 E14.75377
G1 X27.95 Y87.537 E14.7928
G1 X28.609 Y86.438 E14.83548
G1 X29.24 Y85.197 E14.88186
G1 X29.846 Y83.814 E14.93215
G1 X30.426 Y82.291 E14.98644
G1 X30.978 Y80.631 E15.04471
G1 X31.498 Y78.838 E15.1069
G1 X31.62 Y78.371 E15.12297
G1 X31.727 Y77.903 E15.13897
G1 X31.822 Y77.43 E15.15504
G1 X31.905 Y76.944 E15.17146
G1 X31.976 Y76.44 E15.18841
G1 X32.037 Y75.911 E15.20615
G1 X32.087 Y75.352 E15.22485
G1 X32.129 Y74.758 E15.24468
G1 X32.163 Y74.119 E15.266
G1 X32.188 Y73.43 E15.28896
G1 X32.22 Y71.661 E15.3479
G1 X32.259 Y68.117 E15.46596
G1 X33.209 Y67.966 E15.498
G1 X33.486 Y67.936 E15.50728
G1 X33.724 Y67.922 E15.51522
G1 X33.906 Y67.925 E15.52129
G1 X34.036 Y67.939 E15.52564
G1 X34.055 Y68.191 E15.53406
G1 X34.126 Y68.438 E15.54262
G1 X34.229 Y68.655 E15.55062
G1 X34.353 Y68.841 E15.55807
G1 X34.495 Y69.01 E15.56542
G1 X34.655 Y69.159 E15.5727
G1 X34.827 Y69.29 E15.57991
G1 X35.017 Y69.406 E15.58732
G1 X35.218 Y69.499 E15.5947
G1 X35.433 Y69.573 E15.60227
G1 X35.666 Y69.62 E15.61019
G1 X36.162 Y69.653 E15.62675
G1 X36.53 Y69.332 E15.64302
G1 X36.689 Y69.015 E15.65483
G1 X36.822 Y68.682 E15.66677
G1 X36.975 Y68.254 E15.68191
G1 X37.425 Y66.857 E15.7308
G1 X37.626 Y66.091 E15.75718
G1 X37.786 Y65.268 E15.78511
G1 X37.902 Y64.415 E15.81379
G1 X37.981 Y63.548 E15.84278
G1 X38.019 Y62.684 E15.87159
G1 X38.019 Y61.843 E15.89961
G1 X37.981 Y61.042 E15.92632
G1 X37.905 Y60.296 E15.9513
G1 X37.786 Y59.617 E15.97426
G1 X37.619 Y59.013 E15.99513
G1 X37.373 Y58.473 E16.0149
G1 X37.005 Y58.045 E16.0337
G1 X36.74 Y57.898 E16.0438
G1 X36.517 Y57.816 E16.05171
G1 X36.278 Y57.746 E16.06001
G1 X35.741 Y57.628 E16.07832
G1 X35.091 Y57.522 E16.10026
G1 X34.356 Y57.429 E16.12494
G1 X33.569 Y57.358 E16.15126
G1 X33.159 Y57.328 E16.16495
G1 X31.702 Y57.253 E16.21355
G1 X30.024 Y57.186 E16.26949
G1 X28.178 Y57.129 E16.33101
G1 X26.224 Y57.083 E16.39612
G1 X24.217 Y57.046 E16.46298
G1 X22.215 Y57.022 E16.52967
G1 X20.276 Y57.008 E16.59426
G1 X18.456 Y57.007 E16.65489
G1 X16.814 Y57.019 E16.70959
G1 X15.403 Y57.045 E16.75659
G1 X14.277 Y57.085 E16.79413
G1 X13.492 Y57.141 E16.82034
G1 X12.015 Y57.317 E16.86989
G1 X10.307 Y57.539 E16.92726
G1 X8.93 Y57.739 E16.97361
G1 X8.929 Y57.74 E16.97366
G1 X8.421 Y57.812 E16.99075
G1 X8.678 Y57.367 E17.00017
G1 X34.54 Y12.585 E18.72276
G0 F2625 X34.589 Y12.671
G0 X42.922 Y21.093
G0 X42.988 Y21.167
G1 F900 X42.415 Y25.403 E18.86514
G1 X41.648 Y28.443 E18.96958
G1 X40.661 Y31.01 E19.06119
G1 X39.525 Y33.126 E19.14119
G1 X38.293 Y34.851 E19.2118
G1 X37.029 Y36.224 E19.27397
G1 X35.792 Y37.284 E19.32823
G1 X34.657 Y38.059 E19.37401
G1 X33.662 Y38.603 E19.41179
G1 X32.895 Y38.938 E19.43966
G1 X32.399 Y39.111 E19.45716
G1 X31.76 Y39.288 E19.47925
G1 X31.61 Y40.245 E19.51152
G1 X32.215 Y40.641 E19.5356
G1 X32.72 Y40.998 E19.5562
G1 X33.558 Y41.646 E19.59149
G1 X34.568 Y42.509 E19.63574
G1 X35.732 Y43.627 E19.6895
G1 X36.976 Y44.988 E19.75092
G1 X38.226 Y46.583 E19.81843
G1 X39.417 Y48.413 E19.89116
G1 X40.478 Y50.463 E19.96805
G1 X41.346 Y52.736 E20.04909
G1 X41.959 Y55.236 E20.13484
G1 X42.319 Y58.632 E20.24859
G1 X43.581 Y58.713 E20.29072
G1 X44.594 Y54.458 E20.43641
G1 X45.65 Y51.391 E20.54446
G1 X46.855 Y48.809 E20.63937
G1 X48.149 Y46.684 E20.72225
G1 X49.477 Y44.968 E20.79453
G1 X50.789 Y43.62 E20.85719
G1 X52.028 Y42.597 E20.91071
G1 X53.161 Y41.845 E20.95601
G1 X54.123 Y41.332 E20.99232
G1 X54.868 Y41.017 E21.01927
G1 X55.313 Y40.869 E21.03489
G1 X56.039 Y40.68 E21.05988
G1 X56.051 Y39.534 E21.09805
G1 X55.335 Y39.329 E21.12286
G1 X54.874 Y39.163 E21.13918
G1 X54.116 Y38.82 E21.1669
G1 X53.152 Y38.278 E21.20374
G1 X52.027 Y37.49 E21.24949
G1 X50.8 Y36.423 E21.30365
G1 X49.528 Y35.038 E21.36629
G1 X48.256 Y33.282 E21.43852
G1 X47.054 Y31.134 E21.52051
G1 X45.965 Y28.52 E21.61484
G1 X45.058 Y25.428 E21.72217
G1 X44.266 Y21.137 E21.86752
G1 X42.988 Y21.167 E21.9101
G0 F2625 X42.922 Y21.093
G0 X44.291 Y21.106
G0 X52.785 Y25.078
G0 X52.859 Y25.144
G1 F900 X52.703 Y26.08 E21.94171
G1 X53.524 Y26.65 E21.97501
G1 X54.037 Y27.046 E21.99659
G1 X54.629 Y27.55 E22.02249
G1 X55.339 Y28.233 E22.05531
G1 X56.093 Y29.057 E22.09251
G1 X56.848 Y30.022 E22.13333
G1 X57.553 Y31.104 E22.17634
G1 X58.193 Y32.342 E22.22277
G1 X58.712 Y33.703 E22.27129
G1 X59.08 Y35.2 E22.32264
G1 X59.324 Y37.506 E22.39988
G1 X60.586 Y37.587 E22.442
G1 X61.261 Y34.755 E22.53898
G1 X61.897 Y32.907 E22.60408
G1 X62.627 Y31.343 E22.66157
G1 X63.402 Y30.069 E22.71125
G1 X64.196 Y29.044 E22.75444
G1 X64.974 Y28.244 E22.79161
G1 X65.72 Y27.628 E22.82383
G1 X66.378 Y27.191 E22.85015
G1 X66.952 Y26.886 E22.8718
G1 X67.378 Y26.704 E22.88723
G1 X67.644 Y26.617 E22.89655
G1 X68.288 Y26.445 E22.91875
G1 X68.3 Y25.303 E22.9568
G1 X67.657 Y25.12 E22.97907
G1 X67.399 Y25.026 E22.98821
G1 X66.957 Y24.826 E23.00437
G1 X66.376 Y24.499 E23.02658
G1 X65.722 Y24.041 E23.05318
G1 X64.989 Y23.404 E23.08553
G1 X64.233 Y22.581 E23.12275
G1 X63.472 Y21.53 E23.16597
G1 X62.753 Y20.246 E23.21499
G1 X62.097 Y18.67 E23.27186
G1 X61.55 Y16.805 E23.3366
G1 X61.021 Y13.944 E23.43351
G1 X59.743 Y13.974 E23.4761
G1 X59.36 Y16.802 E23.57116
G1 X58.9 Y18.629 E23.63391
G1 X58.305 Y20.174 E23.68906
G1 X57.629 Y21.434 E23.73669
G1 X56.889 Y22.471 E23.77913
G1 X56.142 Y23.282 E23.81586
G1 X55.409 Y23.909 E23.84799
G1 X54.725 Y24.377 E23.8756
G1 X54.164 Y24.685 E23.89691
G1 X53.693 Y24.889 E23.91401
G1 X53.429 Y24.981 E23.92332
G1 X52.859 Y25.144 E23.94307
G0 F2625 X52.785 Y25.078
G0 X52.667 Y26.095
G0 X59.297 Y37.534
G0 X74.833 Y38.545
G0 X74.918 Y38.596
G1 F900 X74.693 Y39.031 E23.95939
G1 X74.499 Y39.518 E23.97685
G1 X74.315 Y40.078 E23.99648
G1 X74.124 Y40.74 E24.01943
G1 X73.106 Y44.442 E24.14733
G1 X71.655 Y49.63 E24.32677
G1 X70.585 Y53.57 E24.46277
G1 X68.926 Y54.865 E24.53287
G1 X67.681 Y55.868 E24.58613
G1 X66.308 Y56.998 E24.64536
G1 X64.942 Y58.14 E24.70467
G1 X63.719 Y59.182 E24.75819
G1 X62.776 Y60.007 E24.79993
G1 X62.448 Y60.309 E24.81478
G1 X61.562 Y61.159 E24.85568
G1 X60.651 Y62.062 E24.8984
G1 X59.717 Y63.012 E24.94278
G1 X58.768 Y64.001 E24.98844
G1 X57.811 Y65.021 E25.03503
G1 X56.851 Y66.066 E25.0823
G1 X55.896 Y67.128 E25.12987
G1 X54.953 Y68.199 E25.1774
G1 X54.03 Y69.271 E25.22453
G1 X53.132 Y70.338 E25.27098
G1 X52.265 Y71.392 E25.31644
G1 X51.436 Y72.428 E25.36064
G1 X50.715 Y73.362 E25.39994
G1 X49.959 Y74.378 E25.44213
G1 X49.178 Y75.461 E25.4866
G1 X48.387 Y76.588 E25.53247
G1 X47.597 Y77.741 E25.57903
G1 X46.82 Y78.901 E25.62553
G1 X46.07 Y80.052 E25.67129
G1 X45.358 Y81.172 E25.7155
G1 X44.697 Y82.244 E25.75745
G1 X44.101 Y83.248 E25.79635
G1 X43.578 Y84.168 E25.8316
G1 X43.04 Y85.181 E25.8698
G1 X42.874 Y85.472 E25.88096
G1 X42.516 Y86.061 E25.90392
G1 X42.295 Y86.477 E25.91961
G1 X41.741 Y87.601 E25.96136
G1 X41.075 Y89.011 E26.0133
G1 X40.386 Y90.524 E26.06868
G1 X39.756 Y91.956 E26.12079
G1 X39.488 Y92.59 E26.14372
G1 X39.267 Y93.134 E26.16328
G1 X38.864 Y94.184 E26.20074
G1 X38.487 Y95.213 E26.23725
G1 X38.134 Y96.225 E26.27295
G1 X37.806 Y97.226 E26.30804
G1 X37.499 Y98.222 E26.34275
G1 X37.214 Y99.214 E26.37713
G1 X36.951 Y100.209 E26.41142
G1 X36.704 Y101.209 E26.44573
G1 X36.477 Y102.22 E26.48024
G1 X36.265 Y103.244 E26.51508
G1 X36.07 Y104.289 E26.55049
G1 X35.887 Y105.356 E26.58655
G1 X35.739 Y106.327 E26.61926
G1 X35.627 Y107.2 E26.64858
G1 X35.547 Y108.04 E26.67669
G1 X35.494 Y108.907 E26.70562
G1 X35.466 Y109.867 E26.73762
G1 X35.454 Y110.98 E26.77469
G1 X35.452 Y112.126 E26.81287
G1 X35.462 Y112.971 E26.84102
G1 X35.492 Y113.582 E26.86139
G1 X35.518 Y113.838 E26.86996
G1 X35.554 Y114.061 E26.87749
G1 X35.604 Y114.271 E26.88468
G1 X35.672 Y114.466 E26.89156
G1 X35.76 Y114.65 E26.89835
G1 X35.911 Y114.88 E26.90752
G1 X36.158 Y115.174 E26.92031
G1 X36.437 Y115.431 E26.93294
G1 X36.715 Y115.608 E26.94392
G1 X36.947 Y115.671 E26.95193
G1 X37.329 Y115.714 E26.96473
G1 X37.866 Y115.751 E26.98266
G1 X38.556 Y115.785 E27.00568
G1 X39.374 Y115.814 E27.03294
G1 X41.671 Y115.861 E27.10947
G1 X42.308 Y115.867 E27.13069
G1 X43.128 Y115.865 E27.15801
G1 X43.84 Y115.847 E27.18173
G1 X44.496 Y115.808 E27.20362
G1 X45.145 Y115.747 E27.22533
G1 X45.836 Y115.659 E27.24854
G1 X46.623 Y115.544 E27.27503
G1 X47.919 Y115.331 E27.31878
G1 X48.841 Y115.157 E27.35003
G1 X49.808 Y114.958 E27.38292
G1 X50.8 Y114.74 E27.41675
G1 X51.796 Y114.508 E27.45082
G1 X52.776 Y114.268 E27.48443
G1 X53.719 Y114.024 E27.51687
G1 X54.604 Y113.782 E27.54744
G1 X55.41 Y113.546 E27.57541
G1 X56.121 Y113.322 E27.60024
G1 X56.72 Y113.11 E27.62141
G1 X57.567 Y112.753 E27.65202
G1 X57.649 Y112.727 E27.65489
G1 X57.779 Y112.697 E27.65933
G1 X58.334 Y112.497 E27.67899
G1 X60.109 Y111.802 E27.74248
G1 X61.949 Y111.043 E27.80878
